; generated by Slic3r 1.3.0 on 2020-08-12 at 09:42:44

; external perimeters extrusion width = 0.44mm (3.38mm^3/s)
; perimeters extrusion width = 0.48mm (7.54mm^3/s)
; infill extrusion width = 0.48mm (10.05mm^3/s)
; solid infill extrusion width = 0.48mm (2.51mm^3/s)
; top infill extrusion width = 0.48mm (1.88mm^3/s)

M107
M104 S200 ; set temperature
G28 ; home all axes
G1 Z5 F5000 ; lift nozzle

; Filament gcode

M109 S200 ; set temperature and wait for it to be reached
G21 ; set units to millimeters
G90 ; use absolute coordinates
M82 ; use absolute distances for extrusion
G92 E0
G1 E-1.00000 F1800.00000
G92 E0
G1 Z0.350 F7800.000
G1 X79.191 Y80.346 F7800.000
G1 E1.00000 F1800.00000
G1 F1800
G1 X80.466 Y79.078 E1.17168
G1 X81.818 Y77.893 E1.34337
G1 X83.109 Y76.891 E1.49932
G1 X84.593 Y75.876 E1.67100
G1 X86.283 Y74.877 E1.85840
G1 X87.738 Y74.136 E2.01436
G1 X89.386 Y73.417 E2.18605
G1 X91.233 Y72.752 E2.37346
G1 X92.802 Y72.296 E2.52941
G1 X94.555 Y71.899 E2.70110
G1 X96.494 Y71.592 E2.88851
G1 X98.120 Y71.438 E3.04446
G1 X99.918 Y71.376 E3.21616
G1 X101.880 Y71.438 E3.40357
G1 X103.669 Y71.612 E3.57524
G1 X105.283 Y71.868 E3.73120
G1 X107.198 Y72.296 E3.91861
G1 X108.924 Y72.803 E4.09030
G1 X110.460 Y73.356 E4.24624
G1 X112.262 Y74.136 E4.43366
G1 X113.717 Y74.877 E4.58963
G1 X115.268 Y75.788 E4.76129
G1 X116.758 Y76.795 E4.93298
G1 X118.182 Y77.893 E5.10466
G1 X119.654 Y79.191 E5.29208
G1 X120.809 Y80.346 E5.44803
G1 X122.002 Y81.691 E5.61971
G1 X123.205 Y83.242 E5.80712
G1 X124.212 Y84.732 E5.97881
G1 X125.043 Y86.138 E6.13476
G1 X125.935 Y87.887 E6.32218
G1 X126.644 Y89.539 E6.49383
G1 X127.197 Y91.076 E6.64981
G1 X127.745 Y92.961 E6.83723
G1 X128.101 Y94.556 E6.99321
G1 X128.388 Y96.331 E7.16486
G1 X128.562 Y98.120 E7.33654
G1 X128.624 Y99.918 E7.50823
G1 X128.562 Y101.880 E7.69565
G1 X128.388 Y103.669 E7.86733
G1 X128.132 Y105.283 E8.02328
G1 X127.704 Y107.198 E8.21070
G1 X127.248 Y108.767 E8.36664
G1 X126.644 Y110.461 E8.53834
G1 X125.864 Y112.262 E8.72574
G1 X125.043 Y113.862 E8.89742
G1 X124.212 Y115.268 E9.05337
G1 X123.109 Y116.891 E9.24079
G1 X122.002 Y118.309 E9.41248
G1 X120.809 Y119.654 E9.58416
G1 X119.654 Y120.809 E9.74011
G1 X118.309 Y122.002 E9.91179
G1 X116.758 Y123.205 E10.09918
G1 X115.407 Y124.124 E10.25516
G1 X113.862 Y125.043 E10.42685
G1 X112.262 Y125.864 E10.59853
G1 X110.626 Y126.578 E10.76891
G1 X108.767 Y127.248 E10.95763
G1 X107.198 Y127.704 E11.11357
G1 X105.445 Y128.101 E11.28526
G1 X103.506 Y128.408 E11.47268
G1 X101.880 Y128.562 E11.62862
G1 X100.082 Y128.624 E11.80030
G1 X98.120 Y128.562 E11.98772
G1 X96.494 Y128.408 E12.14367
G1 X94.717 Y128.132 E12.31535
G1 X92.802 Y127.704 E12.50277
G1 X91.233 Y127.248 E12.65872
G1 X89.539 Y126.644 E12.83044
G1 X87.887 Y125.935 E13.00209
G1 X86.283 Y125.123 E13.17377
G1 X84.593 Y124.124 E13.36119
G1 X83.242 Y123.205 E13.51716
G1 X81.818 Y122.107 E13.68882
G1 X80.346 Y120.809 E13.87624
G1 X79.191 Y119.654 E14.03219
G1 X77.998 Y118.309 E14.20387
G1 X76.787 Y116.747 E14.39256
G1 X75.788 Y115.268 E14.56297
G1 X74.877 Y113.717 E14.73465
G1 X74.136 Y112.262 E14.89060
G1 X73.417 Y110.614 E15.06228
G1 X72.752 Y108.767 E15.24970
G1 X72.296 Y107.198 E15.40567
G1 X71.899 Y105.445 E15.57733
G1 X71.592 Y103.506 E15.76475
G1 X71.438 Y101.880 E15.92070
G1 X71.376 Y100.082 E16.09238
G1 X71.438 Y98.120 E16.27980
G1 X71.592 Y96.494 E16.43575
G1 X71.868 Y94.717 E16.60743
G1 X72.296 Y92.802 E16.79485
G1 X72.752 Y91.233 E16.95080
G1 X73.356 Y89.540 E17.12249
G1 X74.136 Y87.738 E17.30990
G1 X74.877 Y86.283 E17.46585
G1 X75.788 Y84.732 E17.63753
G1 X76.891 Y83.109 E17.82495
G1 X77.998 Y81.691 E17.99663
G1 X79.150 Y80.389 E18.16259
G1 E17.16259 F1800.00000
G92 E0
G1 X102.305 Y115.165 F7800.000
G1 E1.00000 F1800.00000
G1 F1800
G1 X101.695 Y115.670 E1.07569
G1 X100.977 Y116.008 E1.15137
G1 X100.199 Y116.156 E1.22706
G1 X99.407 Y116.106 E1.30275
G1 X98.653 Y115.862 E1.37843
G1 X97.984 Y115.437 E1.45412
G1 X97.441 Y114.859 E1.52981
G1 X97.060 Y114.164 E1.60549
G1 X96.862 Y113.396 E1.68118
G1 X96.862 Y112.604 E1.75687
G1 X97.060 Y111.836 E1.83255
G1 X97.441 Y111.141 E1.90824
G1 X97.984 Y110.563 E1.98393
G1 X98.653 Y110.138 E2.05961
G1 X99.407 Y109.894 E2.13530
G1 X100.185 Y109.845 E2.20973
G1 X100.973 Y109.990 E2.28623
G1 X101.695 Y110.330 E2.36234
G1 X102.305 Y110.835 E2.43802
G1 X102.771 Y111.476 E2.51371
G1 X103.058 Y112.201 E2.58814
G1 X103.163 Y112.996 E2.66464
G1 X103.063 Y113.786 E2.74075
G1 X102.771 Y114.524 E2.81643
G1 X102.341 Y115.116 E2.88639
G1 X101.846 Y114.734 F7800.000
G1 F1800
G1 X101.357 Y115.138 E2.94700
G1 X100.783 Y115.409 E3.00762
G1 X100.159 Y115.528 E3.06823
G1 X99.525 Y115.488 E3.12884
G1 X98.922 Y115.292 E3.18945
G1 X98.386 Y114.951 E3.25007
G1 X97.951 Y114.489 E3.31068
G1 X97.645 Y113.932 E3.37129
G1 X97.487 Y113.317 E3.43191
G1 X97.487 Y112.683 E3.49252
G1 X97.645 Y112.068 E3.55313
G1 X97.951 Y111.511 E3.61374
G1 X98.386 Y111.049 E3.67436
G1 X98.922 Y110.708 E3.73497
G1 X99.525 Y110.512 E3.79558
G1 X100.148 Y110.473 E3.85510
G1 X100.780 Y110.590 E3.91652
G1 X101.357 Y110.862 E3.97739
G1 X101.846 Y111.266 E4.03801
G1 X102.219 Y111.780 E4.09862
G1 X102.449 Y112.360 E4.15814
G1 X102.533 Y112.997 E4.21956
G1 X102.453 Y113.630 E4.28043
G1 X102.219 Y114.220 E4.34104
G1 X101.881 Y114.685 E4.39593
G1 X101.387 Y114.303 F7800.000
G1 F1800
G1 X101.020 Y114.607 E4.44147
G1 X100.588 Y114.810 E4.48701
G1 X100.119 Y114.899 E4.53255
G1 X99.643 Y114.869 E4.57808
G1 X99.190 Y114.722 E4.62362
G1 X98.787 Y114.466 E4.66916
G1 X98.461 Y114.118 E4.71470
G1 X98.231 Y113.700 E4.76024
G1 X98.112 Y113.238 E4.80578
G1 X98.112 Y112.762 E4.85131
G1 X98.231 Y112.300 E4.89685
G1 X98.461 Y111.882 E4.94239
G1 X98.787 Y111.534 E4.98793
G1 X99.190 Y111.278 E5.03347
G1 X99.643 Y111.131 E5.07901
G1 X100.110 Y111.102 E5.12362
G1 X100.587 Y111.190 E5.16997
G1 X101.020 Y111.393 E5.21560
G1 X101.387 Y111.697 E5.26114
G1 X101.667 Y112.083 E5.30668
G1 X101.839 Y112.518 E5.35129
G1 X101.903 Y112.999 E5.39763
G1 X101.843 Y113.473 E5.44327
G1 X101.667 Y113.917 E5.48880
G1 X101.422 Y114.254 E5.52861
G1 X101.387 Y114.303 F7800.000
G1 E4.52861 F1800.00000
G92 E0
G1 X100.492 Y105.089 F7800.000
G1 E1.00000 F1800.00000
G1 F1800
G1 X99.199 Y105.050 E1.12346
G1 X97.991 Y104.699 E1.24357
G1 X96.860 Y104.034 E1.36883
G1 X95.969 Y103.143 E1.48909
G1 X95.312 Y102.039 E1.61177
G1 X94.951 Y100.802 E1.73487
G1 X94.911 Y99.511 E1.85818
G1 X95.186 Y98.282 E1.97841
G1 X95.782 Y97.113 E2.10367
G1 X96.614 Y96.169 E2.22380
G1 X97.678 Y95.445 E2.34663
G1 X98.889 Y95.010 E2.46951
G1 X100.140 Y94.892 E2.58950
G1 X101.433 Y95.092 E2.71446
G1 X102.607 Y95.603 E2.83668
G1 X103.617 Y96.387 E2.95875
G1 X104.407 Y97.412 E3.08233
G1 X104.906 Y98.564 E3.20217
G1 X105.109 Y99.828 E3.32438
G1 X104.981 Y101.139 E3.45023
G1 X104.555 Y102.323 E3.57030
G1 X103.829 Y103.387 E3.69330
G1 X102.863 Y104.235 E3.81599
G1 X101.745 Y104.804 E3.93579
G1 X100.550 Y105.075 E4.05276
G1 X100.431 Y104.462 F7800.000
G1 F1800
G1 X99.298 Y104.427 E4.16104
G1 X98.241 Y104.120 E4.26614
G1 X97.245 Y103.536 E4.37632
G1 X96.466 Y102.757 E4.48151
G1 X95.890 Y101.788 E4.58915
G1 X95.573 Y100.703 E4.69706
G1 X95.538 Y99.570 E4.80526
G1 X95.779 Y98.495 E4.91042
G1 X96.303 Y97.467 E5.02061
G1 X97.031 Y96.642 E5.12572
G1 X97.964 Y96.006 E5.23346
G1 X99.026 Y95.625 E5.34123
G1 X100.121 Y95.521 E5.44625
G1 X101.258 Y95.698 E5.55610
G1 X102.286 Y96.144 E5.66313
G1 X103.171 Y96.831 E5.77009
G1 X103.865 Y97.732 E5.87860
G1 X104.301 Y98.740 E5.98353
G1 X104.479 Y99.847 E6.09057
G1 X104.366 Y101.001 E6.20126
G1 X103.993 Y102.036 E6.30633
G1 X103.358 Y102.970 E6.41418
G1 X102.510 Y103.713 E6.52183
G1 X101.531 Y104.212 E6.62674
G1 X100.490 Y104.448 E6.72866
G1 X100.371 Y103.835 F7800.000
G1 F1800
G1 X99.396 Y103.805 E6.82177
G1 X98.490 Y103.542 E6.91185
G1 X97.631 Y103.037 E7.00696
G1 X96.963 Y102.370 E7.09708
G1 X96.467 Y101.537 E7.18969
G1 X96.195 Y100.605 E7.28240
G1 X96.165 Y99.630 E7.37548
G1 X96.371 Y98.709 E7.46558
G1 X96.824 Y97.822 E7.56070
G1 X97.448 Y97.114 E7.65078
G1 X98.250 Y96.568 E7.74343
G1 X99.163 Y96.239 E7.83610
G1 X100.102 Y96.150 E7.92615
G1 X101.083 Y96.303 E8.02088
G1 X101.965 Y96.686 E8.11273
G1 X102.725 Y97.276 E8.20456
G1 X103.322 Y98.051 E8.29802
G1 X103.697 Y98.917 E8.38804
G1 X103.850 Y99.867 E8.47990
G1 X103.752 Y100.862 E8.57544
G1 X103.432 Y101.750 E8.66551
G1 X102.886 Y102.552 E8.75820
G1 X102.156 Y103.192 E8.85082
G1 X101.316 Y103.620 E8.94083
G1 X100.429 Y103.821 E9.02771
G1 X100.371 Y103.835 F7800.000
G1 E8.02771 F1800.00000
G92 E0
G1 X100.199 Y89.156 F7800.000
G1 E1.00000 F1800.00000
G1 F1800
G1 X99.407 Y89.106 E1.07569
G1 X98.666 Y88.866 E1.15012
G1 X97.987 Y88.440 E1.22661
G1 X97.441 Y87.859 E1.30272
G1 X97.060 Y87.164 E1.37841
G1 X96.862 Y86.396 E1.45410
G1 X96.862 Y85.604 E1.52978
G1 X97.060 Y84.836 E1.60547
G1 X97.441 Y84.141 E1.68116
G1 X97.984 Y83.563 E1.75684
G1 X98.653 Y83.138 E1.83253
G1 X99.407 Y82.894 E1.90822
G1 X100.185 Y82.845 E1.98265
G1 X100.973 Y82.990 E2.05914
G1 X101.695 Y83.330 E2.13525
G1 X102.305 Y83.835 E2.21094
G1 X102.771 Y84.476 E2.28663
G1 X103.063 Y85.214 E2.36231
G1 X103.162 Y86.000 E2.43800
G1 X103.063 Y86.786 E2.51369
G1 X102.771 Y87.524 E2.58937
G1 X102.305 Y88.165 E2.66506
G1 X101.695 Y88.670 E2.74075
G1 X100.977 Y89.008 E2.81643
G1 X100.258 Y89.145 E2.88639
G1 X100.159 Y88.528 F7800.000
G1 F1800
G1 X99.525 Y88.488 E2.94700
G1 X98.933 Y88.295 E3.00653
G1 X98.387 Y87.953 E3.06795
G1 X97.951 Y87.489 E3.12882
G1 X97.645 Y86.932 E3.18943
G1 X97.487 Y86.317 E3.25004
G1 X97.487 Y85.683 E3.31065
G1 X97.645 Y85.068 E3.37127
G1 X97.951 Y84.511 E3.43188
G1 X98.386 Y84.049 E3.49249
G1 X98.922 Y83.708 E3.55310
G1 X99.525 Y83.512 E3.61372
G1 X100.148 Y83.473 E3.67324
G1 X100.780 Y83.590 E3.73466
G1 X101.357 Y83.862 E3.79553
G1 X101.846 Y84.266 E3.85614
G1 X102.219 Y84.780 E3.91676
G1 X102.453 Y85.370 E3.97737
G1 X102.533 Y86.000 E4.03798
G1 X102.453 Y86.630 E4.09859
G1 X102.219 Y87.220 E4.15921
G1 X101.846 Y87.734 E4.21982
G1 X101.357 Y88.138 E4.28043
G1 X100.783 Y88.409 E4.34104
G1 X100.218 Y88.516 E4.39593
G1 X100.119 Y87.899 F7800.000
G1 F1800
G1 X99.643 Y87.869 E4.44147
G1 X99.199 Y87.725 E4.48608
G1 X98.788 Y87.467 E4.53243
G1 X98.461 Y87.118 E4.57806
G1 X98.231 Y86.700 E4.62360
G1 X98.112 Y86.238 E4.66914
G1 X98.112 Y85.762 E4.71467
G1 X98.231 Y85.300 E4.76021
G1 X98.461 Y84.882 E4.80575
G1 X98.787 Y84.534 E4.85129
G1 X99.190 Y84.278 E4.89683
G1 X99.643 Y84.131 E4.94237
G1 X100.110 Y84.102 E4.98698
G1 X100.587 Y84.190 E5.03333
G1 X101.020 Y84.393 E5.07896
G1 X101.387 Y84.697 E5.12450
G1 X101.667 Y85.083 E5.17003
G1 X101.843 Y85.527 E5.21557
G1 X101.903 Y86.000 E5.26111
G1 X101.843 Y86.473 E5.30665
G1 X101.667 Y86.917 E5.35219
G1 X101.387 Y87.303 E5.39773
G1 X101.020 Y87.607 E5.44327
G1 X100.588 Y87.810 E5.48880
G1 X100.178 Y87.888 E5.52861
G1 X100.119 Y87.899 F7800.000
G1 E4.52861 F1800.00000
G92 E0
G1 X100.505 Y75.616 F7800.000
G1 E1.00000 F1800.00000
G1 F1800
G1 X101.532 Y75.649 E1.09806
G1 X103.058 Y75.793 E1.24441
G1 X104.572 Y76.033 E1.39076
G1 X106.068 Y76.367 E1.53710
G1 X107.540 Y76.795 E1.68345
G1 X108.982 Y77.314 E1.82980
G1 X110.388 Y77.923 E1.97610
G1 X111.766 Y78.625 E2.12375
G1 X113.074 Y79.399 E2.26884
G1 X114.342 Y80.260 E2.41518
G1 X115.553 Y81.200 E2.56153
G1 X116.703 Y82.214 E2.70788
G1 X117.786 Y83.297 E2.85422
G1 X118.800 Y84.447 E3.00057
G1 X119.740 Y85.658 E3.14692
G1 X120.601 Y86.926 E3.29326
G1 X121.381 Y88.245 E3.43961
G1 X122.077 Y89.611 E3.58595
G1 X122.686 Y91.018 E3.73230
G1 X123.205 Y92.460 E3.87865
G1 X123.629 Y93.919 E4.02373
G1 X123.967 Y95.428 E4.17138
G1 X124.207 Y96.942 E4.31769
G1 X124.351 Y98.468 E4.46403
G1 X124.399 Y100.000 E4.61038
G1 X124.351 Y101.532 E4.75672
G1 X124.207 Y103.058 E4.90307
G1 X123.967 Y104.572 E5.04942
G1 X123.633 Y106.068 E5.19577
G1 X123.205 Y107.540 E5.34211
G1 X122.686 Y108.982 E5.48846
G1 X122.077 Y110.389 E5.63480
G1 X121.381 Y111.755 E5.78115
G1 X120.601 Y113.074 E5.92750
G1 X119.740 Y114.342 E6.07384
G1 X118.800 Y115.553 E6.22019
G1 X117.786 Y116.703 E6.36654
G1 X116.703 Y117.786 E6.51288
G1 X115.553 Y118.800 E6.65923
G1 X114.342 Y119.740 E6.80558
G1 X113.074 Y120.601 E6.95192
G1 X111.755 Y121.381 E7.09827
G1 X110.389 Y122.077 E7.24462
G1 X108.994 Y122.681 E7.38970
G1 X107.539 Y123.205 E7.53735
G1 X106.068 Y123.633 E7.68365
G1 X104.572 Y123.967 E7.83000
G1 X103.058 Y124.207 E7.97635
G1 X101.532 Y124.351 E8.12269
G1 X100.000 Y124.399 E8.26904
G1 X98.468 Y124.351 E8.41539
G1 X96.955 Y124.208 E8.56047
G1 X95.428 Y123.967 E8.70812
G1 X93.932 Y123.633 E8.85442
G1 X92.460 Y123.205 E9.00077
G1 X91.018 Y122.686 E9.14712
G1 X89.611 Y122.077 E9.29346
G1 X88.245 Y121.381 E9.43981
G1 X86.926 Y120.601 E9.58616
G1 X85.658 Y119.740 E9.73250
G1 X84.447 Y118.800 E9.87885
G1 X83.297 Y117.786 E10.02520
G1 X82.214 Y116.703 E10.17154
G1 X81.200 Y115.553 E10.31785
G1 X80.253 Y114.331 E10.46549
G1 X79.399 Y113.074 E10.61058
G1 X78.619 Y111.755 E10.75693
G1 X77.923 Y110.389 E10.90327
G1 X77.314 Y108.982 E11.04962
G1 X76.795 Y107.540 E11.19597
G1 X76.371 Y106.081 E11.34105
G1 X76.033 Y104.572 E11.48870
G1 X75.793 Y103.058 E11.63501
G1 X75.650 Y101.545 E11.78009
G1 X75.601 Y100.000 E11.92774
G1 X75.649 Y98.468 E12.07404
G1 X75.793 Y96.942 E12.22039
G1 X76.033 Y95.428 E12.36674
G1 X76.367 Y93.932 E12.51308
G1 X76.795 Y92.460 E12.65943
G1 X77.314 Y91.018 E12.80578
G1 X77.923 Y89.611 E12.95212
G1 X78.613 Y88.257 E13.09721
G1 X79.399 Y86.926 E13.24485
G1 X80.260 Y85.658 E13.39116
G1 X81.200 Y84.447 E13.53751
G1 X82.214 Y83.297 E13.68385
G1 X83.297 Y82.214 E13.83020
G1 X84.447 Y81.200 E13.97655
G1 X85.658 Y80.260 E14.12289
G1 X86.926 Y79.399 E14.26920
G1 X88.257 Y78.613 E14.41684
G1 X89.611 Y77.923 E14.56193
G1 X91.018 Y77.314 E14.70828
G1 X92.460 Y76.795 E14.85462
G1 X93.932 Y76.367 E15.00097
G1 X95.428 Y76.033 E15.14732
G1 X96.942 Y75.793 E15.29366
G1 X98.468 Y75.649 E15.43997
G1 X100.013 Y75.601 E15.58761
G1 X100.445 Y75.615 E15.62891
G1 X100.525 Y74.992 F7800.000
G1 F1800
G1 X101.571 Y75.025 E15.72885
G1 X103.136 Y75.173 E15.87894
G1 X104.689 Y75.419 E16.02904
G1 X106.223 Y75.762 E16.17914
G1 X107.733 Y76.200 E16.32923
G1 X109.212 Y76.733 E16.47933
G1 X110.655 Y77.357 E16.62940
G1 X112.067 Y78.078 E16.78079
G1 X113.409 Y78.871 E16.92962
G1 X114.709 Y79.755 E17.07971
G1 X115.951 Y80.718 E17.22981
G1 X117.131 Y81.758 E17.37991
G1 X118.242 Y82.869 E17.53000
G1 X119.282 Y84.049 E17.68010
G1 X120.245 Y85.291 E17.83020
G1 X121.129 Y86.591 E17.98029
G1 X121.929 Y87.944 E18.13039
G1 X122.643 Y89.345 E18.28048
G1 X123.267 Y90.788 E18.43058
G1 X123.800 Y92.267 E18.58068
G1 X124.235 Y93.764 E18.72950
G1 X124.581 Y95.311 E18.88089
G1 X124.827 Y96.864 E19.03096
G1 X124.975 Y98.429 E19.18106
G1 X125.025 Y100.000 E19.33116
G1 X124.975 Y101.571 E19.48125
G1 X124.827 Y103.136 E19.63135
G1 X124.581 Y104.689 E19.78145
G1 X124.238 Y106.223 E19.93154
G1 X123.800 Y107.733 E20.08164
G1 X123.267 Y109.212 E20.23174
G1 X122.643 Y110.655 E20.38183
G1 X121.929 Y112.056 E20.53193
G1 X121.129 Y113.409 E20.68203
G1 X120.245 Y114.709 E20.83212
G1 X119.282 Y115.951 E20.98222
G1 X118.242 Y117.131 E21.13232
G1 X117.131 Y118.242 E21.28241
G1 X115.951 Y119.282 E21.43251
G1 X114.709 Y120.245 E21.58261
G1 X113.409 Y121.129 E21.73270
G1 X112.056 Y121.929 E21.88280
G1 X110.655 Y122.643 E22.03289
G1 X109.224 Y123.262 E22.18172
G1 X107.733 Y123.800 E22.33311
G1 X106.223 Y124.238 E22.48318
G1 X104.689 Y124.581 E22.63328
G1 X103.136 Y124.827 E22.78337
G1 X101.571 Y124.975 E22.93347
G1 X100.000 Y125.025 E23.08357
G1 X98.429 Y124.975 E23.23366
