; generated by Slic3r 1.3.0 on 2020-08-12 at 15:06:48

; external perimeters extrusion width = 0.44mm (3.38mm^3/s)
; perimeters extrusion width = 0.48mm (7.54mm^3/s)
; infill extrusion width = 0.48mm (10.05mm^3/s)
; solid infill extrusion width = 0.48mm (2.51mm^3/s)
; top infill extrusion width = 0.48mm (1.88mm^3/s)

M107
M104 S200 ; set temperature
G28 ; home all axes
G1 Z5 F5000 ; lift nozzle

; Filament gcode

M109 S200 ; set temperature and wait for it to be reached
G21 ; set units to millimeters
G90 ; use absolute coordinates
M82 ; use absolute distances for extrusion
G92 E0
G1 E-1.00000 F1800.00000
G92 E0
G1 Z0.350 F7800.000
G1 X82.327 Y94.152 F7800.000
G1 E1.00000 F1800.00000
G1 F1800
G1 X83.500 Y93.875 E1.11503
G1 X116.500 Y93.875 E4.26574
G1 X117.881 Y94.267 E4.40277
G1 X118.848 Y95.327 E4.53980
G1 X119.125 Y96.500 E4.65484
G1 X119.125 Y103.500 E5.32317
G1 X118.733 Y104.881 E5.46020
G1 X117.673 Y105.848 E5.59723
G1 X116.500 Y106.125 E5.71227
G1 X83.500 Y106.125 E8.86297
G1 X82.119 Y105.733 E9.00001
G1 X81.152 Y104.673 E9.13704
G1 X80.875 Y103.500 E9.25207
G1 X80.875 Y96.500 E9.92040
G1 X81.267 Y95.119 E10.05743
G1 X82.283 Y94.192 E10.18874
G1 E9.18874 F1800.00000
G92 E0
G1 X87.887 Y101.303 F7800.000
G1 E1.00000 F1800.00000
G1 F1800
G1 X87.520 Y101.607 E1.04554
G1 X87.088 Y101.810 E1.09108
G1 X86.198 Y101.979 E1.17762
G1 X86.198 Y101.887 E1.18648
G1 X85.690 Y101.722 E1.23746
G1 X85.287 Y101.466 E1.28300
G1 X84.961 Y101.118 E1.32853
G1 X84.731 Y100.700 E1.37407
G1 X84.612 Y100.238 E1.41961
G1 X84.612 Y99.762 E1.46515
G1 X84.731 Y99.300 E1.51069
G1 X84.961 Y98.882 E1.55623
G1 X85.287 Y98.534 E1.60177
G1 X85.690 Y98.278 E1.64731
G1 X86.143 Y98.131 E1.69284
G1 X86.609 Y98.102 E1.73735
G1 X87.087 Y98.190 E1.78379
G1 X87.520 Y98.393 E1.82943
G1 X87.887 Y98.697 E1.87497
G1 X88.167 Y99.083 E1.92051
G1 X88.343 Y99.527 E1.96605
G1 X88.403 Y100.000 E2.01159
G1 X88.343 Y100.473 E2.05712
G1 X88.167 Y100.917 E2.10266
G1 X87.922 Y101.254 E2.14247
G1 X87.887 Y101.303 F7800.000
G1 E1.14247 F1800.00000
G92 E0
G1 X85.364 Y97.745 F7800.000
G1 E1.00000 F1800.00000
G1 F1800
G1 X84.886 Y98.049 E1.05405
G1 X84.475 Y98.486 E1.11134
G1 X84.475 Y97.475 E1.20788
G1 X85.285 Y97.475 E1.28523
G1 X85.347 Y97.688 E1.30638
G1 E0.30638 F1800.00000
G92 E0
G1 X84.475 Y101.514 F7800.000
G1 E1.00000 F1800.00000
G1 F1800
G1 X84.886 Y101.951 E1.05729
G1 X85.364 Y102.255 E1.11134
G1 X85.285 Y102.525 E1.13822
G1 X84.475 Y102.525 E1.21558
G1 X84.475 Y101.574 E1.30638
G1 E0.30638 F1800.00000
G92 E0
G1 X110.778 Y100.217 F7800.000
G1 E1.00000 F1800.00000
G1 F1800
G1 X110.788 Y99.757 E1.04395
G1 X110.889 Y99.362 E1.08290
G1 X111.098 Y98.982 E1.12436
G1 X111.396 Y98.665 E1.16583
G1 X111.771 Y98.427 E1.20824
G1 X112.202 Y98.296 E1.25124
G1 X112.609 Y98.271 E1.29019
G1 X113.035 Y98.352 E1.33165
G1 X113.428 Y98.537 E1.37312
G1 X113.771 Y98.820 E1.41554
G1 X114.028 Y99.190 E1.45853
G1 X114.178 Y99.569 E1.49748
G1 X114.233 Y100.000 E1.53895
G1 X114.178 Y100.431 E1.58041
G1 X114.018 Y100.835 E1.62188
G1 X113.757 Y101.194 E1.66430
G1 X113.405 Y101.474 E1.70729
G1 X113.035 Y101.648 E1.74624
G1 X112.609 Y101.729 E1.78771
G1 X112.175 Y101.702 E1.82917
G1 X111.762 Y101.568 E1.87064
G1 X111.396 Y101.335 E1.91210
G1 X111.098 Y101.018 E1.95357
G1 X110.902 Y100.661 E1.99252
G1 X110.794 Y100.275 E2.03074
G1 X111.405 Y100.138 F7800.000
G1 F1800
G1 X111.411 Y99.842 E2.05900
G1 X111.475 Y99.594 E2.08348
G1 X111.608 Y99.352 E2.10987
G1 X111.797 Y99.150 E2.13626
G1 X112.033 Y99.000 E2.16300
G1 X112.313 Y98.915 E2.19092
G1 X112.569 Y98.899 E2.21540
G1 X112.841 Y98.951 E2.24179
G1 X113.091 Y99.069 E2.26818
G1 X113.307 Y99.247 E2.29492
G1 X113.474 Y99.487 E2.32284
G1 X113.568 Y99.726 E2.34732
G1 X113.603 Y100.000 E2.37371
G1 X113.568 Y100.274 E2.40010
G1 X113.466 Y100.531 E2.42649
G1 X113.302 Y100.758 E2.45323
G1 X113.073 Y100.940 E2.48115
G1 X112.841 Y101.049 E2.50563
G1 X112.569 Y101.101 E2.53202
G1 X112.293 Y101.083 E2.55841
G1 X112.030 Y100.998 E2.58481
G1 X111.797 Y100.850 E2.61120
G1 X111.608 Y100.648 E2.63759
G1 X111.484 Y100.423 E2.66207
G1 X111.421 Y100.196 E2.68460
G1 X111.405 Y100.138 F7800.000
G1 X111.069 Y101.900 F7800.000
G1 F1800
G1 X88.998 Y101.900 E4.79190
G1 X89.271 Y101.524 E4.83636
G1 X89.563 Y100.786 E4.91204
G1 X89.662 Y100.000 E4.98773
G1 X89.563 Y99.214 E5.06342
G1 X89.271 Y98.476 E5.13910
G1 X88.998 Y98.100 E5.18356
G1 X111.069 Y98.100 E7.29085
G1 X110.589 Y98.611 E7.35786
G1 X110.303 Y99.130 E7.41440
G1 X110.164 Y99.672 E7.46781
G1 X110.152 Y100.297 E7.52745
G1 X110.319 Y100.898 E7.58708
G1 X110.589 Y101.389 E7.64049
G1 X111.028 Y101.856 E7.70177
G1 E6.70177 F1800.00000
G92 E0
G1 X114.638 Y98.972 F7800.000
G1 E1.00000 F1800.00000
G1 F1800
G1 X114.030 Y98.100 E1.10144
G1 X114.900 Y98.100 E1.18448
G1 X114.900 Y98.889 E1.25985
G1 X114.695 Y98.954 E1.28040
G1 E0.28040 F1800.00000
G92 E0
G1 X114.641 Y101.041 F7800.000
G1 E1.00000 F1800.00000
G1 F1800
G1 X114.900 Y101.125 E1.02601
G1 X114.900 Y101.900 E1.10005
G1 X114.017 Y101.900 E1.18441
G1 X114.606 Y101.089 E1.28014
G1 X115.525 Y102.525 F7800.000
G1 F1800
G1 X87.724 Y102.525 E3.93451
G1 X87.658 Y102.232 E3.96319
G1 X87.857 Y102.138 E3.98418
G1 X88.346 Y101.734 E4.04479
G1 X88.719 Y101.220 E4.10540
G1 X88.953 Y100.630 E4.16601
G1 X89.033 Y100.000 E4.22663
G1 X88.953 Y99.370 E4.28724
G1 X88.719 Y98.780 E4.34785
G1 X88.346 Y98.266 E4.40846
G1 X87.857 Y97.862 E4.46908
G1 X87.658 Y97.768 E4.49006
G1 X87.724 Y97.475 E4.51874
G1 X115.525 Y97.475 E7.17311
G1 X115.525 Y102.465 E7.64956
G1 X116.150 Y103.150 F7800.000
G1 F1800
G1 X83.850 Y103.150 E10.73344
G1 X83.850 Y96.850 E11.33494
G1 X116.150 Y96.850 E14.41881
G1 X116.150 Y103.090 E15.01458
G1 X115.751 Y103.124 F7800.000
G1 E14.01458 F1800.00000
G92 E0
G1 X114.833 Y100.774 F7800.000
G1 E1.00000 F1800.00000
G1 F1800
G1 X114.879 Y100.042 E1.07160
G1 X114.833 Y99.238 E1.15018
G1 X113.821 Y98.409 F7800.000
G1 F1800
G1 X113.195 Y97.787 E1.15540
G1 X112.901 Y97.897 F7800.000
G1 F1800
G1 X112.623 Y97.872 E1.16155
G1 X112.140 Y97.887 E1.17220
G1 X111.872 Y97.925 E1.17815
G1 F1800
G1 X111.627 Y97.962 E1.18596
G1 X111.421 Y98.235 F7800.000
G1 F1800
G1 X112.017 Y97.787 E1.19339
G1 X112.901 Y97.897 F7800.000
G1 F1800
G1 X113.571 Y97.987 E1.21441
G1 E0.21441 F1800.00000
G92 E0
G1 X110.249 Y98.412 F7800.000
G1 E1.00000 F1800.00000
G1 F1800
G1 X110.119 Y98.742 E1.00368
G1 E0.00368 F1800.00000
G92 E0
G1 X110.149 Y101.315 F7800.000
G1 E1.00000 F1800.00000
G1 F1800
G1 X110.260 Y101.588 E1.00231
G1 X109.324 Y101.342 F7800.000
G1 F1800
G1 X109.456 Y101.209 E1.02080
G1 X109.343 Y100.930 E1.05049
G1 X109.721 Y100.776 E1.09078
G1 X109.591 Y100.310 E1.13850
G1 X109.594 Y100.158 E1.15340
G1 X108.411 Y101.342 E1.31836
G1 X107.499 Y101.342 E1.40831
G1 X109.689 Y99.151 E1.71366
G1 X109.307 Y99.000 E1.75415
G1 X109.443 Y98.658 E1.79038
G1 X109.270 Y98.658 E1.80744
G1 X106.586 Y101.342 E2.18152
G1 X105.674 Y101.342 E2.27147
G1 X108.357 Y98.658 E2.64555
G1 X107.445 Y98.658 E2.73550
G1 X104.761 Y101.342 E3.10958
G1 X103.849 Y101.342 E3.19953
G1 X106.532 Y98.658 E3.57361
G1 X105.620 Y98.658 E3.66356
G1 X102.937 Y101.342 E4.03764
G1 X102.024 Y101.342 E4.12759
G1 X104.707 Y98.658 E4.50167
G1 X103.795 Y98.658 E4.59162
G1 X101.112 Y101.342 E4.96570
G1 X100.199 Y101.342 E5.05565
G1 X102.882 Y98.658 E5.42974
G1 X101.970 Y98.658 E5.51968
G1 X99.287 Y101.342 E5.89377
G1 X98.374 Y101.342 E5.98372
G1 X101.058 Y98.658 E6.35780
G1 X100.145 Y98.658 E6.44775
G1 X97.462 Y101.342 E6.82183
G1 X96.549 Y101.342 E6.91178
G1 X99.233 Y98.658 E7.28586
G1 X98.320 Y98.658 E7.37581
G1 X95.637 Y101.342 E7.74989
G1 X94.724 Y101.342 E7.83984
G1 X97.408 Y98.658 E8.21392
G1 X96.495 Y98.658 E8.30387
G1 X93.812 Y101.342 E8.67795
G1 X92.900 Y101.342 E8.76790
G1 X95.583 Y98.658 E9.14198
G1 X94.670 Y98.658 E9.23193
G1 X91.987 Y101.342 E9.60601
G1 X91.075 Y101.342 E9.69596
G1 X93.758 Y98.658 E10.07004
G1 X92.845 Y98.658 E10.15999
G1 X90.162 Y101.342 E10.53407
G1 X89.975 Y101.342 E10.55249
G1 X90.107 Y101.009 E10.58772
G1 X90.183 Y100.409 E10.64742
G1 X91.933 Y98.658 E10.89142
G1 X91.021 Y98.658 E10.98136
G1 X90.157 Y99.522 E11.10172
G1 X90.107 Y99.123 E11.14131
G1 X89.975 Y98.791 E11.17653
G1 X90.108 Y98.658 E11.19502
G1 E10.19502 F1800.00000
G92 E0
G1 X87.389 Y97.542 F7800.000
G1 E1.00000 F1800.00000
G1 F1800
G1 X86.685 Y97.478 E1.06695
G1 F1800
G1 X86.064 Y97.492 E1.11963
G1 X85.634 Y97.555 E1.15648
G1 X84.534 Y98.934 F7800.000
G1 F1800
G1 X84.162 Y99.488 E1.16026
G1 X84.232 Y99.705 F7800.000
G1 F1800
G1 X84.231 Y100.278 E1.16590
G1 X84.269 Y100.586 E1.16896
G1 F1800
G1 X84.306 Y100.877 E1.17619
G1 X84.534 Y101.066 F7800.000
G1 F1800
G1 X84.162 Y100.512 E1.17997
G1 X84.232 Y99.705 F7800.000
G1 F1800
G1 X84.306 Y99.123 E1.19441
G1 E0.19441 F1800.00000
G92 E0
G1 X85.813 Y102.090 F7800.000
G1 E1.00000 F1800.00000
G1 F1800
G1 X85.794 Y102.224 E1.00248
G1 F1800
G1 X85.775 Y102.357 E1.00640
G1 X85.786 Y102.397 E1.00760
G1 F1800
G1 X85.808 Y102.476 E1.01110
G1 F1800
G1 X85.831 Y102.556 E1.01571
G1 F1800
G1 X85.842 Y102.595 E1.01855
G1 X86.222 Y102.568 E1.04484
G1 F1800
G1 X86.805 Y102.513 E1.09275
G1 F1800
G1 X87.388 Y102.457 E1.14817
G1 E0.14817 F1800.00000
G92 E0
G1 X111.421 Y101.765 F7800.000
G1 E1.00000 F1800.00000
G1 F1800
G1 X112.014 Y102.213 E1.00692
G1 X111.855 Y102.073 F7800.000
G1 F1800
G1 X111.626 Y102.037 E1.01419
G1 X111.855 Y102.073 F7800.000
G1 F1800
G1 X112.110 Y102.112 E1.01987
G1 X112.623 Y102.128 E1.03117
G1 X112.901 Y102.103 E1.03731
G1 F1800
G1 X113.545 Y102.017 E1.05751
G1 X113.169 Y102.213 F7800.000
G1 F1800
G1 X113.799 Y101.606 E1.06275
G1 E0.06275 F1800.00000
G92 E0
G1 Z0.650 F7800.000
G1 X88.272 Y100.000 F7800.000
G1 E1.00000 F1800.00000
G1 F900
G1 X88.216 Y100.441 E1.02185
G1 X88.053 Y100.854 E1.04369
G1 X87.792 Y101.213 E1.06554
G1 X87.449 Y101.496 E1.08739
G1 X87.047 Y101.685 E1.10923
G1 X86.611 Y101.768 E1.13108
G1 X86.168 Y101.740 E1.15293
G1 X85.746 Y101.603 E1.17478
G1 X85.371 Y101.365 E1.19662
G1 X85.067 Y101.041 E1.21847
G1 X84.853 Y100.652 E1.24032
G1 X84.742 Y100.222 E1.26216
G1 X84.742 Y99.778 E1.28401
G1 X84.845 Y99.376 E1.30440
G1 X85.065 Y98.960 E1.32757
G1 X85.370 Y98.635 E1.34948
G1 X85.737 Y98.400 E1.37092
G1 X86.168 Y98.260 E1.39322
G1 X86.582 Y98.234 E1.41361
G1 X87.046 Y98.314 E1.43678
G1 X87.449 Y98.504 E1.45872
G1 X87.792 Y98.787 E1.48057
G1 X88.053 Y99.146 E1.50241
G1 X88.216 Y99.559 E1.52426
G1 X88.264 Y99.940 E1.54316
G1 X88.272 Y100.000 F7800.000
G1 E0.54316 F1800.00000
G92 E0
G1 X85.241 Y102.464 F7800.000
G1 E1.00000 F1800.00000
G1 F900
G1 X84.536 Y102.464 E1.03865
G1 X84.536 Y101.669 E1.08227
G1 X84.846 Y101.999 E1.10712
G1 X85.293 Y102.283 E1.13617
G1 X85.257 Y102.406 E1.14323
G1 X84.536 Y98.331 F7800.000
G1 F900
G1 X84.536 Y97.536 E1.18685
G1 X85.237 Y97.536 E1.22531
G1 X85.290 Y97.717 E1.23563
G1 X84.844 Y98.003 E1.26470
G1 X84.577 Y98.288 E1.28611
G1 X110.738 Y99.704 F7800.000
G1 F900
G1 X110.832 Y99.339 E1.30676
G1 X111.048 Y98.945 E1.33144
G1 X111.356 Y98.617 E1.35611
G1 X111.758 Y98.362 E1.38223
G1 X112.237 Y98.233 E1.40943
G1 X112.613 Y98.209 E1.43009
G1 X113.054 Y98.293 E1.45476
G1 X113.461 Y98.485 E1.47943
G1 X113.808 Y98.772 E1.50411
G1 X114.072 Y99.136 E1.52878
G1 X114.200 Y99.459 E1.54784
G1 X114.299 Y99.965 E1.57616
G1 X114.238 Y100.446 E1.60275
G1 X114.072 Y100.864 E1.62742
G1 X113.808 Y101.228 E1.65210
G1 X113.461 Y101.515 E1.67677
G1 X113.054 Y101.707 E1.70145
G1 X112.590 Y101.795 E1.72740
G1 X112.154 Y101.760 E1.75137
G1 X111.736 Y101.624 E1.77550
G1 X111.356 Y101.383 E1.80017
G1 X111.048 Y101.055 E1.82484
G1 X110.867 Y100.725 E1.84550
G1 X110.712 Y100.226 E1.87416
G1 X110.735 Y99.764 E1.89952
G1 X111.154 Y99.767 F7800.000
G1 F900
G1 X111.224 Y99.495 E1.91495
G1 X111.390 Y99.193 E1.93382
G1 X111.625 Y98.943 E1.95269
G1 X111.929 Y98.750 E1.97242
G1 X112.305 Y98.648 E1.99381
G1 X112.586 Y98.631 E2.00924
G1 X112.924 Y98.695 E2.02811
G1 X113.235 Y98.841 E2.04698
G1 X113.500 Y99.061 E2.06585
G1 X113.702 Y99.339 E2.08471
G1 X113.797 Y99.577 E2.09874
G1 X113.875 Y99.979 E2.12124
G1 X113.829 Y100.341 E2.14125
G1 X113.702 Y100.661 E2.16012
G1 X113.500 Y100.939 E2.17899
G1 X113.235 Y101.159 E2.19786
G1 X112.924 Y101.305 E2.21672
G1 X112.567 Y101.373 E2.23665
G1 X112.237 Y101.346 E2.25481
G1 X111.916 Y101.242 E2.27336
G1 X111.625 Y101.057 E2.29222
G1 X111.390 Y100.807 E2.31109
G1 X111.254 Y100.560 E2.32652
G1 X111.134 Y100.173 E2.34878
G1 X111.151 Y99.827 E2.36775
G1 X111.549 Y99.827 F7800.000
G1 F900
G1 X111.596 Y99.642 E2.37714
G1 X111.714 Y99.429 E2.38913
G1 X111.881 Y99.251 E2.40111
G1 X112.091 Y99.118 E2.41337
G1 X112.370 Y99.042 E2.42760
G1 X112.561 Y99.030 E2.43700
G1 X112.800 Y99.076 E2.44898
G1 X113.021 Y99.180 E2.46096
G1 X113.208 Y99.335 E2.47295
G1 X113.352 Y99.532 E2.48493
G1 X113.414 Y99.689 E2.49322
G1 X113.473 Y99.993 E2.50846
G1 X113.441 Y100.242 E2.52081
G1 X113.352 Y100.468 E2.53279
G1 X113.208 Y100.665 E2.54477
G1 X113.021 Y100.820 E2.55675
G1 X112.800 Y100.924 E2.56873
G1 X112.546 Y100.973 E2.58148
G1 X112.316 Y100.954 E2.59283
G1 X112.086 Y100.879 E2.60470
G1 X111.881 Y100.749 E2.61669
G1 X111.714 Y100.571 E2.62867
G1 X111.622 Y100.404 E2.63807
G1 X111.534 Y100.122 E2.65258
G1 X111.546 Y99.887 E2.66415
G1 X111.549 Y99.827 F7800.000
G1 E1.66415 F1800.00000
G92 E0
G1 X115.464 Y97.536 F7800.000
G1 E1.00000 F1800.00000
G1 F3600
G1 X115.464 Y102.464 E1.27032
G1 X87.771 Y102.464 E2.78949
G1 X87.727 Y102.267 E2.80054
G1 X87.890 Y102.190 E2.81044
G1 X88.391 Y101.776 E2.84612
G1 X88.773 Y101.250 E2.88179
G1 X89.013 Y100.645 E2.91747
G1 X89.094 Y100.000 E2.95314
G1 X89.013 Y99.355 E2.98882
G1 X88.773 Y98.750 E3.02449
G1 X88.391 Y98.224 E3.06017
G1 X87.890 Y97.810 E3.09584
G1 X87.727 Y97.733 E3.10575
G1 X87.771 Y97.536 E3.11679
G1 X115.404 Y97.536 E4.63267
G1 X115.883 Y97.117 F7800.000
G1 F3600
G1 X115.883 Y102.883 E4.94895
G1 X84.117 Y102.883 E6.69151
G1 X84.117 Y100.269 E6.83488
G1 X84.337 Y100.241 E6.84704
G1 X84.480 Y100.800 E6.87865
G1 X84.743 Y101.277 E6.90852
G1 X85.115 Y101.674 E6.93839
G1 X85.575 Y101.965 E6.96826
G1 X86.093 Y102.134 E6.99813
G1 X86.636 Y102.168 E7.02800
G1 X87.171 Y102.066 E7.05786
G1 X87.664 Y101.834 E7.08773
G1 X88.083 Y101.487 E7.11760
G1 X88.403 Y101.046 E7.14747
G1 X88.604 Y100.540 E7.17734
G1 X88.672 Y100.000 E7.20721
G1 X88.604 Y99.460 E7.23708
G1 X88.403 Y98.954 E7.26695
G1 X88.083 Y98.513 E7.29682
G1 X87.664 Y98.166 E7.32669
G1 X87.167 Y97.932 E7.35684
G1 X86.603 Y97.834 E7.38819
G1 X86.093 Y97.866 E7.41625
G1 X85.565 Y98.038 E7.44668
G1 X85.114 Y98.328 E7.47610
G1 X84.739 Y98.727 E7.50616
G1 X84.472 Y99.232 E7.53750
G1 X84.337 Y99.759 E7.56731
G1 X84.117 Y99.731 E7.57946
G1 X84.117 Y97.117 E7.72283
G1 X115.823 Y97.117 E9.46211
G1 X116.280 Y96.720 F7800.000
G1 F1800
G1 X116.280 Y103.280 E9.78480
G1 X83.720 Y103.280 E11.38649
G1 X83.720 Y96.720 E11.70919
G1 X116.220 Y96.720 E13.30792
G1 X116.103 Y97.079 F7800.000
G1 X115.089 Y98.000 F7800.000
G1 F1200
G1 X115.000 Y97.911 E13.31555
G1 X114.346 Y97.911 E13.35527
G1 X115.089 Y98.654 E13.41907
G1 X115.089 Y99.309 E13.45879
G1 X113.886 Y98.106 E13.56202
G1 X113.811 Y98.223 E13.57045
G1 X114.071 Y98.438 E13.59092
G1 X114.398 Y98.888 E13.62461
G1 X114.560 Y99.296 E13.65125
G1 X114.593 Y99.468 E13.66186
G1 X115.089 Y99.964 E13.70444
G1 X115.089 Y100.619 E13.74415
G1 X114.644 Y100.174 E13.78232
G1 X114.602 Y100.507 E13.80265
G1 X114.523 Y100.708 E13.81574
G1 X115.089 Y101.274 E13.86433
G1 X115.089 Y101.929 E13.90405
G1 X114.308 Y101.147 E13.97108
G1 X114.071 Y101.473 E13.99548
