; generated by Slic3r 1.3.0 on 2020-08-12 at 13:19:47

; external perimeters extrusion width = 0.44mm (3.38mm^3/s)
; perimeters extrusion width = 0.48mm (7.54mm^3/s)
; infill extrusion width = 0.48mm (10.05mm^3/s)
; solid infill extrusion width = 0.48mm (2.51mm^3/s)
; top infill extrusion width = 0.48mm (1.88mm^3/s)

M107
M104 S200 ; set temperature
G28 ; home all axes
G1 Z5 F5000 ; lift nozzle

; Filament gcode

M109 S200 ; set temperature and wait for it to be reached
G21 ; set units to millimeters
G90 ; use absolute coordinates
M82 ; use absolute distances for extrusion
G92 E0
G1 E-1.00000 F1800.00000
G92 E0
G1 Z0.350 F7800.000
G1 X83.195 Y88.594 F7800.000
G1 E1.00000 F1800.00000
G1 F1800
G1 X92.695 Y79.594 E2.24942
G1 X94.500 Y78.875 E2.43496
G1 X104.500 Y78.875 E3.38972
G1 X106.208 Y79.507 E3.56362
G1 X116.708 Y88.507 E4.88399
G1 X117.501 Y89.703 E5.02102
G1 X117.625 Y90.500 E5.09799
G1 X117.625 Y109.500 E6.91203
G1 X117.233 Y110.881 E7.04907
G1 X116.708 Y111.493 E7.12603
G1 X106.208 Y120.493 E8.44640
G1 X104.500 Y121.125 E8.62030
G1 X94.500 Y121.125 E9.57506
G1 X92.695 Y120.406 E9.76060
G1 X83.195 Y111.406 E11.01002
G1 X82.375 Y109.500 E11.20807
G1 X82.375 Y90.500 E13.02212
G1 X83.171 Y88.650 E13.21444
G1 E12.21444 F1800.00000
G92 E0
G1 X101.550 Y114.990 F7800.000
G1 E1.00000 F1800.00000
G1 F1800
G1 X101.089 Y115.467 E1.06336
G1 X100.578 Y115.792 E1.12116
G1 X99.975 Y115.988 E1.18178
G1 X99.341 Y116.028 E1.24239
G1 X98.717 Y115.909 E1.30300
G1 X98.143 Y115.638 E1.36361
G1 X97.654 Y115.234 E1.42423
G1 X97.281 Y114.720 E1.48484
G1 X97.047 Y114.130 E1.54545
G1 X96.967 Y113.500 E1.60607
G1 X97.047 Y112.870 E1.66668
G1 X97.281 Y112.280 E1.72729
G1 X97.654 Y111.766 E1.78790
G1 X98.143 Y111.362 E1.84852
G1 X98.717 Y111.091 E1.90913
G1 X99.312 Y110.978 E1.96693
G1 X99.968 Y111.010 E2.02964
G1 X100.578 Y111.208 E2.09091
G1 X101.114 Y111.549 E2.15152
G1 X101.549 Y112.011 E2.21213
G1 X101.855 Y112.568 E2.27274
G1 X102.013 Y113.183 E2.33336
G1 X102.013 Y113.817 E2.39397
G1 X101.862 Y114.404 E2.45177
G1 X101.579 Y114.937 E2.50941
G1 X101.040 Y114.619 F7800.000
G1 F1800
G1 X100.692 Y114.980 E2.55728
G1 X100.310 Y115.222 E2.60042
G1 X99.857 Y115.369 E2.64596
G1 X99.381 Y115.399 E2.69150
G1 X98.912 Y115.310 E2.73704
G1 X98.480 Y115.107 E2.78257
G1 X98.113 Y114.803 E2.82811
G1 X97.833 Y114.417 E2.87365
G1 X97.657 Y113.973 E2.91919
G1 X97.597 Y113.500 E2.96473
G1 X97.657 Y113.027 E3.01027
G1 X97.833 Y112.583 E3.05580
G1 X98.113 Y112.197 E3.10134
G1 X98.480 Y111.893 E3.14688
G1 X98.912 Y111.690 E3.19242
G1 X99.356 Y111.606 E3.23556
G1 X99.854 Y111.630 E3.28320
G1 X100.310 Y111.778 E3.32897
G1 X100.713 Y112.034 E3.37451
G1 X101.039 Y112.382 E3.42005
G1 X101.269 Y112.800 E3.46559
G1 X101.388 Y113.262 E3.51113
G1 X101.388 Y113.738 E3.55667
G1 X101.275 Y114.176 E3.59981
G1 X101.068 Y114.566 E3.64195
G1 X101.040 Y114.619 F7800.000
G1 E2.64195 F1800.00000
G92 E0
G1 X98.800 Y116.561 F7800.000
G1 E1.00000 F1800.00000
G1 F1800
G1 X98.768 Y116.900 E1.03257
G1 X96.100 Y116.900 E1.28730
G1 X96.100 Y114.263 E1.53912
G1 X96.404 Y114.205 E1.56873
G1 X96.729 Y115.024 E1.65283
G1 X97.195 Y115.665 E1.72851
G1 X97.805 Y116.170 E1.80420
G1 X98.523 Y116.508 E1.87989
G1 X98.741 Y116.549 E1.90110
G1 X100.162 Y116.584 F7800.000
G1 F1800
G1 X100.847 Y116.362 E1.96983
G1 X101.487 Y115.955 E2.04228
G1 X102.061 Y115.361 E2.12114
G1 X102.449 Y114.631 E2.20000
G1 X102.572 Y114.151 E2.24740
G1 X102.900 Y114.192 E2.27896
G1 X102.900 Y116.900 E2.53753
G1 X100.212 Y116.900 E2.79419
G1 X100.171 Y116.643 E2.81903
G1 E1.81903 F1800.00000
G92 E0
G1 X102.900 Y107.900 F7800.000
G1 E1.00000 F1800.00000
G1 F1800
G1 X102.900 Y112.808 E1.46857
G1 X102.572 Y112.849 E1.50013
G1 X102.440 Y112.336 E1.55076
G1 X102.059 Y111.641 E1.62645
G1 X101.516 Y111.063 E1.70214
G1 X100.847 Y110.638 E1.77782
G1 X100.082 Y110.390 E1.85458
G1 X99.268 Y110.350 E1.93236
G1 X98.523 Y110.492 E2.00482
G1 X97.805 Y110.830 E2.08051
G1 X97.195 Y111.335 E2.15620
G1 X96.729 Y111.976 E2.23188
G1 X96.404 Y112.795 E2.31598
G1 X96.100 Y112.737 E2.34559
G1 X96.100 Y107.900 E2.80741
G1 X86.600 Y107.900 E3.71443
G1 X86.600 Y92.100 E5.22300
G1 X96.100 Y92.100 E6.13002
G1 X96.100 Y87.263 E6.59184
G1 X96.404 Y87.205 E6.62145
G1 X96.729 Y88.024 E6.70555
G1 X97.195 Y88.665 E6.78123
G1 X97.805 Y89.170 E6.85692
G1 X98.523 Y89.508 E6.93261
G1 X99.268 Y89.650 E7.00507
G1 X100.082 Y89.610 E7.08285
G1 X100.847 Y89.362 E7.15961
G1 X101.516 Y88.937 E7.23529
G1 X102.059 Y88.359 E7.31098
G1 X102.440 Y87.664 E7.38667
G1 X102.572 Y87.151 E7.43730
G1 X102.900 Y87.192 E7.46886
G1 X102.900 Y92.100 E7.93743
G1 X113.400 Y92.100 E8.93993
G1 X113.400 Y107.900 E10.44849
G1 X102.960 Y107.900 E11.44526
G1 E10.44526 F1800.00000
G92 E0
G1 X102.572 Y85.849 F7800.000
G1 E1.00000 F1800.00000
G1 F1800
G1 X102.440 Y85.336 E1.05063
G1 X102.059 Y84.641 E1.12632
G1 X101.516 Y84.063 E1.20200
G1 X100.847 Y83.638 E1.27769
G1 X100.162 Y83.416 E1.34641
G1 X100.212 Y83.100 E1.37699
G1 X102.900 Y83.100 E1.63365
G1 X102.900 Y85.808 E1.89222
G1 X102.632 Y85.842 E1.91805
G1 X101.967 Y86.005 F7800.000
G1 F1800
G1 X102.027 Y86.237 E1.94096
G1 X102.009 Y86.832 E1.99773
G1 X101.855 Y87.432 E2.05694
G1 X101.549 Y87.989 E2.11756
G1 X101.114 Y88.451 E2.17817
G1 X100.578 Y88.792 E2.23878
G1 X99.968 Y88.990 E2.30004
G1 X99.312 Y89.022 E2.36276
G1 X98.717 Y88.909 E2.42056
G1 X98.143 Y88.638 E2.48117
G1 X97.654 Y88.234 E2.54178
G1 X97.281 Y87.720 E2.60240
G1 X97.047 Y87.130 E2.66301
G1 X96.967 Y86.500 E2.72362
G1 X97.047 Y85.870 E2.78423
G1 X97.281 Y85.280 E2.84485
G1 X97.654 Y84.766 E2.90546
G1 X98.143 Y84.362 E2.96607
G1 X98.717 Y84.091 E3.02668
G1 X99.312 Y83.978 E3.08448
G1 X99.968 Y84.010 E3.14720
G1 X100.578 Y84.208 E3.20846
G1 X101.114 Y84.549 E3.26907
G1 X101.549 Y85.011 E3.32969
G1 X101.855 Y85.568 E3.39030
G1 X101.952 Y85.947 E3.42766
G1 X101.362 Y86.160 F7800.000
G1 F1800
G1 X101.399 Y86.307 E3.44213
G1 X101.386 Y86.744 E3.48383
G1 X101.269 Y87.200 E3.52887
G1 X101.039 Y87.618 E3.57440
G1 X100.713 Y87.966 E3.61994
G1 X100.310 Y88.222 E3.66548
G1 X99.854 Y88.370 E3.71125
G1 X99.356 Y88.394 E3.75889
G1 X98.912 Y88.310 E3.80203
G1 X98.480 Y88.107 E3.84757
G1 X98.113 Y87.803 E3.89311
G1 X97.833 Y87.417 E3.93865
G1 X97.657 Y86.973 E3.98419
G1 X97.597 Y86.500 E4.02973
G1 X97.657 Y86.027 E4.07527
G1 X97.833 Y85.583 E4.12080
G1 X98.113 Y85.197 E4.16634
G1 X98.480 Y84.893 E4.21188
G1 X98.912 Y84.690 E4.25742
G1 X99.356 Y84.606 E4.30056
G1 X99.854 Y84.630 E4.34820
G1 X100.310 Y84.778 E4.39397
G1 X100.713 Y85.034 E4.43951
G1 X101.039 Y85.382 E4.48505
G1 X101.269 Y85.800 E4.53059
G1 X101.347 Y86.102 E4.56041
G1 X101.509 Y86.194 F7800.000
G1 E3.56041 F1800.00000
G92 E0
G1 X98.800 Y83.439 F7800.000
G1 E1.00000 F1800.00000
G1 F1800
G1 X98.523 Y83.492 E1.02694
G1 X97.805 Y83.830 E1.10262
G1 X97.195 Y84.335 E1.17831
G1 X96.729 Y84.976 E1.25400
G1 X96.404 Y85.795 E1.33809
G1 X96.100 Y85.737 E1.36770
G1 X96.100 Y83.100 E1.61952
G1 X98.768 Y83.100 E1.87425
G1 X98.794 Y83.380 E1.90109
G1 E0.90109 F1800.00000
G92 E0
G1 X95.475 Y91.475 F7800.000
G1 E1.00000 F1800.00000
G1 F1800
G1 X95.475 Y82.475 E1.85928
G1 X103.525 Y82.475 E2.62789
G1 X103.525 Y91.475 E3.48717
G1 X114.025 Y91.475 E4.48967
G1 X114.025 Y108.525 E6.11756
G1 X103.525 Y108.525 E7.12006
G1 X103.525 Y117.525 E7.97934
G1 X95.475 Y117.525 E8.74795
G1 X95.475 Y108.525 E9.60723
G1 X85.975 Y108.525 E10.51425
G1 X85.975 Y91.475 E12.14214
G1 X95.415 Y91.475 E13.04344
G1 X94.850 Y90.850 F7800.000
G1 F1800
G1 X94.850 Y81.850 E13.90272
G1 X104.150 Y81.850 E14.79065
G1 X104.150 Y90.850 E15.64993
G1 X114.650 Y90.850 E16.65243
G1 X114.650 Y109.150 E18.39964
G1 X104.150 Y109.150 E19.40214
G1 X104.150 Y118.150 E20.26143
G1 X94.850 Y118.150 E21.14935
G1 X94.850 Y109.150 E22.00864
G1 X85.350 Y109.150 E22.91566
G1 X85.350 Y90.850 E24.66287
G1 X94.790 Y90.850 E25.56417
G1 X95.224 Y90.708 F7800.000
G1 E24.56417 F1800.00000
G92 E0
G1 X96.764 Y88.667 F7800.000
G1 E1.00000 F1800.00000
G1 F1800
G1 X96.412 Y88.292 E1.00412
G1 E0.00412 F1800.00000
G92 E0
G1 X101.223 Y83.412 F7800.000
G1 E1.00000 F1800.00000
G1 F1800
G1 X102.588 Y83.906 E1.09086
G1 X102.124 Y83.412 F7800.000
G1 F1800
G1 X102.585 Y84.825 E1.14590
G1 E0.14590 F1800.00000
G92 E0
G1 X97.352 Y89.727 F7800.000
G1 E1.00000 F1800.00000
G1 F1800
G1 X96.927 Y89.375 E1.05308
G1 X96.658 Y89.628 E1.08854
G1 X96.658 Y90.420 E1.16485
G1 X97.484 Y89.594 E1.27730
G1 X97.534 Y89.636 E1.28355
G1 X98.078 Y89.892 E1.34142
G1 X96.658 Y91.311 E1.53472
G1 X96.658 Y92.202 E1.62052
G1 X98.752 Y90.109 E1.90559
G1 X99.291 Y90.211 E1.95838
G1 X99.553 Y90.198 E1.98371
G1 X87.158 Y102.594 E3.67137
G1 X87.158 Y103.485 E3.75716
G1 X100.584 Y90.059 E5.58514
G1 X101.181 Y89.865 E5.64557
G1 X101.984 Y89.356 E5.73709
G1 X102.342 Y88.974 E5.78745
G1 X102.342 Y89.193 E5.80845
G1 X87.158 Y104.376 E7.87573
G1 X87.158 Y105.267 E7.96153
G1 X102.342 Y90.084 E10.02881
G1 X102.342 Y90.975 E10.11461
G1 X87.158 Y106.158 E12.18189
G1 X87.158 Y107.049 E12.26769
G1 X102.342 Y91.866 E14.33497
G1 X102.342 Y92.658 E14.41126
G1 X102.440 Y92.658 E14.42077
G1 X87.757 Y107.342 E16.41997
G1 X88.648 Y107.342 E16.50577
G1 X103.332 Y92.658 E18.50498
G1 X104.223 Y92.658 E18.59077
G1 X89.539 Y107.342 E20.58998
G1 X90.431 Y107.342 E20.67578
G1 X105.114 Y92.658 E22.67498
G1 X106.005 Y92.658 E22.76078
G1 X91.322 Y107.342 E24.75999
G1 X92.213 Y107.342 E24.84578
G1 X106.896 Y92.658 E26.84499
G1 X107.787 Y92.658 E26.93079
G1 X93.104 Y107.342 E28.92999
G1 X93.995 Y107.342 E29.01579
G1 X108.678 Y92.658 E31.01500
G1 X109.569 Y92.658 E31.10079
G1 X94.886 Y107.342 E33.10000
G1 X95.777 Y107.342 E33.18580
G1 X110.461 Y92.658 E35.18500
G1 X111.352 Y92.658 E35.27080
G1 X96.658 Y107.352 E37.27138
G1 X96.658 Y108.243 E37.35718
G1 X112.243 Y92.658 E39.47910
G1 X112.842 Y92.658 E39.53674
G1 X112.842 Y92.951 E39.56490
G1 X96.658 Y109.134 E41.76834
G1 X96.658 Y110.025 E41.85413
G1 X112.842 Y93.842 E44.05757
G1 X112.842 Y94.733 E44.14337
G1 X96.870 Y110.704 E46.31793
G1 X96.927 Y110.757 E46.32537
G1 X97.402 Y110.364 E46.38470
G1 X98.262 Y109.960 E46.47622
G1 X98.564 Y109.902 E46.50583
G1 X112.842 Y95.624 E48.44982
G1 X112.842 Y96.515 E48.53562
G1 X99.549 Y109.808 E50.34546
G1 X100.130 Y109.836 E50.40141
G1 X100.343 Y109.906 E50.42297
G1 X102.209 Y108.039 E50.67711
G1 X102.209 Y107.342 E50.74425
G1 X102.906 Y107.342 E50.81139
G1 X112.842 Y97.406 E52.16412
G1 X112.842 Y98.298 E52.24992
G1 X103.798 Y107.342 E53.48131
G1 X104.689 Y107.342 E53.56711
G1 X112.842 Y99.189 E54.67717
G1 X112.842 Y100.080 E54.76297
G1 X105.580 Y107.342 E55.75170
G1 X106.471 Y107.342 E55.83750
G1 X112.842 Y100.971 E56.70489
G1 X112.842 Y101.862 E56.79069
G1 X107.362 Y107.342 E57.53676
G1 X108.253 Y107.342 E57.62255
G1 X112.842 Y102.753 E58.24728
G1 X112.842 Y103.644 E58.33308
G1 X109.144 Y107.342 E58.83648
G1 X110.036 Y107.342 E58.92227
G1 X112.842 Y104.536 E59.30434
G1 X112.842 Y105.427 E59.39014
G1 X110.927 Y107.342 E59.65087
G1 X111.818 Y107.342 E59.73667
G1 X112.842 Y106.318 E59.87607
G1 X112.842 Y107.209 E59.96186
G1 X112.709 Y107.342 E59.97993
G1 E58.97993 F1800.00000
G92 E0
G1 X102.342 Y107.906 F7800.000
G1 E1.00000 F1800.00000
G1 F1800
G1 X102.342 Y108.798 E1.08580
G1 X101.015 Y110.124 E1.26640
G1 X101.567 Y110.464 E1.32876
G1 X102.342 Y109.689 E1.43428
G1 X102.342 Y110.580 E1.52008
G1 X102.057 Y110.864 E1.55877
G1 E0.55877 F1800.00000
G92 E0
G1 X87.158 Y101.702 F7800.000
G1 E1.00000 F1800.00000
G1 F1800
G1 X96.202 Y92.658 E2.23140
G1 X95.311 Y92.658 E2.31720
G1 X87.158 Y100.811 E3.42727
G1 X87.158 Y99.920 E3.51306
G1 X94.420 Y92.658 E4.50180
G1 X93.529 Y92.658 E4.58759
G1 X87.158 Y99.029 E5.45500
G1 X87.158 Y98.138 E5.54079
G1 X92.638 Y92.658 E6.28686
G1 X91.747 Y92.658 E6.37266
G1 X87.158 Y97.247 E6.99740
G1 X87.158 Y96.356 E7.08319
G1 X90.856 Y92.658 E7.58660
G1 X89.965 Y92.658 E7.67239
G1 X87.158 Y95.465 E8.05446
G1 X87.158 Y94.573 E8.14026
G1 X89.073 Y92.658 E8.40100
G1 X88.182 Y92.658 E8.48679
G1 X87.158 Y93.682 E8.62620
G1 X87.158 Y92.791 E8.71199
G1 X87.291 Y92.658 E8.73007
G1 E7.73007 F1800.00000
G92 E0
G1 X102.588 Y115.172 F7800.000
G1 E1.00000 F1800.00000
G1 F1800
G1 X102.125 Y116.588 E1.05480
G1 X102.588 Y116.095 F7800.000
G1 F1800
G1 X101.209 Y116.588 E1.14072
G1 E0.14072 F1800.00000
G92 E0
G1 X96.412 Y111.708 F7800.000
G1 E1.00000 F1800.00000
G1 F1800
G1 X96.764 Y111.333 E1.00412
G1 E0.00412 F1800.00000
G92 E0
G1 Z0.650 F7800.000
G1 X98.700 Y111.032 F7800.000
G1 E1.00000 F1800.00000
G1 F900
G1 X99.337 Y110.911 E1.03558
G1 X99.986 Y110.952 E1.07125
G1 X100.605 Y111.153 E1.10692
G1 X101.154 Y111.501 E1.14260
G1 X101.599 Y111.975 E1.17827
G1 X101.912 Y112.545 E1.21395
G1 X102.074 Y113.175 E1.24962
G1 X102.074 Y113.818 E1.28492
G1 X101.925 Y114.432 E1.31955
G1 X101.599 Y115.025 E1.35668
G1 X101.154 Y115.499 E1.39236
G1 X100.605 Y115.847 E1.42803
G1 X99.986 Y116.048 E1.46371
G1 X99.337 Y116.089 E1.49938
G1 X98.698 Y115.967 E1.53506
G1 X98.110 Y115.690 E1.57073
G1 X97.609 Y115.276 E1.60641
G1 X97.227 Y114.750 E1.64208
G1 X96.987 Y114.145 E1.67776
G1 X96.906 Y113.500 E1.71343
G1 X96.987 Y112.855 E1.74911
G1 X97.227 Y112.250 E1.78478
G1 X97.609 Y111.724 E1.82046
G1 X98.110 Y111.310 E1.85613
G1 X98.646 Y111.057 E1.88861
G1 X98.829 Y111.434 F7800.000
G1 F900
G1 X99.364 Y111.332 E1.91848
G1 X99.907 Y111.366 E1.94835
G1 X100.425 Y111.535 E1.97822
G1 X100.885 Y111.826 E2.00809
G1 X101.257 Y112.223 E2.03796
G1 X101.520 Y112.700 E2.06783
G1 X101.655 Y113.228 E2.09770
G1 X101.655 Y113.768 E2.12734
G1 X101.531 Y114.279 E2.15617
G1 X101.257 Y114.777 E2.18734
G1 X100.885 Y115.174 E2.21721
G1 X100.425 Y115.465 E2.24708
G1 X99.907 Y115.634 E2.27695
G1 X99.364 Y115.668 E2.30681
G1 X98.829 Y115.566 E2.33668
G1 X98.336 Y115.334 E2.36655
G1 X97.917 Y114.987 E2.39642
G1 X97.597 Y114.546 E2.42629
G1 X97.396 Y114.040 E2.45616
G1 X97.328 Y113.500 E2.48603
G1 X97.396 Y112.960 E2.51590
G1 X97.597 Y112.454 E2.54577
G1 X97.917 Y112.013 E2.57563
G1 X98.336 Y111.666 E2.60550
G1 X98.774 Y111.460 E2.63208
G1 X98.952 Y111.815 F7800.000
G1 F900
G1 X99.389 Y111.732 E2.65393
G1 X99.832 Y111.760 E2.67578
G1 X100.254 Y111.897 E2.69762
G1 X100.629 Y112.135 E2.71947
G1 X100.933 Y112.459 E2.74132
G1 X101.147 Y112.848 E2.76316
G1 X101.258 Y113.278 E2.78501
G1 X101.258 Y113.721 E2.80678
G1 X101.157 Y114.134 E2.82770
G1 X100.933 Y114.541 E2.85058
G1 X100.629 Y114.865 E2.87243
G1 X100.254 Y115.103 E2.89428
G1 X99.832 Y115.240 E2.91612
G1 X99.389 Y115.268 E2.93797
G1 X98.952 Y115.185 E2.95982
G1 X98.551 Y114.996 E2.98166
G1 X98.208 Y114.713 E3.00351
G1 X97.947 Y114.354 E3.02536
G1 X97.784 Y113.941 E3.04721
G1 X97.728 Y113.500 E3.06905
G1 X97.784 Y113.059 E3.09090
G1 X97.947 Y112.646 E3.11275
G1 X98.208 Y112.287 E3.13459
G1 X98.551 Y112.004 E3.15644
G1 X98.898 Y111.841 E3.17534
G1 X98.952 Y111.815 F7800.000
G1 X99.337 Y89.089 F7800.000
G1 F900
G1 X98.698 Y88.967 E3.21101
G1 X98.110 Y88.690 E3.24668
G1 X97.609 Y88.276 E3.28236
G1 X97.227 Y87.750 E3.31803
G1 X96.987 Y87.145 E3.35371
G1 X96.906 Y86.500 E3.38938
G1 X96.987 Y85.855 E3.42506
G1 X97.227 Y85.250 E3.46073
G1 X97.609 Y84.724 E3.49641
G1 X98.110 Y84.310 E3.53208
G1 X98.698 Y84.033 E3.56776
G1 X99.337 Y83.911 E3.60343
G1 X99.986 Y83.952 E3.63911
G1 X100.605 Y84.153 E3.67478
G1 X101.154 Y84.501 E3.71046
G1 X101.599 Y84.975 E3.74613
G1 X101.912 Y85.545 E3.78180
G1 X102.074 Y86.175 E3.81748
G1 X102.074 Y86.825 E3.85315
G1 X101.912 Y87.455 E3.88883
G1 X101.599 Y88.025 E3.92450
G1 X101.154 Y88.499 E3.96018
G1 X100.605 Y88.847 E3.99585
G1 X99.986 Y89.048 E4.03153
G1 X99.397 Y89.085 E4.06391
