; generated by Slic3r 1.3.0 on 2020-08-16 at 13:41:27

; external perimeters extrusion width = 0.44mm (3.38mm^3/s)
; perimeters extrusion width = 0.48mm (7.54mm^3/s)
; infill extrusion width = 0.48mm (10.05mm^3/s)
; solid infill extrusion width = 0.48mm (2.51mm^3/s)
; top infill extrusion width = 0.48mm (1.88mm^3/s)

M107
M104 S200 ; set temperature
G28 ; home all axes
G1 Z5 F5000 ; lift nozzle

; Filament gcode

M109 S200 ; set temperature and wait for it to be reached
G21 ; set units to millimeters
G90 ; use absolute coordinates
M82 ; use absolute distances for extrusion
G92 E0
G1 E-1.00000 F1800.00000
G92 E0
G1 Z0.350 F7800.000
G1 X90.267 Y95.120 F7800.000
G1 E1.00000 F1800.00000
G1 F1800
G1 X91.327 Y94.152 E1.13703
G1 X92.500 Y93.876 E1.25206
G1 X107.500 Y93.876 E2.68420
G1 X108.881 Y94.268 E2.82124
G1 X109.848 Y95.328 E2.95827
G1 X110.125 Y96.500 E3.07330
G1 X110.125 Y103.500 E3.74163
G1 X109.733 Y104.881 E3.87866
G1 X108.673 Y105.849 E4.01569
G1 X107.500 Y106.125 E4.13073
G1 X92.500 Y106.125 E5.56287
G1 X91.119 Y105.733 E5.69990
G1 X90.152 Y104.673 E5.83693
G1 X89.875 Y103.500 E5.95196
G1 X89.875 Y96.500 E6.62030
G1 X90.251 Y95.178 E6.75160
G1 E5.75160 F1800.00000
G92 E0
G1 X105.900 Y101.901 F7800.000
G1 E1.00000 F1800.00000
G1 F1800
G1 X94.100 Y101.901 E2.12666
G1 X94.100 Y98.100 E2.48951
G1 X105.900 Y98.100 E3.61617
G1 X105.900 Y101.841 E3.97329
G1 X106.525 Y102.526 F7800.000
G1 F1800
G1 X93.475 Y102.526 E5.21928
G1 X93.475 Y97.475 E5.70145
G1 X106.525 Y97.475 E6.94744
G1 X106.525 Y102.466 E7.42389
G1 X107.150 Y103.150 F7800.000
G1 F1800
G1 X92.850 Y103.150 E8.78919
G1 X92.850 Y96.850 E9.39069
G1 X107.150 Y96.850 E10.75600
G1 X107.150 Y103.090 E11.35177
G1 X106.754 Y103.095 F7800.000
G1 E10.35177 F1800.00000
G92 E0
G1 X105.209 Y101.342 F7800.000
G1 E1.00000 F1800.00000
G1 F1800
G1 X105.342 Y101.209 E1.01897
G1 X105.342 Y100.274 E1.11358
G1 X104.273 Y101.342 E1.26636
G1 X103.337 Y101.342 E1.36097
G1 X105.342 Y99.338 E1.64754
G1 X105.342 Y98.659 E1.71618
G1 X105.085 Y98.659 E1.74215
G1 X102.402 Y101.342 E2.12580
G1 X101.466 Y101.342 E2.22041
G1 X104.149 Y98.659 E2.60406
G1 X103.213 Y98.659 E2.69867
G1 X100.530 Y101.342 E3.08232
G1 X99.594 Y101.342 E3.17693
G1 X102.277 Y98.659 E3.56058
G1 X101.342 Y98.659 E3.65519
G1 X98.658 Y101.342 E4.03884
G1 X97.723 Y101.342 E4.13345
G1 X100.406 Y98.659 E4.51711
G1 X99.470 Y98.659 E4.61172
G1 X96.787 Y101.342 E4.99537
G1 X95.851 Y101.342 E5.08998
G1 X98.534 Y98.659 E5.47363
G1 X97.598 Y98.659 E5.56824
G1 X94.915 Y101.342 E5.95189
G1 X94.658 Y101.342 E5.97785
G1 X94.658 Y100.663 E6.04650
G1 X96.663 Y98.659 E6.33307
G1 X95.727 Y98.659 E6.42768
G1 X94.658 Y99.727 E6.58045
G1 X94.658 Y98.792 E6.67506
G1 X94.791 Y98.659 E6.69404
G1 E5.69404 F1800.00000
G92 E0
G1 Z0.650 F7800.000
G1 X106.464 Y102.464 F7800.000
G1 E1.00000 F1800.00000
G1 F900
G1 X93.536 Y102.464 E1.70918
G1 X93.536 Y97.537 E1.97950
G1 X106.464 Y97.537 E2.68868
G1 X106.464 Y102.404 E2.95571
G1 X106.883 Y102.883 F7800.000
G1 F900
G1 X93.117 Y102.883 E3.71085
G1 X93.117 Y97.118 E4.02713
G1 X106.883 Y97.118 E4.78226
G1 X106.883 Y102.823 E5.09525
G1 X107.280 Y103.280 F7800.000
G1 F1800
G1 X92.720 Y103.280 E5.81148
G1 X92.720 Y96.720 E6.13418
G1 X107.280 Y96.720 E6.85041
G1 X107.280 Y103.220 E7.17016
G1 X106.884 Y103.224 F7800.000
G1 X106.089 Y98.000 F7800.000
G1 F1200
G1 X106.000 Y97.911 E7.17715
G1 X105.401 Y97.911 E7.21040
G1 X106.089 Y98.599 E7.26441
G1 X106.089 Y99.198 E7.29767
G1 X104.802 Y97.911 E7.39871
G1 X104.203 Y97.911 E7.43196
G1 X106.089 Y99.798 E7.58003
G1 X106.089 Y100.397 E7.61329
G1 X103.603 Y97.911 E7.80839
G1 X103.004 Y97.911 E7.84164
G1 X106.089 Y100.996 E8.08377
G1 X106.089 Y101.596 E8.11702
G1 X102.405 Y97.911 E8.40618
G1 X101.806 Y97.911 E8.43943
G1 X105.985 Y102.090 E8.76739
G1 X105.385 Y102.090 E8.80064
G1 X101.206 Y97.911 E9.12859
G1 X100.607 Y97.911 E9.16185
G1 X104.786 Y102.090 E9.48980
G1 X104.187 Y102.090 E9.52306
G1 X100.008 Y97.911 E9.85101
G1 X99.409 Y97.911 E9.88427
G1 X103.588 Y102.090 E10.21222
G1 X102.988 Y102.090 E10.24548
G1 X98.809 Y97.911 E10.57343
G1 X98.210 Y97.911 E10.60668
G1 X102.389 Y102.090 E10.93464
G1 X101.790 Y102.090 E10.96789
G1 X97.611 Y97.911 E11.29585
G1 X97.012 Y97.911 E11.32910
G1 X101.191 Y102.090 E11.65706
G1 X100.591 Y102.090 E11.69031
G1 X96.412 Y97.911 E12.01827
G1 X95.813 Y97.911 E12.05152
G1 X99.992 Y102.090 E12.37947
G1 X99.393 Y102.090 E12.41273
G1 X95.214 Y97.911 E12.74068
G1 X94.615 Y97.911 E12.77394
G1 X98.794 Y102.090 E13.10189
G1 X98.194 Y102.090 E13.13515
G1 X94.015 Y97.911 E13.46310
G1 X93.911 Y97.911 E13.46892
G1 X93.911 Y98.405 E13.49635
G1 X97.595 Y102.090 E13.78551
G1 X96.996 Y102.090 E13.81877
G1 X93.911 Y99.005 E14.06089
G1 X93.911 Y99.604 E14.09415
G1 X96.397 Y102.090 E14.28925
G1 X95.797 Y102.090 E14.32250
G1 X93.911 Y100.203 E14.47057
G1 X93.911 Y100.802 E14.50383
G1 X95.198 Y102.090 E14.60487
G1 X94.599 Y102.090 E14.63813
G1 X93.911 Y101.402 E14.69214
G1 X93.911 Y102.001 E14.72539
G1 X93.999 Y102.090 E14.73237
G1 E13.73237 F1800.00000
G92 E0
G1 Z0.950 F7800.000
G1 X106.464 Y102.464 F7800.000
G1 E1.00000 F1800.00000
G1 F900
G1 X93.536 Y102.464 E1.70918
G1 X93.536 Y97.537 E1.97950
G1 X106.464 Y97.537 E2.68868
G1 X106.464 Y102.404 E2.95571
G1 X106.883 Y102.883 F7800.000
G1 F900
G1 X93.117 Y102.883 E3.71085
G1 X93.117 Y97.118 E4.02713
G1 X106.883 Y97.118 E4.78226
G1 X106.883 Y102.823 E5.09525
G1 X107.280 Y103.280 F7800.000
G1 F1800
G1 X92.720 Y103.280 E5.81148
G1 X92.720 Y96.720 E6.13418
G1 X107.280 Y96.720 E6.85041
G1 X107.280 Y103.220 E7.17016
G1 X106.884 Y103.224 F7800.000
G1 X106.000 Y102.090 F7800.000
G1 F1200
G1 X106.089 Y102.001 E7.17715
G1 X106.089 Y101.402 E7.21040
G1 X105.401 Y102.090 E7.26441
G1 X104.802 Y102.090 E7.29767
G1 X106.089 Y100.802 E7.39871
G1 X106.089 Y100.203 E7.43196
G1 X104.203 Y102.090 E7.58003
G1 X103.603 Y102.090 E7.61329
G1 X106.089 Y99.604 E7.80839
G1 X106.089 Y99.005 E7.84164
G1 X103.004 Y102.090 E8.08377
G1 X102.405 Y102.090 E8.11702
G1 X106.089 Y98.405 E8.40618
G1 X106.089 Y97.911 E8.43361
G1 X105.985 Y97.911 E8.43943
G1 X101.806 Y102.090 E8.76739
G1 X101.206 Y102.090 E8.80064
G1 X105.385 Y97.911 E9.12860
G1 X104.786 Y97.911 E9.16185
G1 X100.607 Y102.090 E9.48980
G1 X100.008 Y102.090 E9.52306
G1 X104.187 Y97.911 E9.85101
G1 X103.588 Y97.911 E9.88427
G1 X99.409 Y102.090 E10.21222
G1 X98.809 Y102.090 E10.24548
G1 X102.988 Y97.911 E10.57343
G1 X102.389 Y97.911 E10.60668
G1 X98.210 Y102.090 E10.93464
G1 X97.611 Y102.090 E10.96789
G1 X101.790 Y97.911 E11.29585
G1 X101.191 Y97.911 E11.32910
G1 X97.012 Y102.090 E11.65706
G1 X96.412 Y102.090 E11.69031
G1 X100.591 Y97.911 E12.01827
G1 X99.992 Y97.911 E12.05152
G1 X95.813 Y102.090 E12.37947
G1 X95.214 Y102.090 E12.41273
G1 X99.393 Y97.911 E12.74068
G1 X98.794 Y97.911 E12.77394
G1 X94.615 Y102.090 E13.10189
G1 X94.015 Y102.090 E13.13515
G1 X98.194 Y97.911 E13.46310
G1 X97.595 Y97.911 E13.49635
G1 X93.911 Y101.596 E13.78551
G1 X93.911 Y100.996 E13.81877
G1 X96.996 Y97.911 E14.06089
G1 X96.397 Y97.911 E14.09415
G1 X93.911 Y100.397 E14.28925
G1 X93.911 Y99.798 E14.32250
G1 X95.797 Y97.911 E14.47057
G1 X95.198 Y97.911 E14.50383
G1 X93.911 Y99.199 E14.60487
G1 X93.911 Y98.599 E14.63812
G1 X94.599 Y97.911 E14.69214
G1 X94.000 Y97.911 E14.72539
G1 X93.911 Y98.000 E14.73237
M106 S229.5
G1 E13.73237 F1800.00000
G92 E0
G1 Z1.250 F7800.000
G1 X106.464 Y102.464 F7800.000
G1 E1.00000 F1800.00000
G1 F900
G1 X93.536 Y102.464 E1.70918
G1 X93.536 Y97.537 E1.97950
G1 X106.464 Y97.537 E2.68868
G1 X106.464 Y102.404 E2.95571
G1 X106.883 Y102.883 F7800.000
G1 F900
G1 X93.117 Y102.883 E3.71085
G1 X93.117 Y97.118 E4.02713
G1 X106.883 Y97.118 E4.78226
G1 X106.883 Y102.823 E5.09525
G1 X107.280 Y103.280 F7800.000
G1 F1800
G1 X92.720 Y103.280 E5.81148
G1 X92.720 Y96.720 E6.13418
G1 X107.280 Y96.720 E6.85041
G1 X107.280 Y103.220 E7.17016
G1 X106.884 Y103.224 F7800.000
G1 X106.089 Y98.000 F7800.000
G1 F1200
G1 X106.000 Y97.911 E7.17715
G1 X105.401 Y97.911 E7.21040
G1 X106.089 Y98.599 E7.26441
G1 X106.089 Y99.199 E7.29767
G1 X104.802 Y97.911 E7.39871
G1 X104.203 Y97.911 E7.43196
G1 X106.089 Y99.798 E7.58003
G1 X106.089 Y100.397 E7.61329
G1 X103.603 Y97.911 E7.80838
G1 X103.004 Y97.911 E7.84164
G1 X106.089 Y100.996 E8.08376
G1 X106.089 Y101.596 E8.11702
G1 X102.405 Y97.911 E8.40617
G1 X101.806 Y97.911 E8.43943
G1 X105.985 Y102.090 E8.76738
G1 X105.385 Y102.090 E8.80063
G1 X101.206 Y97.911 E9.12858
G1 X100.607 Y97.911 E9.16184
G1 X104.786 Y102.090 E9.48979
G1 X104.187 Y102.090 E9.52304
G1 X100.008 Y97.911 E9.85100
G1 X99.409 Y97.911 E9.88425
G1 X103.588 Y102.090 E10.21220
G1 X102.988 Y102.090 E10.24546
G1 X98.809 Y97.911 E10.57341
G1 X98.210 Y97.911 E10.60666
G1 X102.389 Y102.090 E10.93462
G1 X101.790 Y102.090 E10.96787
G1 X97.611 Y97.911 E11.29582
G1 X97.012 Y97.911 E11.32908
G1 X101.191 Y102.090 E11.65703
G1 X100.591 Y102.090 E11.69028
G1 X96.412 Y97.911 E12.01823
G1 X95.813 Y97.911 E12.05149
G1 X99.992 Y102.090 E12.37944
G1 X99.393 Y102.090 E12.41269
G1 X95.214 Y97.911 E12.74065
G1 X94.615 Y97.911 E12.77390
G1 X98.794 Y102.090 E13.10185
G1 X98.194 Y102.090 E13.13511
G1 X94.015 Y97.911 E13.46306
G1 X93.911 Y97.911 E13.46888
G1 X93.911 Y98.405 E13.49631
G1 X97.595 Y102.090 E13.78547
G1 X96.996 Y102.090 E13.81872
G1 X93.911 Y99.005 E14.06085
G1 X93.911 Y99.604 E14.09410
G1 X96.397 Y102.090 E14.28920
G1 X95.797 Y102.090 E14.32246
G1 X93.911 Y100.203 E14.47053
G1 X93.911 Y100.802 E14.50378
G1 X95.198 Y102.090 E14.60482
G1 X94.599 Y102.090 E14.63808
G1 X93.911 Y101.402 E14.69209
G1 X93.911 Y102.001 E14.72535
G1 X93.999 Y102.090 E14.73232
G1 E13.73232 F1800.00000
G92 E0
G1 Z1.550 F7800.000
G1 X106.464 Y102.464 F7800.000
G1 E1.00000 F1800.00000
G1 F900
G1 X93.536 Y102.464 E1.70918
G1 X93.536 Y97.537 E1.97950
G1 X106.464 Y97.537 E2.68868
G1 X106.464 Y102.404 E2.95571
G1 X106.883 Y102.883 F7800.000
G1 F900
G1 X93.117 Y102.883 E3.71085
G1 X93.117 Y97.118 E4.02713
G1 X106.883 Y97.118 E4.78226
G1 X106.883 Y102.823 E5.09525
G1 X107.280 Y103.280 F7800.000
G1 F1800
G1 X92.720 Y103.280 E5.81148
G1 X92.720 Y96.720 E6.13418
G1 X107.280 Y96.720 E6.85041
G1 X107.280 Y103.220 E7.17016
G1 X106.884 Y103.224 F7800.000
G1 X106.000 Y102.090 F7800.000
G1 F1200
G1 X106.089 Y102.001 E7.17715
G1 X106.089 Y101.402 E7.21040
G1 X105.401 Y102.090 E7.26441
G1 X104.802 Y102.090 E7.29767
G1 X106.089 Y100.802 E7.39871
G1 X106.089 Y100.203 E7.43196
G1 X104.203 Y102.090 E7.58003
G1 X103.603 Y102.090 E7.61329
G1 X106.089 Y99.604 E7.80838
G1 X106.089 Y99.005 E7.84164
G1 X103.004 Y102.090 E8.08376
G1 X102.405 Y102.090 E8.11702
G1 X106.089 Y98.405 E8.40617
G1 X106.089 Y97.911 E8.43361
G1 X105.985 Y97.911 E8.43943
G1 X101.806 Y102.090 E8.76738
G1 X101.206 Y102.090 E8.80063
G1 X105.385 Y97.911 E9.12858
G1 X104.786 Y97.911 E9.16184
G1 X100.607 Y102.090 E9.48979
G1 X100.008 Y102.090 E9.52304
G1 X104.187 Y97.911 E9.85100
G1 X103.588 Y97.911 E9.88425
G1 X99.409 Y102.090 E10.21220
G1 X98.809 Y102.090 E10.24546
G1 X102.988 Y97.911 E10.57341
G1 X102.389 Y97.911 E10.60666
G1 X98.210 Y102.090 E10.93462
G1 X97.611 Y102.090 E10.96787
G1 X101.790 Y97.911 E11.29582
G1 X101.191 Y97.911 E11.32908
G1 X97.012 Y102.090 E11.65703
G1 X96.412 Y102.090 E11.69028
G1 X100.591 Y97.911 E12.01823
G1 X99.992 Y97.911 E12.05149
G1 X95.813 Y102.090 E12.37944
G1 X95.214 Y102.090 E12.41269
G1 X99.393 Y97.911 E12.74065
G1 X98.794 Y97.911 E12.77390
G1 X94.615 Y102.090 E13.10185
G1 X94.015 Y102.090 E13.13511
G1 X98.194 Y97.911 E13.46306
G1 X97.595 Y97.911 E13.49631
G1 X93.911 Y101.596 E13.78547
G1 X93.911 Y100.996 E13.81872
G1 X96.996 Y97.911 E14.06085
G1 X96.397 Y97.911 E14.09410
G1 X93.911 Y100.397 E14.28920
G1 X93.911 Y99.798 E14.32246
G1 X95.797 Y97.911 E14.47053
G1 X95.198 Y97.911 E14.50378
G1 X93.911 Y99.199 E14.60482
G1 X93.911 Y98.599 E14.63808
G1 X94.599 Y97.911 E14.69209
G1 X94.000 Y97.911 E14.72534
G1 X93.911 Y98.000 E14.73232
G1 E13.73232 F1800.00000
G92 E0
G1 Z1.850 F7800.000
G1 X106.464 Y102.464 F7800.000
G1 E1.00000 F1800.00000
G1 F900
G1 X93.536 Y102.464 E1.70918
G1 X93.536 Y97.537 E1.97950
G1 X106.464 Y97.537 E2.68868
G1 X106.464 Y102.404 E2.95571
G1 X106.883 Y102.883 F7800.000
G1 F900
G1 X93.117 Y102.883 E3.71085
G1 X93.117 Y97.118 E4.02713
G1 X106.883 Y97.118 E4.78226
G1 X106.883 Y102.823 E5.09525
G1 X107.280 Y103.280 F7800.000
G1 F1800
G1 X92.720 Y103.280 E5.81148
G1 X92.720 Y96.720 E6.13418
G1 X107.280 Y96.720 E6.85041
G1 X107.280 Y103.220 E7.17016
G1 X106.884 Y103.224 F7800.000
G1 X106.089 Y98.000 F7800.000
G1 F1200
G1 X106.000 Y97.911 E7.17715
G1 X105.401 Y97.911 E7.21040
G1 X106.089 Y98.599 E7.26441
G1 X106.089 Y99.199 E7.29767
G1 X104.802 Y97.911 E7.39871
G1 X104.203 Y97.911 E7.43196
G1 X106.089 Y99.798 E7.58003
G1 X106.089 Y100.397 E7.61329
G1 X103.603 Y97.911 E7.80838
G1 X103.004 Y97.911 E7.84164
G1 X106.089 Y100.996 E8.08376
G1 X106.089 Y101.596 E8.11702
G1 X102.405 Y97.911 E8.40617
G1 X101.806 Y97.911 E8.43943
G1 X105.985 Y102.090 E8.76738
G1 X105.385 Y102.090 E8.80063
G1 X101.206 Y97.911 E9.12858
G1 X100.607 Y97.911 E9.16184
G1 X104.786 Y102.090 E9.48979
G1 X104.187 Y102.090 E9.52304
G1 X100.008 Y97.911 E9.85100
G1 X99.409 Y97.911 E9.88425
G1 X103.588 Y102.090 E10.21220
G1 X102.988 Y102.090 E10.24546
G1 X98.809 Y97.911 E10.57341
G1 X98.210 Y97.911 E10.60666
G1 X102.389 Y102.090 E10.93462
G1 X101.790 Y102.090 E10.96787
G1 X97.611 Y97.911 E11.29582
G1 X97.012 Y97.911 E11.32908
G1 X101.191 Y102.090 E11.65703
G1 X100.591 Y102.090 E11.69028
G1 X96.412 Y97.911 E12.01823
G1 X95.813 Y97.911 E12.05149
G1 X99.992 Y102.090 E12.37944
G1 X99.393 Y102.090 E12.41269
G1 X95.214 Y97.911 E12.74065
G1 X94.615 Y97.911 E12.77390
G1 X98.794 Y102.090 E13.10185
G1 X98.194 Y102.090 E13.13511
G1 X94.015 Y97.911 E13.46306
G1 X93.911 Y97.911 E13.46888
G1 X93.911 Y98.405 E13.49631
G1 X97.595 Y102.090 E13.78547
G1 X96.996 Y102.090 E13.81872
G1 X93.911 Y99.005 E14.06085
G1 X93.911 Y99.604 E14.09410
G1 X96.397 Y102.090 E14.28920
G1 X95.797 Y102.090 E14.32246
G1 X93.911 Y100.203 E14.47053
G1 X93.911 Y100.802 E14.50378
G1 X95.198 Y102.090 E14.60482
G1 X94.599 Y102.090 E14.63808
G1 X93.911 Y101.402 E14.69209
G1 X93.911 Y102.001 E14.72535
G1 X93.999 Y102.090 E14.73232
G1 E13.73232 F1800.00000
G92 E0
G1 Z2.150 F7800.000
G1 X106.464 Y102.464 F7800.000
G1 E1.00000 F1800.00000
G1 F900
G1 X93.536 Y102.464 E1.70918
G1 X93.536 Y97.537 E1.97950
G1 X106.464 Y97.537 E2.68868
G1 X106.464 Y102.404 E2.95571
G1 X106.883 Y102.883 F7800.000
G1 F900
G1 X93.117 Y102.883 E3.71085
G1 X93.117 Y97.118 E4.02713
G1 X106.883 Y97.118 E4.78226
G1 X106.883 Y102.823 E5.09525
G1 X107.280 Y103.280 F7800.000
G1 F1800
G1 X92.720 Y103.280 E5.81148
G1 X92.720 Y96.720 E6.13418
G1 X107.280 Y96.720 E6.85041
G1 X107.280 Y103.220 E7.17016
G1 X106.884 Y103.224 F7800.000
G1 X106.000 Y102.090 F7800.000
G1 F1200
G1 X106.089 Y102.001 E7.17715
G1 X106.089 Y101.402 E7.21040
G1 X105.401 Y102.090 E7.26441
G1 X104.802 Y102.090 E7.29767
G1 X106.089 Y100.802 E7.39871
G1 X106.089 Y100.203 E7.43196
G1 X104.203 Y102.090 E7.58003
G1 X103.603 Y102.090 E7.61329
G1 X106.089 Y99.604 E7.80838
G1 X106.089 Y99.005 E7.84164
G1 X103.004 Y102.090 E8.08376
G1 X102.405 Y102.090 E8.11702
G1 X106.089 Y98.405 E8.40617
G1 X106.089 Y97.911 E8.43361
G1 X105.985 Y97.911 E8.43943
G1 X101.806 Y102.090 E8.76738
G1 X101.206 Y102.090 E8.80063
G1 X105.385 Y97.911 E9.12858
G1 X104.786 Y97.911 E9.16184
G1 X100.607 Y102.090 E9.48979
G1 X100.008 Y102.090 E9.52304
G1 X104.187 Y97.911 E9.85100
G1 X103.588 Y97.911 E9.88425
G1 X99.409 Y102.090 E10.21220
G1 X98.809 Y102.090 E10.24546
