; generated by Slic3r 1.3.0 on 2020-08-12 at 14:43:06

; external perimeters extrusion width = 0.44mm (3.38mm^3/s)
; perimeters extrusion width = 0.48mm (7.54mm^3/s)
; infill extrusion width = 0.48mm (10.05mm^3/s)
; solid infill extrusion width = 0.48mm (2.51mm^3/s)
; top infill extrusion width = 0.48mm (1.88mm^3/s)

M107
M104 S200 ; set temperature
G28 ; home all axes
G1 Z5 F5000 ; lift nozzle

; Filament gcode

M109 S200 ; set temperature and wait for it to be reached
G21 ; set units to millimeters
G90 ; use absolute coordinates
M82 ; use absolute distances for extrusion
G92 E0
G1 E-1.00000 F1800.00000
G92 E0
G1 Z0.350 F7800.000
G1 X79.318 Y80.212 F7800.000
G1 E1.00000 F1800.00000
G1 F1800
G1 X80.490 Y79.055 E1.15728
G1 X81.856 Y77.862 E1.33042
G1 X83.429 Y76.661 E1.51943
G1 X84.799 Y75.746 E1.67670
G1 X86.366 Y74.832 E1.84985
G1 X88.138 Y73.950 E2.03886
G1 X89.656 Y73.311 E2.19613
G1 X91.367 Y72.709 E2.36928
G1 X93.274 Y72.178 E2.55829
G1 X95.049 Y71.808 E2.73143
G1 X96.679 Y71.570 E2.88871
G1 X98.652 Y71.408 E3.07772
G1 X100.299 Y71.378 E3.23500
G1 X102.111 Y71.454 E3.40814
G1 X104.079 Y71.668 E3.59715
G1 X105.702 Y71.950 E3.75442
G1 X107.467 Y72.367 E3.92757
G1 X109.202 Y72.896 E4.10071
G1 X110.832 Y73.507 E4.26698
G1 X112.703 Y74.350 E4.46285
G1 X114.158 Y75.123 E4.62013
G1 X115.705 Y76.069 E4.79327
G1 X117.321 Y77.212 E4.98228
G1 X118.603 Y78.246 E5.13956
G1 X119.944 Y79.468 E5.31270
G1 X121.204 Y80.772 E5.48584
G1 X122.482 Y82.284 E5.67486
G1 X123.496 Y83.650 E5.83731
G1 X127.639 Y89.479 E6.52013
G1 X128.120 Y90.841 E6.65797
G1 X128.564 Y98.139 E7.35612
G1 X128.623 Y99.914 E7.52566
G1 X128.564 Y101.861 E7.71160
G1 X128.120 Y109.159 E8.40975
G1 X127.639 Y110.521 E8.54758
G1 X123.464 Y116.394 E9.23559
G1 X122.379 Y117.847 E9.40873
G1 X121.204 Y119.228 E9.58187
G1 X120.063 Y120.416 E9.73915
G1 X118.729 Y121.645 E9.91229
G1 X117.188 Y122.888 E10.10130
G1 X115.705 Y123.931 E10.27444
G1 X114.302 Y124.795 E10.43172
G1 X112.488 Y125.754 E10.62760
G1 X110.900 Y126.467 E10.79386
G1 X109.202 Y127.104 E10.96701
G1 X107.467 Y127.633 E11.14015
G1 X105.865 Y128.016 E11.29743
G1 X103.915 Y128.355 E11.48644
G1 X102.277 Y128.533 E11.64371
G1 X100.466 Y128.620 E11.81686
G1 X98.486 Y128.584 E12.00586
G1 X96.679 Y128.430 E12.17901
G1 X95.049 Y128.192 E12.33629
G1 X93.113 Y127.783 E12.52530
G1 X91.367 Y127.291 E12.69844
G1 X89.656 Y126.689 E12.87158
G1 X88.138 Y126.050 E13.02886
G1 X86.512 Y125.247 E13.20200
G1 X84.799 Y124.254 E13.39102
G1 X83.429 Y123.339 E13.54829
G1 X81.985 Y122.243 E13.72143
G1 X80.490 Y120.945 E13.91044
G1 X79.318 Y119.788 E14.06772
G1 X78.106 Y118.438 E14.24086
G1 X76.884 Y116.881 E14.42988
G1 X75.951 Y115.523 E14.58715
G1 X75.017 Y113.969 E14.76029
G1 X74.182 Y112.359 E14.93344
G1 X73.451 Y110.700 E15.10658
G1 X72.775 Y108.839 E15.29559
G1 X72.312 Y107.258 E15.45287
G1 X71.908 Y105.490 E15.62601
G1 X71.595 Y103.535 E15.81502
G1 X71.439 Y101.896 E15.97230
G1 X71.376 Y100.083 E16.14544
G1 X71.439 Y98.104 E16.33445
G1 X71.595 Y96.465 E16.49173
G1 X71.876 Y94.673 E16.66487
G1 X72.312 Y92.742 E16.85388
G1 X72.775 Y91.161 E17.01116
G1 X73.390 Y89.455 E17.18430
G1 X74.182 Y87.641 E17.37331
G1 X74.936 Y86.176 E17.53059
G1 X75.862 Y84.617 E17.70373
G1 X76.983 Y82.985 E17.89274
G1 X78.106 Y81.562 E18.06589
G1 X79.276 Y80.256 E18.23330
G1 E17.23330 F1800.00000
G92 E0
G1 X123.475 Y107.475 F7800.000
G1 E1.00000 F1800.00000
G1 F1800
G1 X87.525 Y107.475 E4.43234
G1 X87.525 Y92.525 E5.85969
G1 X123.475 Y92.525 E9.29203
G1 X123.475 Y107.415 E10.71365
G1 X122.850 Y106.850 F7800.000
G1 F1800
G1 X88.150 Y106.850 E14.02667
G1 X88.150 Y93.150 E15.33469
G1 X122.850 Y93.150 E18.64771
G1 X122.850 Y106.790 E19.95000
G1 X123.005 Y107.219 F7800.000
G1 E18.95000 F1800.00000
G92 E0
G1 X86.900 Y108.100 F7800.000
G1 E1.00000 F1800.00000
G1 F1800
G1 X123.031 Y108.100 E4.44966
G1 X122.310 Y109.879 E4.63291
G1 X121.640 Y111.271 E4.78050
G1 X120.883 Y112.619 E4.92809
G1 X120.042 Y113.916 E5.07569
G1 X119.120 Y115.157 E5.22328
G1 X118.122 Y116.338 E5.37087
G1 X117.051 Y117.453 E5.51846
G1 X115.912 Y118.497 E5.66605
G1 X114.708 Y119.468 E5.81364
G1 X113.446 Y120.360 E5.96123
G1 X112.132 Y121.170 E6.10862
G1 X110.701 Y121.925 E6.26308
G1 X109.357 Y122.534 E6.40399
G1 X107.911 Y123.081 E6.55159
G1 X106.434 Y123.536 E6.69918
G1 X104.930 Y123.896 E6.84677
G1 X103.407 Y124.160 E6.99436
G1 X101.870 Y124.328 E7.14195
G1 X100.326 Y124.397 E7.28954
G1 X98.783 Y124.369 E7.43693
G1 X97.171 Y124.233 E7.59139
G1 X95.710 Y124.019 E7.73230
G1 X94.198 Y123.700 E7.87989
G1 X92.709 Y123.285 E8.02748
G1 X91.249 Y122.776 E8.17508
G1 X89.824 Y122.176 E8.32267
G1 X88.440 Y121.487 E8.47026
G1 X87.103 Y120.712 E8.61785
G1 X85.817 Y119.854 E8.76544
G1 X84.588 Y118.916 E8.91303
G1 X83.421 Y117.902 E9.06062
G1 X82.321 Y116.816 E9.20822
G1 X81.292 Y115.663 E9.35581
G1 X80.337 Y114.447 E9.50340
G1 X79.462 Y113.173 E9.65099
G1 X78.669 Y111.846 E9.79858
G1 X77.994 Y110.534 E9.93949
G1 X77.342 Y109.053 E10.09395
G1 X76.815 Y107.602 E10.24134
G1 X76.380 Y106.118 E10.38893
G1 X76.040 Y104.610 E10.53652
G1 X75.796 Y103.084 E10.68412
G1 X75.650 Y101.545 E10.83171
G1 X75.601 Y100.000 E10.97930
G1 X75.650 Y98.455 E11.12689
G1 X75.796 Y96.916 E11.27448
G1 X76.029 Y95.459 E11.41539
G1 X76.381 Y93.880 E11.56985
G1 X76.815 Y92.398 E11.71724
G1 X77.319 Y91.011 E11.85815
G1 X77.963 Y89.527 E12.01261
G1 X78.669 Y88.154 E12.16000
G1 X79.426 Y86.887 E12.30091
G1 X80.339 Y85.551 E12.45537
G1 X81.292 Y84.337 E12.60276
G1 X82.275 Y83.236 E12.74368
G1 X83.423 Y82.097 E12.89813
G1 X84.588 Y81.084 E13.04552
G1 X85.817 Y80.146 E13.19311
G1 X87.103 Y79.288 E13.34071
G1 X88.440 Y78.513 E13.48830
G1 X89.824 Y77.824 E13.63589
G1 X91.249 Y77.224 E13.78348
G1 X92.709 Y76.715 E13.93107
G1 X94.130 Y76.319 E14.07198
G1 X95.712 Y75.980 E14.22644
G1 X97.240 Y75.757 E14.37383
G1 X98.781 Y75.631 E14.52142
G1 X100.326 Y75.603 E14.66901
G1 X101.800 Y75.669 E14.80993
G1 X103.409 Y75.840 E14.96439
G1 X104.930 Y76.104 E15.11177
G1 X106.434 Y76.464 E15.25937
G1 X107.911 Y76.919 E15.40696
G1 X109.357 Y77.466 E15.55455
G1 X110.765 Y78.104 E15.70214
G1 X112.130 Y78.829 E15.84973
G1 X113.446 Y79.640 E15.99732
G1 X114.708 Y80.532 E16.14491
G1 X115.912 Y81.503 E16.29250
G1 X117.051 Y82.547 E16.44010
G1 X118.122 Y83.662 E16.58769
G1 X119.120 Y84.843 E16.73528
G1 X120.042 Y86.084 E16.88287
G1 X120.883 Y87.381 E17.03046
G1 X121.640 Y88.728 E17.17805
G1 X122.310 Y90.121 E17.32564
G1 X123.031 Y91.900 E17.50890
G1 X86.900 Y91.900 E20.95856
G1 X86.900 Y108.040 E22.49950
G1 E21.49950 F1800.00000
G92 E0
G1 X123.736 Y108.025 F7800.000
G1 E1.00000 F1800.00000
G1 F1800
G1 X122.882 Y110.132 E1.21703
G1 X122.194 Y111.560 E1.36840
G1 X121.418 Y112.943 E1.51977
G1 X120.555 Y114.273 E1.67115
G1 X119.610 Y115.546 E1.82252
G1 X118.586 Y116.756 E1.97389
G1 X117.488 Y117.900 E2.12526
G1 X116.319 Y118.971 E2.27664
G1 X115.085 Y119.967 E2.42801
G1 X113.791 Y120.882 E2.57938
G1 X112.442 Y121.712 E2.73063
G1 X110.976 Y122.487 E2.88887
G1 X109.597 Y123.111 E3.03349
G1 X108.114 Y123.673 E3.18486
G1 X106.598 Y124.139 E3.33624
G1 X105.057 Y124.508 E3.48761
G1 X103.494 Y124.779 E3.63898
G1 X101.918 Y124.951 E3.79036
G1 X100.334 Y125.022 E3.94173
G1 X98.751 Y124.993 E4.09298
G1 X97.099 Y124.854 E4.25122
G1 X95.600 Y124.635 E4.39583
G1 X94.049 Y124.307 E4.54721
G1 X92.522 Y123.881 E4.69858
G1 X91.025 Y123.360 E4.84995
G1 X89.563 Y122.744 E5.00133
G1 X88.144 Y122.038 E5.15270
G1 X86.772 Y121.243 E5.30407
G1 X85.454 Y120.363 E5.45545
G1 X84.193 Y119.401 E5.60682
G1 X82.997 Y118.361 E5.75819
G1 X81.868 Y117.247 E5.90957
G1 X80.812 Y116.064 E6.06094
G1 X79.834 Y114.817 E6.21231
G1 X78.936 Y113.510 E6.36369
G1 X78.123 Y112.149 E6.51506
G1 X77.429 Y110.803 E6.65967
G1 X76.762 Y109.286 E6.81792
G1 X76.221 Y107.797 E6.96916
G1 X75.775 Y106.275 E7.12054
G1 X75.426 Y104.729 E7.27191
G1 X75.176 Y103.163 E7.42328
G1 X75.026 Y101.585 E7.57466
G1 X74.975 Y100.000 E7.72603
G1 X75.026 Y98.415 E7.87740
G1 X75.176 Y96.837 E8.02878
G1 X75.415 Y95.341 E8.17339
G1 X75.775 Y93.724 E8.33163
G1 X76.221 Y92.203 E8.48288
G1 X76.738 Y90.780 E8.62750
G1 X77.398 Y89.259 E8.78574
G1 X78.123 Y87.851 E8.93699
G1 X78.899 Y86.550 E9.08160
G1 X79.834 Y85.182 E9.23985
G1 X80.812 Y83.936 E9.39110
G1 X81.821 Y82.806 E9.53571
G1 X82.998 Y81.638 E9.69395
G1 X84.193 Y80.599 E9.84520
G1 X85.454 Y79.637 E9.99657
G1 X86.772 Y78.757 E10.14795
G1 X88.144 Y77.962 E10.29932
G1 X89.563 Y77.256 E10.45069
G1 X91.025 Y76.640 E10.60207
G1 X92.522 Y76.119 E10.75344
G1 X93.981 Y75.712 E10.89806
G1 X95.602 Y75.365 E11.05630
G1 X97.169 Y75.136 E11.20755
G1 X98.749 Y75.007 E11.35892
G1 X100.334 Y74.978 E11.51029
G1 X101.848 Y75.046 E11.65491
G1 X103.496 Y75.221 E11.81315
G1 X105.057 Y75.492 E11.96440
G1 X106.598 Y75.861 E12.11577
G1 X108.114 Y76.327 E12.26714
G1 X109.597 Y76.889 E12.41852
G1 X111.041 Y77.543 E12.56989
G1 X112.441 Y78.287 E12.72126
G1 X113.791 Y79.118 E12.87264
G1 X115.085 Y80.033 E13.02401
G1 X116.319 Y81.029 E13.17538
G1 X117.488 Y82.100 E13.32676
G1 X118.586 Y83.244 E13.47813
G1 X119.610 Y84.454 E13.62950
G1 X120.555 Y85.727 E13.78088
G1 X121.418 Y87.057 E13.93225
G1 X122.194 Y88.440 E14.08362
G1 X122.882 Y89.868 E14.23500
G1 X123.736 Y91.975 E14.45202
G1 X124.525 Y91.975 E14.52737
G1 X124.525 Y95.006 E14.81673
G1 X124.810 Y96.732 E14.98382
G1 X124.971 Y98.363 E15.14024
G1 X125.025 Y100.000 E15.29665
G1 X124.971 Y101.637 E15.45306
G1 X124.810 Y103.268 E15.60948
G1 X124.525 Y104.994 E15.77657
G1 X124.525 Y108.025 E16.06593
G1 X123.796 Y108.025 E16.13555
G1 X124.157 Y108.650 F7800.000
G1 F1800
G1 X123.454 Y110.385 E16.31428
G1 X122.749 Y111.849 E16.46943
G1 X121.953 Y113.266 E16.62459
G1 X121.069 Y114.629 E16.77974
G1 X120.100 Y115.934 E16.93490
G1 X119.051 Y117.175 E17.09005
G1 X117.925 Y118.347 E17.24521
G1 X116.727 Y119.445 E17.40036
G1 X115.462 Y120.465 E17.55552
G1 X114.135 Y121.403 E17.71067
G1 X112.752 Y122.255 E17.86578
G1 X111.251 Y123.048 E18.02780
G1 X109.836 Y123.689 E18.17612
G1 X108.316 Y124.264 E18.33128
G1 X106.763 Y124.742 E18.48643
G1 X105.183 Y125.121 E18.64159
G1 X103.582 Y125.399 E18.79674
G1 X101.966 Y125.574 E18.95190
G1 X100.343 Y125.648 E19.10705
G1 X98.718 Y125.618 E19.26216
G1 X97.028 Y125.475 E19.42419
G1 X95.490 Y125.250 E19.57250
G1 X93.900 Y124.914 E19.72766
G1 X92.335 Y124.478 E19.88281
G1 X90.800 Y123.943 E20.03797
G1 X89.303 Y123.313 E20.19312
G1 X87.848 Y122.588 E20.34828
G1 X86.442 Y121.774 E20.50343
G1 X85.090 Y120.871 E20.65859
G1 X83.799 Y119.885 E20.81374
G1 X82.572 Y118.819 E20.96890
G1 X81.415 Y117.678 E21.12405
G1 X80.333 Y116.466 E21.27921
G1 X79.330 Y115.187 E21.43436
G1 X78.410 Y113.848 E21.58952
G1 X77.576 Y112.453 E21.74467
G1 X76.865 Y111.072 E21.89299
G1 X76.182 Y109.518 E22.05501
G1 X75.627 Y107.991 E22.21013
G1 X75.170 Y106.432 E22.36528
G1 X74.812 Y104.847 E22.52044
G1 X74.556 Y103.242 E22.67559
G1 X74.402 Y101.624 E22.83075
G1 X74.350 Y100.000 E22.98590
G1 X74.402 Y98.376 E23.14106
G1 X74.556 Y96.758 E23.29621
G1 X74.801 Y95.224 E23.44453
G1 X75.170 Y93.568 E23.60655
G1 X75.627 Y92.009 E23.76166
G1 X76.157 Y90.549 E23.90998
G1 X76.833 Y88.992 E24.07200
G1 X77.576 Y87.547 E24.22711
G1 X78.373 Y86.214 E24.37543
G1 X79.330 Y84.812 E24.53745
G1 X80.333 Y83.534 E24.69257
G1 X81.367 Y82.375 E24.84088
G1 X82.572 Y81.180 E25.00291
G1 X83.799 Y80.115 E25.15802
G1 X85.090 Y79.129 E25.31317
G1 X86.442 Y78.226 E25.46833
G1 X87.848 Y77.412 E25.62348
G1 X89.303 Y76.687 E25.77864
G1 X90.800 Y76.057 E25.93379
G1 X92.335 Y75.522 E26.08895
G1 X93.831 Y75.105 E26.23727
G1 X95.491 Y74.750 E26.39929
G1 X97.098 Y74.515 E26.55440
G1 X98.718 Y74.382 E26.70955
G1 X100.343 Y74.352 E26.86471
G1 X101.895 Y74.422 E27.01303
G1 X103.582 Y74.602 E27.17505
G1 X105.183 Y74.879 E27.33016
G1 X106.763 Y75.258 E27.48531
G1 X108.316 Y75.736 E27.64047
G1 X109.836 Y76.311 E27.79563
G1 X111.317 Y76.982 E27.95078
G1 X112.751 Y77.744 E28.10593
G1 X114.135 Y78.597 E28.26109
G1 X115.462 Y79.535 E28.41624
G1 X116.727 Y80.555 E28.57140
G1 X117.925 Y81.653 E28.72655
G1 X119.051 Y82.825 E28.88171
G1 X120.100 Y84.066 E29.03686
G1 X121.069 Y85.371 E29.19202
G1 X121.953 Y86.734 E29.34717
G1 X122.749 Y88.151 E29.50233
G1 X123.454 Y89.615 E29.65748
G1 X124.157 Y91.350 E29.83621
G1 X125.150 Y91.350 E29.93103
G1 X125.150 Y94.954 E30.27515
G1 X125.430 Y96.651 E30.43931
G1 X125.595 Y98.322 E30.59963
G1 X125.650 Y100.000 E30.75995
G1 X125.595 Y101.678 E30.92027
G1 X125.430 Y103.349 E31.08060
G1 X125.150 Y105.046 E31.24475
G1 X125.150 Y108.650 E31.58887
G1 X124.217 Y108.650 E31.67797
G1 X123.763 Y108.721 F7800.000
G1 X124.000 Y107.713 F7800.000
G1 F1800
G1 X124.001 Y104.934 E31.82666
G1 F1800
G1 X124.049 Y104.349 E31.86260
G1 F1800
G1 X124.097 Y103.765 E31.90714
G1 F1800
G1 X124.145 Y103.180 E31.96027
G1 F1800
G1 X124.184 Y102.384 E32.04305
G1 F1800
G1 X124.224 Y101.588 E32.13536
G1 F1800
G1 X124.250 Y100.000 E32.33518
G1 X124.204 Y98.014 E32.58510
G1 F1800
G1 X124.165 Y97.218 E32.67741
G1 F1800
G1 X124.121 Y96.528 E32.74926
G1 F1800
G1 X124.073 Y95.943 E32.80239
G1 F1800
G1 X124.025 Y95.358 E32.84693
G1 F1800
G1 X124.000 Y95.031 E32.86704
G1 F1800
G1 X124.000 Y92.287 E33.01386
G1 E32.01386 F1800.00000
G92 E0
G1 X121.933 Y91.342 F7800.000
G1 E1.00000 F1800.00000
G1 F1800
G1 X122.140 Y91.135 E1.02792
G1 X121.885 Y90.506 E1.09283
G1 X121.049 Y91.342 E1.20581
G1 X120.164 Y91.342 E1.29034
G1 X121.608 Y89.898 E1.48540
G1 X121.320 Y89.301 E1.54873
G1 X119.280 Y91.342 E1.82449
G1 X118.395 Y91.342 E1.90902
G1 X121.020 Y88.717 E2.26376
G1 X120.702 Y88.150 E2.32584
G1 X117.511 Y91.342 E2.75713
G1 X116.626 Y91.342 E2.84166
G1 X120.381 Y87.587 E3.34910
G1 X120.033 Y87.050 E3.41022
G1 X115.742 Y91.342 E3.99018
G1 X114.857 Y91.342 E4.07471
G1 X119.685 Y86.514 E4.72719
G1 X119.316 Y85.999 E4.78777
G1 X113.973 Y91.342 E5.50988
G1 X113.088 Y91.342 E5.59441
G1 X118.939 Y85.491 E6.38514
G1 X118.552 Y84.993 E6.44537
G1 X112.203 Y91.342 E7.30333
G1 X111.319 Y91.342 E7.38786
G1 X118.146 Y84.514 E8.31058
G1 X117.741 Y84.035 E8.37056
G1 X110.434 Y91.342 E9.35806
G1 X109.550 Y91.342 E9.44259
G1 X117.309 Y83.583 E10.49121
G1 X116.876 Y83.131 E10.55100
G1 X108.665 Y91.342 E11.66060
G1 X107.781 Y91.342 E11.74513
G1 X116.427 Y82.696 E12.91361
G1 X115.965 Y82.273 E12.97344
G1 X106.896 Y91.342 E14.19910
G1 X106.012 Y91.342 E14.28363
G1 X115.500 Y81.854 E15.56593
G1 X115.010 Y81.459 E15.62604
G1 X105.127 Y91.342 E16.96171
G1 X104.243 Y91.342 E17.04624
G1 X114.521 Y81.064 E18.43528
G1 X114.009 Y80.690 E18.49577
G1 X103.358 Y91.342 E19.93528
G1 X102.474 Y91.342 E20.01981
G1 X113.491 Y80.324 E21.50883
G1 X112.962 Y79.969 E21.56975
G1 X101.589 Y91.342 E23.10679
G1 X100.704 Y91.342 E23.19132
G1 X112.415 Y79.631 E24.77393
G1 X111.866 Y79.295 E24.83540
G1 X99.820 Y91.342 E26.46343
G1 X98.935 Y91.342 E26.54796
G1 X111.289 Y78.988 E28.21749
G1 X110.711 Y78.681 E28.27999
G1 X98.051 Y91.342 E29.99101
G1 X97.166 Y91.342 E30.07554
G1 X110.111 Y78.397 E31.82496
G1 X109.502 Y78.121 E31.88883
G1 X96.282 Y91.342 E33.67552
G1 X95.397 Y91.342 E33.76005
G1 X108.878 Y77.861 E35.58188
G1 X108.236 Y77.618 E35.64745
G1 X94.513 Y91.342 E37.50211
G1 X93.628 Y91.342 E37.58664
G1 X107.584 Y77.385 E39.47281
G1 X106.908 Y77.177 E39.54044
G1 X92.744 Y91.342 E41.45473
G1 X91.859 Y91.342 E41.53926
G1 X106.226 Y76.975 E43.48092
G1 X105.512 Y76.804 E43.55104
G1 X90.974 Y91.342 E45.51581
G1 X90.090 Y91.342 E45.60034
G1 X104.795 Y76.637 E47.58766
G1 X104.041 Y76.506 E47.66077
G1 X89.205 Y91.342 E49.66577
G1 X88.321 Y91.342 E49.75030
G1 X103.281 Y76.381 E51.77213
G1 X102.481 Y76.297 E51.84898
