; generated by Slic3r 1.3.0 on 2020-08-12 at 12:54:55

; external perimeters extrusion width = 0.44mm (3.38mm^3/s)
; perimeters extrusion width = 0.48mm (7.54mm^3/s)
; infill extrusion width = 0.48mm (10.05mm^3/s)
; solid infill extrusion width = 0.48mm (2.51mm^3/s)
; top infill extrusion width = 0.48mm (1.88mm^3/s)

M107
M104 S200 ; set temperature
G28 ; home all axes
G1 Z5 F5000 ; lift nozzle

; Filament gcode

M109 S200 ; set temperature and wait for it to be reached
G21 ; set units to millimeters
G90 ; use absolute coordinates
M82 ; use absolute distances for extrusion
G92 E0
G1 E-1.00000 F1800.00000
G92 E0
G1 Z0.350 F7800.000
G1 X83.267 Y88.869 F7800.000
G1 E1.00000 F1800.00000
G1 F1800
G1 X84.327 Y87.902 E1.13703
G1 X85.500 Y87.625 E1.25206
G1 X114.500 Y87.625 E4.02087
G1 X115.881 Y88.017 E4.15790
G1 X116.848 Y89.077 E4.29493
G1 X117.125 Y90.250 E4.40996
G1 X117.125 Y109.750 E6.27175
G1 X116.733 Y111.131 E6.40878
G1 X115.673 Y112.098 E6.54581
G1 X114.500 Y112.375 E6.66084
G1 X108.500 Y112.375 E7.23370
G1 X107.135 Y111.992 E7.36903
G1 X84.135 Y97.992 E9.93980
G1 X83.160 Y96.939 E10.07683
G1 X82.875 Y95.750 E10.19358
G1 X82.875 Y90.250 E10.71870
G1 X83.251 Y88.927 E10.85000
G1 E9.85000 F1800.00000
G92 E0
G1 X110.100 Y94.150 F7800.000
G1 E1.00000 F1800.00000
G1 F1800
G1 X87.100 Y94.150 E3.19595
G1 X87.100 Y91.850 E3.41559
G1 X112.900 Y91.850 E5.87891
G1 X112.900 Y108.150 E7.43521
G1 X110.100 Y108.150 E7.70259
G1 X110.100 Y94.210 E9.03353
G1 X109.475 Y94.775 F7800.000
G1 F1800
G1 X86.475 Y94.775 E11.22948
G1 X86.475 Y91.225 E11.56844
G1 X113.525 Y91.225 E14.15109
G1 X113.525 Y108.775 E15.82671
G1 X109.475 Y108.775 E16.21341
G1 X109.475 Y94.835 E17.54435
G1 X108.850 Y95.400 F7800.000
G1 F1800
G1 X85.850 Y95.400 E19.74030
G1 X85.850 Y90.600 E20.19858
G1 X114.150 Y90.600 E22.90055
G1 X114.150 Y109.400 E24.69550
G1 X108.850 Y109.400 E25.20153
G1 X108.850 Y95.460 E26.53246
G1 X108.802 Y95.003 F7800.000
G1 E25.53246 F1800.00000
G92 E0
G1 X112.209 Y107.592 F7800.000
G1 E1.00000 F1800.00000
G1 F1800
G1 X112.342 Y107.459 E1.01825
G1 X112.342 Y106.559 E1.10576
G1 X111.309 Y107.592 E1.24778
G1 X110.658 Y107.592 E1.31103
G1 X110.658 Y107.342 E1.33529
G1 X112.342 Y105.659 E1.56677
G1 X112.342 Y104.759 E1.65428
G1 X110.658 Y106.442 E1.88575
G1 X110.658 Y105.542 E1.97327
G1 X112.342 Y103.859 E2.20474
G1 X112.342 Y102.959 E2.29226
G1 X110.658 Y104.642 E2.52373
G1 X110.658 Y103.742 E2.61125
G1 X112.342 Y102.059 E2.84272
G1 X112.342 Y101.159 E2.93023
G1 X110.658 Y102.842 E3.16171
G1 X110.658 Y101.942 E3.24922
G1 X112.342 Y100.259 E3.48070
G1 X112.342 Y99.359 E3.56821
G1 X110.658 Y101.042 E3.79968
G1 X110.658 Y100.142 E3.88720
G1 X112.342 Y98.459 E4.11867
G1 X112.342 Y97.559 E4.20619
G1 X110.658 Y99.242 E4.43766
G1 X110.658 Y98.342 E4.52518
G1 X112.342 Y96.659 E4.75665
G1 X112.342 Y95.759 E4.84416
G1 X110.658 Y97.442 E5.07564
G1 X110.658 Y96.542 E5.16315
G1 X112.342 Y94.859 E5.39462
G1 X112.342 Y93.959 E5.48214
G1 X110.658 Y95.642 E5.71361
G1 X110.658 Y94.742 E5.80113
G1 X112.342 Y93.059 E6.03260
G1 X112.342 Y92.408 E6.09582
G1 X112.092 Y92.408 E6.12012
G1 X110.658 Y93.842 E6.31723
G1 X110.658 Y93.592 E6.34155
G1 X110.008 Y93.592 E6.40475
G1 X111.192 Y92.408 E6.56746
G1 X110.292 Y92.408 E6.65498
G1 X109.108 Y93.592 E6.81769
G1 X108.208 Y93.592 E6.90521
G1 X109.392 Y92.408 E7.06792
G1 X108.492 Y92.408 E7.15544
G1 X107.308 Y93.592 E7.31816
G1 X106.408 Y93.592 E7.40567
G1 X107.592 Y92.408 E7.56839
G1 X106.692 Y92.408 E7.65590
G1 X105.508 Y93.592 E7.81862
G1 X104.608 Y93.592 E7.90613
G1 X105.792 Y92.408 E8.06885
G1 X104.892 Y92.408 E8.15637
G1 X103.708 Y93.592 E8.31908
G1 X102.808 Y93.592 E8.40660
G1 X103.992 Y92.408 E8.56931
G1 X103.092 Y92.408 E8.65683
G1 X101.908 Y93.592 E8.81954
G1 X101.008 Y93.592 E8.90706
G1 X102.191 Y92.408 E9.06978
G1 X101.291 Y92.408 E9.15729
G1 X100.108 Y93.592 E9.32001
G1 X99.208 Y93.592 E9.40752
G1 X100.391 Y92.408 E9.57024
G1 X99.491 Y92.408 E9.65775
G1 X98.308 Y93.592 E9.82047
G1 X97.408 Y93.592 E9.90799
G1 X98.591 Y92.408 E10.07070
G1 X97.691 Y92.408 E10.15822
G1 X96.508 Y93.592 E10.32093
G1 X95.608 Y93.592 E10.40845
G1 X96.791 Y92.408 E10.57116
G1 X95.891 Y92.408 E10.65868
G1 X94.708 Y93.592 E10.82140
G1 X93.808 Y93.592 E10.90891
G1 X94.991 Y92.408 E11.07163
G1 X94.091 Y92.408 E11.15914
G1 X92.908 Y93.592 E11.32186
G1 X92.008 Y93.592 E11.40937
G1 X93.191 Y92.408 E11.57209
G1 X92.291 Y92.408 E11.65961
G1 X91.108 Y93.592 E11.82232
G1 X90.208 Y93.592 E11.90984
G1 X91.391 Y92.408 E12.07255
G1 X90.491 Y92.408 E12.16007
G1 X89.308 Y93.592 E12.32279
G1 X88.408 Y93.592 E12.41030
G1 X89.591 Y92.408 E12.57302
G1 X88.691 Y92.408 E12.66053
G1 X87.658 Y93.441 E12.80255
G1 X87.658 Y92.541 E12.89006
G1 X87.791 Y92.408 E12.90832
G1 E11.90832 F1800.00000
G92 E0
G1 Z0.650 F7800.000
G1 X109.536 Y94.714 F7800.000
G1 E1.00000 F1800.00000
G1 F3600
G1 X86.536 Y94.714 E2.26171
G1 X86.536 Y91.286 E2.44975
G1 X113.464 Y91.286 E3.92693
G1 X113.464 Y108.714 E4.88297
G1 X109.536 Y108.714 E5.09843
G1 X109.536 Y94.774 E5.86314
G1 X109.117 Y95.133 F7800.000
G1 F3600
G1 X86.117 Y95.133 E7.12485
G1 X86.117 Y90.867 E7.35885
G1 X113.883 Y90.867 E8.88198
G1 X113.883 Y109.133 E9.88398
G1 X109.117 Y109.133 E10.14540
G1 X109.117 Y95.193 E10.91011
G1 X108.720 Y95.530 F7800.000
G1 F1800
G1 X85.720 Y95.530 E12.04152
G1 X85.720 Y90.470 E12.29043
G1 X114.280 Y90.470 E13.69535
G1 X114.280 Y109.530 E14.63294
G1 X108.720 Y109.530 E14.90645
G1 X108.720 Y95.590 E15.59218
G1 X108.670 Y95.133 F7800.000
G1 X109.704 Y94.339 F7800.000
G1 F1200
G1 X107.025 Y91.661 E15.80180
G1 X106.428 Y91.661 E15.83486
G1 X109.107 Y94.339 E16.04448
G1 X108.509 Y94.339 E16.07754
G1 X105.831 Y91.661 E16.28716
G1 X105.233 Y91.661 E16.32022
G1 X107.912 Y94.339 E16.52984
G1 X107.314 Y94.339 E16.56290
G1 X104.636 Y91.661 E16.77252
G1 X104.038 Y91.661 E16.80558
G1 X106.717 Y94.339 E17.01520
G1 X106.119 Y94.339 E17.04826
G1 X103.441 Y91.661 E17.25788
G1 X102.843 Y91.661 E17.29094
G1 X105.522 Y94.339 E17.50056
G1 X104.924 Y94.339 E17.53362
G1 X102.246 Y91.661 E17.74324
G1 X101.648 Y91.661 E17.77630
G1 X104.327 Y94.339 E17.98592
G1 X103.729 Y94.339 E18.01898
G1 X101.051 Y91.661 E18.22860
G1 X100.453 Y91.661 E18.26166
G1 X103.132 Y94.339 E18.47128
G1 X102.534 Y94.339 E18.50434
G1 X99.856 Y91.661 E18.71396
G1 X99.258 Y91.661 E18.74702
G1 X101.937 Y94.339 E18.95665
G1 X101.339 Y94.339 E18.98970
G1 X98.661 Y91.661 E19.19933
G1 X98.063 Y91.661 E19.23238
G1 X100.742 Y94.339 E19.44201
G1 X100.144 Y94.339 E19.47506
G1 X97.466 Y91.661 E19.68469
G1 X96.868 Y91.661 E19.71775
G1 X99.547 Y94.339 E19.92737
G1 X98.949 Y94.339 E19.96043
G1 X96.271 Y91.661 E20.17005
G1 X95.673 Y91.661 E20.20311
G1 X98.352 Y94.339 E20.41273
G1 X97.754 Y94.339 E20.44579
G1 X95.076 Y91.661 E20.65541
G1 X94.478 Y91.661 E20.68847
G1 X97.157 Y94.339 E20.89809
G1 X96.559 Y94.339 E20.93115
G1 X93.881 Y91.661 E21.14077
G1 X93.283 Y91.661 E21.17383
G1 X95.962 Y94.339 E21.38345
G1 X95.364 Y94.339 E21.41651
G1 X92.686 Y91.661 E21.62613
G1 X92.088 Y91.661 E21.65919
G1 X94.767 Y94.339 E21.86881
G1 X94.169 Y94.339 E21.90187
G1 X91.491 Y91.661 E22.11149
G1 X90.893 Y91.661 E22.14455
G1 X93.572 Y94.339 E22.35417
G1 X92.975 Y94.339 E22.38723
G1 X90.296 Y91.661 E22.59685
G1 X89.698 Y91.661 E22.62991
G1 X92.377 Y94.339 E22.83953
G1 X91.780 Y94.339 E22.87259
G1 X89.101 Y91.661 E23.08221
G1 X88.503 Y91.661 E23.11527
G1 X91.182 Y94.339 E23.32489
G1 X90.585 Y94.339 E23.35795
G1 X87.906 Y91.661 E23.56757
G1 X87.308 Y91.661 E23.60063
G1 X89.987 Y94.339 E23.81025
G1 X89.390 Y94.339 E23.84331
G1 X86.911 Y91.860 E24.03729
G1 X86.911 Y92.458 E24.07034
G1 X88.792 Y94.339 E24.21757
G1 X88.195 Y94.339 E24.25063
G1 X86.911 Y93.055 E24.35110
G1 X86.911 Y93.653 E24.38416
G1 X87.597 Y94.339 E24.43788
G1 X87.000 Y94.339 E24.47094
G1 X86.911 Y94.250 E24.47790
G1 X113.089 Y91.750 F7800.000
G1 F1200
G1 X113.000 Y91.661 E24.48487
G1 X112.403 Y91.661 E24.51793
G1 X113.089 Y92.347 E24.57164
G1 X113.089 Y92.945 E24.60470
G1 X111.805 Y91.661 E24.70517
G1 X111.208 Y91.661 E24.73823
G1 X113.089 Y93.542 E24.88546
G1 X113.089 Y94.140 E24.91852
G1 X110.610 Y91.661 E25.11249
G1 X110.013 Y91.661 E25.14555
G1 X113.089 Y94.737 E25.38629
G1 X113.089 Y95.335 E25.41935
G1 X109.415 Y91.661 E25.70683
G1 X108.818 Y91.661 E25.73989
G1 X113.089 Y95.932 E26.07413
G1 X113.089 Y96.530 E26.10719
G1 X108.220 Y91.661 E26.48818
G1 X107.623 Y91.661 E26.52124
G1 X113.089 Y97.127 E26.94898
G1 X113.089 Y97.725 E26.98204
G1 X109.911 Y94.546 E27.23079
G1 X109.911 Y95.143 E27.26385
G1 X113.089 Y98.322 E27.51259
G1 X113.089 Y98.919 E27.54565
G1 X109.911 Y95.741 E27.79440
G1 X109.911 Y96.338 E27.82746
G1 X113.089 Y99.517 E28.07620
G1 X113.089 Y100.114 E28.10926
G1 X109.911 Y96.936 E28.35801
G1 X109.911 Y97.533 E28.39107
G1 X113.089 Y100.712 E28.63981
G1 X113.089 Y101.309 E28.67287
G1 X109.911 Y98.131 E28.92162
G1 X109.911 Y98.728 E28.95468
G1 X113.089 Y101.907 E29.20342
G1 X113.089 Y102.504 E29.23648
G1 X109.911 Y99.326 E29.48523
G1 X109.911 Y99.923 E29.51829
G1 X113.089 Y103.102 E29.76703
G1 X113.089 Y103.699 E29.80009
G1 X109.911 Y100.521 E30.04884
G1 X109.911 Y101.118 E30.08190
G1 X113.089 Y104.297 E30.33064
G1 X113.089 Y104.894 E30.36370
G1 X109.911 Y101.716 E30.61245
G1 X109.911 Y102.313 E30.64551
G1 X113.089 Y105.492 E30.89425
G1 X113.089 Y106.089 E30.92731
G1 X109.911 Y102.911 E31.17606
G1 X109.911 Y103.508 E31.20911
G1 X113.089 Y106.687 E31.45786
G1 X113.089 Y107.284 E31.49092
G1 X109.911 Y104.106 E31.73966
G1 X109.911 Y104.703 E31.77272
G1 X113.089 Y107.882 E32.02147
G1 X113.089 Y108.339 E32.04678
G1 X112.949 Y108.339 E32.05453
G1 X109.911 Y105.301 E32.29232
G1 X109.911 Y105.898 E32.32538
G1 X112.352 Y108.339 E32.51642
G1 X111.754 Y108.339 E32.54948
G1 X109.911 Y106.496 E32.69376
G1 X109.911 Y107.093 E32.72682
G1 X111.157 Y108.339 E32.82435
G1 X110.559 Y108.339 E32.85741
G1 X109.911 Y107.691 E32.90819
G1 E31.90819 F1800.00000
G92 E0
G1 Z0.950 F7800.000
G1 X109.536 Y94.714 F7800.000
G1 E1.00000 F1800.00000
G1 F3600
G1 X86.536 Y94.714 E2.26171
G1 X86.536 Y91.286 E2.44975
G1 X113.464 Y91.286 E3.92693
G1 X113.464 Y108.714 E4.88297
G1 X109.536 Y108.714 E5.09843
G1 X109.536 Y94.774 E5.86314
G1 X109.117 Y95.133 F7800.000
G1 F3600
G1 X86.117 Y95.133 E7.12485
G1 X86.117 Y90.867 E7.35885
G1 X113.883 Y90.867 E8.88198
G1 X113.883 Y109.133 E9.88398
G1 X109.117 Y109.133 E10.14540
G1 X109.117 Y95.193 E10.91011
G1 X108.720 Y95.530 F7800.000
G1 F1800
G1 X85.720 Y95.530 E12.04152
G1 X85.720 Y90.470 E12.29043
G1 X114.280 Y90.470 E13.69535
G1 X114.280 Y109.530 E14.63294
G1 X108.720 Y109.530 E14.90645
G1 X108.720 Y95.590 E15.59218
G1 X108.670 Y95.133 F7800.000
G1 X113.000 Y108.339 F7800.000
G1 F1200
G1 X113.089 Y108.250 E15.59909
G1 X113.089 Y107.658 E15.63163
G1 X112.408 Y108.339 E15.68456
G1 X111.815 Y108.339 E15.71710
G1 X113.089 Y107.065 E15.81604
G1 X113.089 Y106.472 E15.84858
G1 X111.222 Y108.339 E15.99354
G1 X110.629 Y108.339 E16.02608
G1 X113.089 Y105.879 E16.21706
G1 X113.089 Y105.287 E16.24960
G1 X110.037 Y108.339 E16.48660
G1 X109.911 Y108.339 E16.49351
G1 X109.911 Y107.873 E16.51914
G1 X113.089 Y104.694 E16.76591
G1 X113.089 Y104.101 E16.79845
G1 X109.911 Y107.280 E17.04523
G1 X109.911 Y106.687 E17.07777
G1 X113.089 Y103.508 E17.32455
G1 X113.089 Y102.915 E17.35709
G1 X109.911 Y106.094 E17.60387
G1 X109.911 Y105.502 E17.63641
G1 X113.089 Y102.323 E17.88319
G1 X113.089 Y101.730 E17.91573
G1 X109.911 Y104.909 E18.16251
G1 X109.911 Y104.316 E18.19505
G1 X113.089 Y101.137 E18.44183
G1 X113.089 Y100.544 E18.47437
G1 X109.911 Y103.723 E18.72114
G1 X109.911 Y103.131 E18.75368
G1 X113.089 Y99.952 E19.00046
G1 X113.089 Y99.359 E19.03300
G1 X109.911 Y102.538 E19.27978
G1 X109.911 Y101.945 E19.31232
G1 X113.089 Y98.766 E19.55910
G1 X113.089 Y98.173 E19.59164
G1 X109.911 Y101.352 E19.83842
G1 X109.911 Y100.759 E19.87096
G1 X113.089 Y97.581 E20.11774
G1 X113.089 Y96.988 E20.15027
G1 X109.911 Y100.167 E20.39705
G1 X109.911 Y99.574 E20.42959
G1 X113.089 Y96.395 E20.67637
G1 X113.089 Y95.802 E20.70891
G1 X109.911 Y98.981 E20.95569
G1 X109.911 Y98.388 E20.98823
G1 X113.089 Y95.209 E21.23501
G1 X113.089 Y94.617 E21.26755
G1 X109.911 Y97.796 E21.51433
G1 X109.911 Y97.203 E21.54687
G1 X113.089 Y94.024 E21.79365
G1 X113.089 Y93.431 E21.82618
G1 X109.911 Y96.610 E22.07296
G1 X109.911 Y96.017 E22.10550
G1 X113.089 Y92.838 E22.35228
G1 X113.089 Y92.246 E22.38482
G1 X109.911 Y95.424 E22.63160
G1 X109.911 Y94.832 E22.66414
G1 X113.082 Y91.661 E22.91032
G1 X112.489 Y91.661 E22.94286
G1 X109.810 Y94.339 E23.15082
G1 X109.217 Y94.339 E23.18336
G1 X111.896 Y91.661 E23.39132
G1 X111.303 Y91.661 E23.42386
G1 X108.624 Y94.339 E23.63183
G1 X108.032 Y94.339 E23.66436
G1 X110.711 Y91.661 E23.87233
G1 X110.118 Y91.661 E23.90487
G1 X107.439 Y94.339 E24.11283
G1 X106.846 Y94.339 E24.14537
G1 X109.525 Y91.661 E24.35333
G1 X108.932 Y91.661 E24.38587
G1 X106.253 Y94.339 E24.59384
G1 X105.661 Y94.339 E24.62638
G1 X108.339 Y91.661 E24.83434
G1 X107.747 Y91.661 E24.86688
G1 X105.068 Y94.339 E25.07484
G1 X104.475 Y94.339 E25.10738
G1 X107.154 Y91.661 E25.31535
G1 X106.561 Y91.661 E25.34789
G1 X103.882 Y94.339 E25.55585
G1 X103.290 Y94.339 E25.58839
G1 X105.968 Y91.661 E25.79635
G1 X105.376 Y91.661 E25.82889
G1 X102.697 Y94.339 E26.03686
G1 X102.104 Y94.339 E26.06940
G1 X104.783 Y91.661 E26.27736
G1 X104.190 Y91.661 E26.30990
G1 X101.511 Y94.339 E26.51786
G1 X100.918 Y94.339 E26.55040
G1 X103.597 Y91.661 E26.75836
G1 X103.005 Y91.661 E26.79090
G1 X100.326 Y94.339 E26.99887
G1 X99.733 Y94.339 E27.03141
G1 X102.412 Y91.661 E27.23937
G1 X101.819 Y91.661 E27.27191
G1 X99.140 Y94.339 E27.47987
G1 X98.547 Y94.339 E27.51241
G1 X101.226 Y91.661 E27.72038
G1 X100.633 Y91.661 E27.75292
G1 X97.955 Y94.339 E27.96088
G1 X97.362 Y94.339 E27.99342
G1 X100.041 Y91.661 E28.20138
G1 X99.448 Y91.661 E28.23392
G1 X96.769 Y94.339 E28.44189
G1 X96.176 Y94.339 E28.47443
G1 X98.855 Y91.661 E28.68239
G1 X98.262 Y91.661 E28.71493
G1 X95.583 Y94.339 E28.92289
G1 X94.991 Y94.339 E28.95543
G1 X97.670 Y91.661 E29.16339
G1 X97.077 Y91.661 E29.19593
G1 X94.398 Y94.339 E29.40390
G1 X93.805 Y94.339 E29.43644
G1 X96.484 Y91.661 E29.64440
G1 X95.891 Y91.661 E29.67694
G1 X93.212 Y94.339 E29.88490
G1 X92.620 Y94.339 E29.91744
G1 X95.298 Y91.661 E30.12541
G1 X94.706 Y91.661 E30.15795
G1 X92.027 Y94.339 E30.36591
G1 X91.434 Y94.339 E30.39845
G1 X94.113 Y91.661 E30.60641
G1 X93.520 Y91.661 E30.63895
G1 X90.841 Y94.339 E30.84692
G1 X90.248 Y94.339 E30.87946
G1 X92.927 Y91.661 E31.08742
G1 X92.335 Y91.661 E31.11996
G1 X89.656 Y94.339 E31.32792
G1 X89.063 Y94.339 E31.36046
G1 X91.742 Y91.661 E31.56842
G1 X91.149 Y91.661 E31.60096
G1 X88.470 Y94.339 E31.80893
G1 X87.877 Y94.339 E31.84147
G1 X90.556 Y91.661 E32.04943
G1 X89.964 Y91.661 E32.08197
G1 X87.285 Y94.339 E32.28993
G1 X86.911 Y94.339 E32.31047
G1 X86.911 Y94.121 E32.32247
G1 X89.371 Y91.661 E32.51346
G1 X88.778 Y91.661 E32.54600
G1 X86.911 Y93.528 E32.69097
G1 X86.911 Y92.935 E32.72351
G1 X88.185 Y91.661 E32.82246
G1 X87.592 Y91.661 E32.85500
G1 X86.911 Y92.342 E32.90793
G1 X86.911 Y91.750 E32.94047
G1 X87.000 Y91.661 E32.94739
M106 S237.15
G1 E31.94739 F1800.00000
G92 E0
G1 Z1.250 F7800.000
G1 X109.536 Y94.714 F7800.000
G1 E1.00000 F1800.00000
G1 F3600
G1 X86.536 Y94.714 E2.26171
G1 X86.536 Y91.286 E2.44975
G1 X113.464 Y91.286 E3.92693
G1 X113.464 Y108.714 E4.88297
G1 X109.536 Y108.714 E5.09843
G1 X109.536 Y94.774 E5.86314
G1 X109.117 Y95.133 F7800.000
G1 F3600
G1 X86.117 Y95.133 E7.12485
G1 X86.117 Y90.867 E7.35885
G1 X113.883 Y90.867 E8.88198
