; generated by Slic3r 1.2.9 on 2017-10-21 at 20:42:04

; external perimeters extrusion width = 0.50mm
; perimeters extrusion width = 0.85mm
; infill extrusion width = 1.02mm
; solid infill extrusion width = 0.85mm
; top infill extrusion width = 0.85mm

M107
M190 S60 ; set bed temperature
M104 S200 ; set temperature
G28 ; home all axes
G1 Z5 F5000 ; lift nozzle

M109 S200 ; wait for temperature to be reached
G21 ; set units to millimeters
G90 ; use absolute coordinates
M82 ; use absolute distances for extrusion
G92 E0
G1 Z0.240 F7800.000
G1 E-2.00000 F2400.00000
G92 E0
G1 X47.345 Y89.018 F7800.000
G1 E2.00000 F2400.00000
G1 X47.838 Y88.769 E2.00906 F1800.000
G1 X48.865 Y88.295 E2.02762
G1 X49.331 Y88.102 E2.03591
G1 X50.436 Y87.695 E2.05525
G1 X50.916 Y87.539 E2.06353
G1 X52.050 Y87.219 E2.08287
G1 X52.587 Y87.092 E2.09193
G1 X53.696 Y86.871 E2.11049
G1 X54.194 Y86.792 E2.11878
G1 X55.364 Y86.654 E2.13812
G1 X55.867 Y86.614 E2.14640
G1 X57.044 Y86.568 E2.16574
G1 X156.000 Y86.563 E3.79039
G1 X156.845 Y86.619 E3.80429
G1 X160.615 Y87.125 E3.86673 F1800.000
G1 X161.388 Y87.281 E3.87968
G1 X162.208 Y87.509 E3.89366
G1 X163.062 Y87.814 E3.90855
G1 X164.024 Y88.241 E3.92583
G1 X165.852 Y89.568 E3.96291
G1 X167.108 Y91.446 E4.00000
G1 X167.520 Y92.747 E4.02241
G1 X167.690 Y93.628 E4.03714
G1 X167.774 Y94.189 E4.04645
G1 X167.748 Y96.258 E4.08043
G1 X166.628 Y102.610 E4.18632
G1 X165.945 Y104.564 E4.22030
G1 X165.509 Y105.348 E4.23503
G1 X165.213 Y105.831 E4.24434
G1 X163.863 Y107.399 E4.27831
G1 X158.922 Y111.545 E4.38421
G1 X157.143 Y112.603 E4.41818
G1 X156.616 Y112.810 E4.42748
G1 X155.767 Y113.104 E4.44222
G1 X153.725 Y113.437 E4.47619
G1 X82.858 Y113.437 E5.63967
G1 X38.363 Y111.916 E6.37061
G1 X36.154 Y111.444 E6.40770
G1 X34.245 Y110.236 E6.44479
G1 X32.872 Y108.442 E6.48187
G1 X32.204 Y106.285 E6.51896
G1 X32.323 Y104.029 E6.55605
G1 X33.216 Y101.954 E6.59313
G1 X34.037 Y100.946 E6.61448
G1 X42.144 Y92.839 E6.80270
G1 X43.191 Y91.865 E6.82618
G1 X43.575 Y91.537 E6.83447
G1 X44.500 Y90.808 E6.85381
G1 X44.908 Y90.511 E6.86209
G1 X45.887 Y89.857 E6.88143
G1 X46.318 Y89.593 E6.88972
G1 X47.280 Y89.054 E6.90782
G1 E4.90782 F2400.00000
G92 E0
G1 X86.068 Y98.764 F7800.000
G1 E2.00000 F2400.00000
G1 X85.509 Y98.690 E2.00926 F1800.000
G1 X85.123 Y98.550 E2.01600
G1 X84.781 Y98.352 E2.02250
G1 X84.466 Y98.088 E2.02924
G1 X84.123 Y97.641 E2.03850
G1 X83.949 Y97.268 E2.04525
G1 X83.847 Y96.886 E2.05174
G1 X83.812 Y96.492 E2.05824
G1 X83.848 Y96.083 E2.06498
G1 X84.015 Y95.550 E2.07414
G1 X84.222 Y95.190 E2.08097
G1 X84.477 Y94.886 E2.08749
G1 X84.781 Y94.631 E2.09399
G1 X85.123 Y94.433 E2.10049
G1 X85.509 Y94.293 E2.10722
G1 X86.062 Y94.220 E2.11639 F1800.000
G1 X86.477 Y94.255 E2.12322
G1 X86.860 Y94.358 E2.12973
G1 X87.232 Y94.531 E2.13647
G1 X87.680 Y94.875 E2.14573
G1 X87.953 Y95.200 E2.15271
G1 X88.213 Y95.701 E2.16197
G1 X88.320 Y96.097 E2.16872
G1 X88.354 Y96.492 E2.17522
G1 X88.318 Y96.900 E2.18195
G1 X88.151 Y97.433 E2.19112
G1 X87.944 Y97.794 E2.19795
G1 X87.680 Y98.109 E2.20470
G1 X87.232 Y98.452 E2.21396
G1 X86.860 Y98.626 E2.22070
G1 X86.477 Y98.728 E2.22720
G1 X86.143 Y98.757 E2.23271
G1 X86.078 Y98.333 F7800.000
G1 X85.612 Y98.272 E2.24043 F1800.000
G1 X85.305 Y98.160 E2.24579
G1 X85.027 Y98.000 E2.25106
G1 X84.777 Y97.790 E2.25641
G1 X84.491 Y97.417 E2.26413
G1 X84.353 Y97.121 E2.26949
G1 X84.270 Y96.811 E2.27475
G1 X84.242 Y96.492 E2.28002
G1 X84.271 Y96.167 E2.28538
G1 X84.410 Y95.723 E2.29301
G1 X84.575 Y95.436 E2.29845
G1 X84.781 Y95.190 E2.30372
G1 X85.027 Y94.984 E2.30899
G1 X85.305 Y94.823 E2.31426
G1 X85.612 Y94.712 E2.31961
G1 X86.072 Y94.651 E2.32724 F1800.000
G1 X86.403 Y94.679 E2.33268
G1 X86.713 Y94.762 E2.33796
G1 X87.008 Y94.900 E2.34331
G1 X87.381 Y95.186 E2.35103
G1 X87.595 Y95.440 E2.35647
G1 X87.812 Y95.857 E2.36420
G1 X87.896 Y96.172 E2.36955
G1 X87.924 Y96.492 E2.37482
G1 X87.896 Y96.816 E2.38017
G1 X87.756 Y97.260 E2.38780
G1 X87.591 Y97.547 E2.39324
G1 X87.381 Y97.797 E2.39860
G1 X87.008 Y98.084 E2.40633
G1 X86.713 Y98.222 E2.41168
G1 X86.403 Y98.305 E2.41695
G1 X86.153 Y98.327 E2.42107
G1 X85.819 Y98.726 F7800.000
G1 X80.560 Y98.395 F7800.000
G1 X55.825 Y98.395 E2.82716 F1800.000
G1 X55.368 Y98.413 E2.83467
G1 X54.893 Y98.469 E2.84253
G1 X54.423 Y98.562 E2.85039
G1 X53.962 Y98.692 E2.85825
G1 X53.513 Y98.858 E2.86611
G1 X53.078 Y99.058 E2.87397
G1 X52.660 Y99.292 E2.88183
G1 X52.262 Y99.558 E2.88969
G1 X51.888 Y99.853 E2.89751
G1 X51.551 Y100.165 E2.90506
G1 X47.321 Y104.395 E3.00326
G1 X41.231 Y104.395 E3.10324
G1 X47.450 Y98.176 E3.24763
G1 X48.268 Y97.420 E3.26591
G1 X49.125 Y96.745 E3.28383
G1 X50.032 Y96.138 E3.30175
G1 X50.983 Y95.606 E3.31964
G1 X52.019 Y95.132 E3.33834
G1 X53.000 Y94.770 E3.35551
G1 X54.051 Y94.474 E3.37343
G1 X55.122 Y94.261 E3.39135
G1 X56.206 Y94.132 E3.40928
G1 X57.318 Y94.089 E3.42755
G1 X84.758 Y94.091 E3.87806
G1 X84.173 Y94.582 E3.89059
G1 X83.870 Y94.943 E3.89834
G1 X83.620 Y95.377 E3.90656
G1 X83.425 Y95.999 E3.91726
G1 X83.382 Y96.492 E3.92537
G1 X83.423 Y96.961 E3.93310
G1 X83.545 Y97.416 E3.94083
G1 X83.754 Y97.864 E3.94896
G1 X84.155 Y98.386 E3.95976
G1 X84.534 Y98.704 E3.96789
G1 X84.942 Y98.940 E3.97562
G1 X85.407 Y99.109 E3.98375
G1 X86.059 Y99.195 E3.99455
G1 X86.552 Y99.152 E4.00268
G1 X87.007 Y99.030 E4.01041
G1 X87.456 Y98.821 E4.01853
G1 X87.978 Y98.420 E4.02934
G1 X88.297 Y98.040 E4.03748
G1 X88.546 Y97.606 E4.04570
G1 X88.741 Y96.984 E4.05640
G1 X88.784 Y96.492 E4.06452
G1 X88.743 Y96.023 E4.07225
G1 X88.615 Y95.544 E4.08038
G1 X88.311 Y94.961 E4.09118
G1 X87.978 Y94.563 E4.09970
G1 X87.590 Y94.266 E4.10772
G1 X87.649 Y94.091 E4.11075
G1 X90.953 Y94.092 E4.16498
G1 X91.224 Y94.400 E4.17173
G1 X91.528 Y94.630 E4.17799
G1 X91.873 Y94.811 E4.18438
G1 X92.378 Y94.957 E4.19301
G1 X92.894 Y94.995 E4.20150
G1 X93.415 Y94.924 E4.21015
G1 X93.871 Y94.787 E4.21796
G1 X94.159 Y94.664 E4.22310
G1 X94.402 Y94.526 E4.22769
G1 X94.501 Y94.515 E4.22932
G1 X94.926 Y94.543 E4.23631
G1 X95.147 Y94.583 E4.23999
G1 X95.795 Y94.777 E4.25111
G1 X95.301 Y95.155 E4.26132
G1 X95.080 Y95.287 E4.26554
G1 X94.710 Y95.456 E4.27223
G1 X94.563 Y95.493 E4.27472
G1 X94.224 Y95.439 E4.28035
G1 X93.683 Y95.439 E4.28923
G1 X93.195 Y95.515 E4.29734
G1 X92.615 Y95.728 E4.30749
G1 X92.150 Y96.044 E4.31673
G1 X91.868 Y96.338 E4.32341
G1 X91.647 Y96.665 E4.32990
G1 X91.460 Y97.127 E4.33807
G1 X91.355 Y97.721 E4.34798
G1 X91.366 Y98.194 E4.35575
G1 X91.451 Y98.566 E4.36201
G1 X91.598 Y98.926 E4.36839
G1 X91.899 Y99.374 E4.37726
G1 X92.318 Y99.761 E4.38662
G1 X92.711 Y100.005 E4.39421
G1 X93.145 Y100.192 E4.40197
G1 X93.445 Y100.283 E4.40711
G1 X93.720 Y100.334 E4.41170
G1 X93.802 Y100.389 E4.41333
G1 X94.110 Y100.683 E4.42032
G1 X94.253 Y100.855 E4.42400
G1 X94.625 Y101.421 E4.43512
G1 X94.004 Y101.393 E4.44533
G1 X93.750 Y101.352 E4.44955
G1 X93.357 Y101.243 E4.45624
G1 X93.221 Y101.177 E4.45873
G1 X92.997 Y100.918 E4.46435
G1 X92.582 Y100.570 E4.47324
G1 X92.159 Y100.315 E4.48134
G1 X91.578 Y100.106 E4.49149
G1 X91.018 Y100.048 E4.50073
G1 X90.613 Y100.092 E4.50742
G1 X90.233 Y100.201 E4.51391
G1 X89.794 Y100.435 E4.52208
G1 X89.331 Y100.822 E4.53198
G1 X89.035 Y101.192 E4.53976
G1 X88.862 Y101.531 E4.54601
G1 X88.743 Y101.901 E4.55240
G1 X88.686 Y102.438 E4.56127
G1 X88.758 Y103.004 E4.57063
G1 X88.902 Y103.443 E4.57822
G1 X89.115 Y103.865 E4.58598
G1 X89.286 Y104.128 E4.59112
G1 X89.463 Y104.343 E4.59571
G1 X89.491 Y104.439 E4.59734
G1 X89.538 Y104.862 E4.60433
G1 X89.537 Y105.086 E4.60801
G1 X89.458 Y105.758 E4.61912
G1 X89.001 Y105.338 E4.62933
G1 X88.832 Y105.143 E4.63356
G1 X88.601 Y104.807 E4.64025
G1 X88.539 Y104.669 E4.64274
G1 X88.534 Y104.327 E4.64836
G1 X88.440 Y103.794 E4.65725
G1 X88.280 Y103.326 E4.66535
G1 X87.969 Y102.792 E4.67550
G1 X87.577 Y102.388 E4.68474
G1 X87.239 Y102.162 E4.69143
G1 X86.878 Y102.001 E4.69791
G1 X86.391 Y101.897 E4.70609
G1 X85.788 Y101.897 E4.71599
G1 X85.324 Y101.990 E4.72376
G1 X84.973 Y102.138 E4.73002
G1 X84.644 Y102.346 E4.73641
G1 X84.255 Y102.720 E4.74527
G1 X83.947 Y103.200 E4.75463
G1 X83.774 Y103.629 E4.76222
G1 X83.666 Y104.089 E4.76998
G1 X83.628 Y104.400 E4.77513
G1 X83.626 Y104.679 E4.77971
G1 X83.586 Y104.770 E4.78134
G1 X83.349 Y105.124 E4.78834
G1 X83.205 Y105.295 E4.79201
G1 X82.712 Y105.760 E4.80313
G1 X82.662 Y105.470 E4.80796
G1 X82.628 Y104.867 E4.81788
G1 X82.640 Y104.661 E4.82127
G1 X82.691 Y104.368 E4.82615
G1 X83.074 Y103.830 E4.83699
G1 X83.292 Y103.375 E4.84527
G1 X83.422 Y102.932 E4.85286
G1 X83.474 Y102.528 E4.85954
G1 X83.462 Y102.145 E4.86584
G1 X83.380 Y101.735 E4.87269
G1 X83.175 Y101.263 E4.88115
G1 X82.949 Y100.947 E4.88753
G1 X82.730 Y100.730 E4.89259
G1 X82.395 Y100.454 E4.89971
G1 X82.107 Y100.281 E4.90523
G1 X81.778 Y100.149 E4.91105
G1 X81.402 Y100.066 E4.91737
G1 X80.867 Y100.060 E4.92616
G1 X80.294 Y100.192 E4.93580
G1 X79.741 Y100.464 E4.94593
G1 X79.348 Y100.757 E4.95398
G1 X79.119 Y100.971 E4.95913
G1 X78.932 Y101.191 E4.96387
G1 X78.689 Y101.284 E4.96814
G1 X78.199 Y101.388 E4.97636
G1 X77.543 Y101.425 E4.98714
G1 X77.878 Y100.901 E4.99735
G1 X78.208 Y100.523 E5.00558
G1 X80.504 Y98.445 E5.05642
G1 X79.448 Y98.823 F7800.000
G1 X55.833 Y98.823 E5.44412 F1800.000
G1 X55.402 Y98.840 E5.45121
G1 X54.960 Y98.892 E5.45852
G1 X54.523 Y98.979 E5.46582
G1 X54.095 Y99.100 E5.47313
G1 X53.677 Y99.254 E5.48044
G1 X53.273 Y99.441 E5.48775
G1 X52.885 Y99.658 E5.49506
G1 X52.514 Y99.905 E5.50236
G1 X52.167 Y100.179 E5.50963
G1 X51.848 Y100.474 E5.51676
G1 X47.499 Y104.823 E5.61774
G1 X40.197 Y104.823 E5.73762
G1 X47.153 Y97.867 E5.89913
G1 X47.989 Y97.094 E5.91782
G1 X48.873 Y96.398 E5.93629
G1 X49.808 Y95.773 E5.95477
G1 X50.789 Y95.223 E5.97322
G1 X51.855 Y94.736 E5.99247
G1 X52.868 Y94.362 E6.01019
G1 X53.951 Y94.057 E6.02866
G1 X55.054 Y93.837 E6.04714
G1 X56.172 Y93.705 E6.06561
G1 X57.309 Y93.660 E6.08430
G1 X91.188 Y93.663 E6.64051
G1 X91.256 Y93.788 E6.64286
G1 X91.517 Y94.085 E6.64934
G1 X91.759 Y94.267 E6.65431
G1 X92.033 Y94.412 E6.65940
G1 X92.454 Y94.533 E6.66658
G1 X92.880 Y94.564 E6.67361
G1 X93.324 Y94.504 E6.68097
G1 X93.725 Y94.383 E6.68783
G1 X93.969 Y94.279 E6.69219
G1 X94.268 Y94.110 E6.69783
G1 X94.491 Y94.085 E6.70152
G1 X94.978 Y94.117 E6.70953
G1 X95.238 Y94.164 E6.71386
G1 X95.558 Y94.245 E6.71929
G1 X95.913 Y94.365 E6.72544
G1 X96.217 Y94.498 E6.73089
G1 X96.288 Y94.903 E6.73764
G1 X95.830 Y95.305 E6.74764
G1 X95.535 Y95.514 E6.75357
G1 X95.280 Y95.667 E6.75847
G1 X94.853 Y95.861 E6.76617
G1 X94.582 Y95.930 E6.77075
G1 X94.190 Y95.867 E6.77727
G1 X93.717 Y95.867 E6.78505
G1 X93.304 Y95.932 E6.79191
G1 X92.812 Y96.112 E6.80050
G1 X92.428 Y96.373 E6.80814
G1 X92.202 Y96.608 E6.81348
G1 X92.027 Y96.868 E6.81862
G1 X91.874 Y97.246 E6.82532
G1 X91.784 Y97.754 E6.83379
G1 X91.793 Y98.141 E6.84015
G1 X91.860 Y98.436 E6.84511
G1 X91.978 Y98.723 E6.85021
G1 X92.227 Y99.093 E6.85753
G1 X92.579 Y99.418 E6.86540
G1 X92.910 Y99.624 E6.87180
G1 X93.292 Y99.789 E6.87863
G1 X93.546 Y99.866 E6.88299
G1 X93.884 Y99.928 E6.88862
G1 X94.071 Y100.053 E6.89232
G1 X94.424 Y100.390 E6.90033
G1 X94.592 Y100.593 E6.90466
G1 X94.785 Y100.861 E6.91008
G1 X94.981 Y101.181 E6.91623
G1 X95.127 Y101.479 E6.92169
G1 X95.030 Y101.657 E6.92502
G1 X94.922 Y101.835 E6.92844
G1 X94.313 Y101.848 E6.93844
G1 X93.952 Y101.818 E6.94437
G1 X93.658 Y101.771 E6.94926
G1 X93.206 Y101.646 E6.95697
G1 X92.955 Y101.525 E6.96155
G1 X92.695 Y101.224 E6.96807
G1 X92.332 Y100.920 E6.97584
G1 X91.974 Y100.704 E6.98271
G1 X91.482 Y100.526 E6.99130
G1 X91.019 Y100.479 E6.99894
G1 X90.696 Y100.514 E7.00428
G1 X90.394 Y100.600 E7.00942
G1 X90.034 Y100.792 E7.01612
G1 X89.639 Y101.123 E7.02458
G1 X89.397 Y101.425 E7.03095
G1 X89.259 Y101.695 E7.03591
G1 X89.165 Y101.990 E7.04100
G1 X89.117 Y102.434 E7.04833
G1 X89.178 Y102.909 E7.05620
G1 X89.299 Y103.280 E7.06259
G1 X89.486 Y103.651 E7.06943
G1 X89.631 Y103.874 E7.07378
G1 X89.850 Y104.138 E7.07942
G1 X89.913 Y104.354 E7.08312
G1 X89.966 Y104.839 E7.09112
G1 X89.941 Y105.432 E7.10087
G1 X89.885 Y105.803 E7.10702
G1 X89.806 Y106.126 E7.11248
G1 X89.420 Y106.266 E7.11922
G1 X88.944 Y105.885 E7.12923
G1 X88.687 Y105.631 E7.13516
G1 X88.492 Y105.405 E7.14005
G1 X88.227 Y105.018 E7.14776
G1 X88.112 Y104.764 E7.15234
G1 X88.106 Y104.367 E7.15886
G1 X88.024 Y103.901 E7.16663
G1 X87.888 Y103.505 E7.17350
G1 X87.625 Y103.053 E7.18209
G1 X87.301 Y102.719 E7.18972
G1 X87.031 Y102.538 E7.19507
G1 X86.745 Y102.410 E7.20021
G1 X86.346 Y102.326 E7.20691
G1 X85.830 Y102.325 E7.21537
G1 X85.450 Y102.401 E7.22173
G1 X85.172 Y102.519 E7.22670
G1 X84.909 Y102.685 E7.23179
G1 X84.588 Y102.994 E7.23912
G1 X84.329 Y103.397 E7.24699
G1 X84.184 Y103.759 E7.25338
G1 X84.088 Y104.164 E7.26022
G1 X84.056 Y104.427 E7.26457
G1 X84.054 Y104.771 E7.27021
G1 X83.963 Y104.977 E7.27391
G1 X83.692 Y105.382 E7.28191
G1 X83.291 Y105.820 E7.29166
G1 X83.010 Y106.068 E7.29781
G1 X82.742 Y106.264 E7.30327
G1 X82.356 Y106.124 E7.31001
G1 X82.237 Y105.526 E7.32002
G1 X82.204 Y105.166 E7.32595
G1 X82.214 Y104.611 E7.33507
G1 X82.278 Y104.242 E7.34122
G1 X82.306 Y104.157 E7.34269
G1 X82.418 Y104.029 E7.34548
G1 X82.702 Y103.615 E7.35373
G1 X82.891 Y103.221 E7.36089
G1 X83.002 Y102.844 E7.36735
G1 X83.044 Y102.508 E7.37292
G1 X83.034 Y102.193 E7.37808
G1 X82.969 Y101.864 E7.38359
G1 X82.800 Y101.475 E7.39055
G1 X82.621 Y101.226 E7.39559
G1 X82.442 Y101.048 E7.39974
G1 X82.147 Y100.805 E7.40601
G1 X81.916 Y100.666 E7.41044
G1 X81.652 Y100.560 E7.41511
G1 X81.353 Y100.494 E7.42014
G1 X80.913 Y100.489 E7.42736
G1 X80.439 Y100.598 E7.43535
G1 X79.966 Y100.831 E7.44400
G1 X79.623 Y101.087 E7.45102
G1 X79.430 Y101.268 E7.45538
G1 X79.196 Y101.542 E7.46129
G1 X78.810 Y101.696 E7.46811
G1 X78.264 Y101.812 E7.47727
G1 X77.948 Y101.843 E7.48249
G1 X77.574 Y101.853 E7.48864
G1 X77.242 Y101.831 E7.49409
G1 X77.037 Y101.475 E7.50084
G1 X77.330 Y100.940 E7.51084
G1 X77.535 Y100.643 E7.51677
G1 X77.731 Y100.403 E7.52186
G1 X77.908 Y100.216 E7.52609
G1 X79.392 Y98.874 E7.55894
G1 X78.335 Y99.252 F7800.000
G1 X55.842 Y99.252 E7.92824 F1800.000
G1 X55.435 Y99.268 E7.93492
G1 X55.027 Y99.316 E7.94167
G1 X54.623 Y99.396 E7.94843
G1 X54.227 Y99.508 E7.95518
G1 X53.841 Y99.650 E7.96194
G1 X53.468 Y99.823 E7.96869
G1 X53.109 Y100.024 E7.97545
G1 X52.767 Y100.252 E7.98220
G1 X52.445 Y100.505 E7.98892
G1 X52.145 Y100.783 E7.99563
G1 X47.676 Y105.252 E8.09939
G1 X39.163 Y105.252 E8.23916
G1 X46.856 Y97.558 E8.41779
G1 X47.711 Y96.768 E8.43690
G1 X48.621 Y96.051 E8.45593
G1 X49.584 Y95.407 E8.47495
G1 X50.595 Y94.841 E8.49397
G1 X51.692 Y94.339 E8.51377
G1 X52.735 Y93.954 E8.53203
G1 X53.851 Y93.640 E8.55106
G1 X54.987 Y93.414 E8.57009
G1 X56.138 Y93.277 E8.58911
G1 X57.301 Y93.232 E8.60822
G1 X91.442 Y93.235 E9.16875
G1 X91.610 Y93.541 E9.17448
G1 X91.811 Y93.769 E9.17947
G1 X91.989 Y93.905 E9.18315
G1 X92.194 Y94.012 E9.18694
G1 X92.529 Y94.109 E9.19268
G1 X92.867 Y94.133 E9.19824
G1 X93.233 Y94.084 E9.20430
G1 X93.579 Y93.980 E9.21023
G1 X93.779 Y93.895 E9.21380
G1 X94.133 Y93.694 E9.22048
G1 X94.482 Y93.655 E9.22624
G1 X95.030 Y93.691 E9.23527
G1 X95.679 Y93.834 E9.24618
G1 X96.068 Y93.965 E9.25291
G1 X96.593 Y94.196 E9.26233
G1 X96.744 Y95.056 E9.27667
G1 X96.434 Y95.360 E9.28380
G1 X96.091 Y95.645 E9.29112
G1 X95.770 Y95.873 E9.29760
G1 X95.479 Y96.047 E9.30315
G1 X94.996 Y96.267 E9.31188
G1 X94.602 Y96.368 E9.31854
G1 X94.156 Y96.296 E9.32597
G1 X93.750 Y96.296 E9.33263
G1 X93.412 Y96.349 E9.33825
G1 X93.010 Y96.496 E9.34528
G1 X92.706 Y96.703 E9.35132
G1 X92.537 Y96.879 E9.35532
G1 X92.407 Y97.070 E9.35912
G1 X92.288 Y97.365 E9.36433
G1 X92.213 Y97.787 E9.37136
G1 X92.220 Y98.088 E9.37631
G1 X92.270 Y98.306 E9.37999
G1 X92.358 Y98.520 E9.38379
G1 X92.555 Y98.812 E9.38957
G1 X92.840 Y99.076 E9.39595
G1 X93.109 Y99.243 E9.40115
G1 X93.440 Y99.386 E9.40706
G1 X93.648 Y99.449 E9.41063
G1 X94.048 Y99.523 E9.41731
G1 X94.340 Y99.717 E9.42307
G1 X94.737 Y100.097 E9.43210
G1 X94.931 Y100.330 E9.43708
G1 X95.142 Y100.624 E9.44302
G1 X95.356 Y100.974 E9.44975
G1 X95.610 Y101.488 E9.45916
G1 X95.401 Y101.872 E9.46633
