; generated by Slic3r 1.2.9 on 2017-08-23 at 11:10:17

; external perimeters extrusion width = 0.50mm
; perimeters extrusion width = 0.72mm
; infill extrusion width = 0.72mm
; solid infill extrusion width = 0.72mm
; top infill extrusion width = 0.72mm

M107
M190 S55 ; set bed temperature
M104 S195 ; set temperature
G28 ; home all axes
G1 Z5 F5000 ; lift nozzle

M109 S195 ; wait for temperature to be reached
G21 ; set units to millimeters
G90 ; use absolute coordinates
M82 ; use absolute distances for extrusion
G92 E0
G1 Z0.300 F7800.000
G1 E-2.00000 F2400.00000
G92 E0
G1 X80.053 Y69.442 F7800.000
G1 E2.00000 F2400.00000
G1 X80.525 Y68.928 E2.01949 F1800.000
G1 X80.928 Y68.525 E2.03541
G1 X81.442 Y68.053 E2.05490
G1 X81.879 Y67.687 E2.07082
G1 X82.433 Y67.262 E2.09030
G1 X82.900 Y66.935 E2.10622
G1 X83.488 Y66.560 E2.12571
G1 X83.982 Y66.275 E2.14163
G1 X84.601 Y65.952 E2.16112
G1 X85.118 Y65.711 E2.17704
G1 X85.763 Y65.444 E2.19653
G1 X86.299 Y65.249 E2.21245
G1 X86.964 Y65.039 E2.23193
G1 X87.515 Y64.892 E2.24785
G1 X88.196 Y64.741 E2.26735
G1 X88.758 Y64.642 E2.28326
G1 X89.450 Y64.551 E2.30275
G1 X90.018 Y64.501 E2.31867
G1 X91.000 Y64.464 E2.34612
G1 X109.285 Y64.471 E2.85668
G1 X109.982 Y64.501 E2.87617 F1800.000
G1 X110.550 Y64.551 E2.89209
G1 X111.242 Y64.642 E2.91158
G1 X111.804 Y64.741 E2.92750
G1 X112.485 Y64.892 E2.94699
G1 X113.036 Y65.039 E2.96291
G1 X113.702 Y65.249 E2.98240
G1 X114.237 Y65.444 E2.99831
G1 X114.882 Y65.711 E3.01781
G1 X115.399 Y65.952 E3.03372
G1 X116.018 Y66.275 E3.05321
G1 X116.512 Y66.560 E3.06913
G1 X117.100 Y66.935 E3.08862
G1 X117.567 Y67.262 E3.10454
G1 X118.121 Y67.687 E3.12403
G1 X118.558 Y68.053 E3.13995
G1 X119.072 Y68.525 E3.15943
G1 X119.475 Y68.928 E3.17535
G1 X119.947 Y69.442 E3.19484
G1 X120.313 Y69.879 E3.21076
G1 X120.738 Y70.433 E3.23025
G1 X121.065 Y70.900 E3.24617
G1 X121.440 Y71.488 E3.26566
G1 X121.725 Y71.982 E3.28158
G1 X122.048 Y72.601 E3.30107
G1 X122.289 Y73.118 E3.31699
G1 X122.556 Y73.763 E3.33647
G1 X122.751 Y74.299 E3.35239
G1 X122.961 Y74.964 E3.37188
G1 X123.108 Y75.515 E3.38780
G1 X123.244 Y76.128 E3.40534
G1 X123.358 Y76.758 E3.42321
G1 X123.449 Y77.450 E3.44270
G1 X123.499 Y78.018 E3.45862
G1 X123.529 Y78.715 E3.47810
G1 X123.536 Y121.000 E4.65881
G1 X123.499 Y121.982 E4.68626
G1 X123.449 Y122.550 E4.70218
G1 X123.358 Y123.242 E4.72167
G1 X123.259 Y123.804 E4.73759
G1 X123.108 Y124.485 E4.75707
G1 X122.961 Y125.036 E4.77299
G1 X122.751 Y125.701 E4.79248
G1 X122.556 Y126.237 E4.80840
G1 X122.289 Y126.882 E4.82789
G1 X122.048 Y127.399 E4.84381
G1 X121.725 Y128.018 E4.86330
G1 X121.440 Y128.512 E4.87922
G1 X121.065 Y129.100 E4.89871
G1 X120.738 Y129.567 E4.91463
G1 X120.356 Y130.066 E4.93217
G1 X119.947 Y130.558 E4.95003
G1 X119.475 Y131.072 E4.96952
G1 X119.072 Y131.475 E4.98544
G1 X118.558 Y131.947 E5.00493
G1 X118.121 Y132.313 E5.02085
G1 X117.567 Y132.738 E5.04034
G1 X117.100 Y133.065 E5.05625
G1 X116.511 Y133.440 E5.07575
G1 X116.018 Y133.725 E5.09166
G1 X115.399 Y134.048 E5.11115
G1 X114.882 Y134.289 E5.12707
G1 X114.237 Y134.556 E5.14656
G1 X113.702 Y134.751 E5.16248
G1 X113.036 Y134.961 E5.18196
G1 X112.485 Y135.108 E5.19789
G1 X111.804 Y135.259 E5.21737
G1 X111.242 Y135.358 E5.23329
G1 X110.550 Y135.449 E5.25278
G1 X109.982 Y135.499 E5.26870
G1 X109.000 Y135.536 E5.29615
G1 X91.000 Y135.536 E5.79876
G1 X90.018 Y135.499 E5.82620
G1 X89.450 Y135.449 E5.84212
G1 X88.758 Y135.358 E5.86161
G1 X88.196 Y135.259 E5.87753
G1 X87.515 Y135.108 E5.89702
G1 X86.964 Y134.961 E5.91294
G1 X86.298 Y134.751 E5.93243
G1 X85.763 Y134.556 E5.94835
G1 X85.118 Y134.289 E5.96783
G1 X84.601 Y134.048 E5.98376
G1 X83.982 Y133.725 E6.00324
G1 X83.488 Y133.440 E6.01916
G1 X82.900 Y133.065 E6.03865
G1 X82.433 Y132.738 E6.05457
G1 X81.879 Y132.313 E6.07406
G1 X81.442 Y131.947 E6.08998
G1 X80.928 Y131.475 E6.10947
G1 X80.525 Y131.072 E6.12539
G1 X80.053 Y130.558 E6.14488
G1 X79.687 Y130.121 E6.16079
G1 X79.262 Y129.567 E6.18028
G1 X78.935 Y129.100 E6.19620
G1 X78.597 Y128.570 E6.21374
G1 X78.275 Y128.018 E6.23161
G1 X77.952 Y127.399 E6.25110
G1 X77.711 Y126.882 E6.26702
G1 X77.471 Y126.302 E6.28456
G1 X77.249 Y125.701 E6.30242
G1 X77.039 Y125.036 E6.32191
G1 X76.892 Y124.485 E6.33783
G1 X76.741 Y123.804 E6.35732
G1 X76.642 Y123.242 E6.37324
G1 X76.551 Y122.550 E6.39272
G1 X76.501 Y121.982 E6.40865
G1 X76.471 Y121.285 E6.42814
G1 X76.471 Y78.715 E7.61680
G1 X76.501 Y78.018 E7.63629
G1 X76.551 Y77.450 E7.65221
G1 X76.642 Y76.758 E7.67170
G1 X76.741 Y76.196 E7.68762
G1 X76.892 Y75.515 E7.70710
G1 X77.039 Y74.964 E7.72302
G1 X77.249 Y74.298 E7.74252
G1 X77.444 Y73.763 E7.75843
G1 X77.711 Y73.118 E7.77792
G1 X77.952 Y72.601 E7.79384
G1 X78.275 Y71.982 E7.81333
G1 X78.560 Y71.488 E7.82925
G1 X78.935 Y70.900 E7.84874
G1 X79.262 Y70.433 E7.86466
G1 X79.687 Y69.879 E7.88414
G1 X80.005 Y69.500 E7.89797
G1 E5.89797 F2400.00000
G92 E0
G1 X101.533 Y126.786 F7800.000
G1 E2.00000 F2400.00000
G1 X101.286 Y127.033 E2.00976 F1800.000
G1 X100.992 Y127.238 E2.01975
G1 X100.690 Y127.378 E2.02904
G1 X100.511 Y127.434 E2.03427
G1 X100.174 Y127.494 E2.04383
G1 X99.832 Y127.494 E2.05339
G1 X99.646 Y127.469 E2.05862
G1 X99.316 Y127.380 E2.06818
G1 X98.999 Y127.233 E2.07792
G1 X98.714 Y127.033 E2.08766
G1 X98.467 Y126.786 E2.09742
G1 X98.262 Y126.492 E2.10741
G1 X98.122 Y126.190 E2.11670
G1 X98.066 Y126.011 E2.12193
G1 X98.006 Y125.674 E2.13149
G1 X98.006 Y125.326 E2.14123
G1 X98.067 Y124.982 E2.15099
G1 X98.191 Y124.646 E2.16098
G1 X98.358 Y124.358 E2.17027
G1 X98.472 Y124.209 E2.17550
G1 X98.714 Y123.967 E2.18506
G1 X98.999 Y123.767 E2.19480
G1 X99.319 Y123.618 E2.20465
G1 X99.777 Y123.508 E2.21779
G1 X100.174 Y123.506 E2.22887 F1800.000
G1 X100.518 Y123.567 E2.23865
G1 X100.854 Y123.691 E2.24864
G1 X101.142 Y123.858 E2.25793
G1 X101.426 Y124.097 E2.26830
G1 X101.639 Y124.352 E2.27759
G1 X101.814 Y124.654 E2.28732
G1 X101.933 Y124.982 E2.29706
G1 X101.994 Y125.326 E2.30680
G1 X101.994 Y125.675 E2.31656
G1 X101.930 Y126.027 E2.32655
G1 X101.816 Y126.340 E2.33584
G1 X101.729 Y126.506 E2.34108
G1 X101.576 Y126.725 E2.34854
G1 X101.643 Y127.118 F7800.000
G1 E0.34854 F2400.00000
G92 E0
G1 X111.812 Y118.926 F7800.000
G1 E2.00000 F2400.00000
G1 X111.792 Y121.890 E2.08276 F1800.000
G1 X111.699 Y122.146 E2.09036
G1 X111.563 Y122.323 E2.09658
G1 X111.346 Y122.475 E2.10401
G1 X111.133 Y122.542 E2.11023
G1 X88.974 Y122.550 E2.72898
G1 X88.725 Y122.506 E2.73604
G1 X88.489 Y122.370 E2.74365
G1 X88.338 Y122.205 E2.74987
G1 X88.226 Y121.964 E2.75730
G1 X88.200 Y121.770 E2.76278
G1 X88.200 Y110.217 E3.08536
G1 X88.267 Y109.916 E3.09399
G1 X88.431 Y109.681 E3.10198
G1 X88.666 Y109.517 E3.10997
G1 X88.967 Y109.450 E3.11860
G1 X111.026 Y109.450 E3.73455
G1 X111.275 Y109.494 E3.74160
G1 X111.511 Y109.630 E3.74922
G1 X111.657 Y109.790 E3.75526
G1 X111.754 Y109.976 E3.76111
G1 X111.798 Y110.173 E3.76677
G1 X111.812 Y113.074 E3.84775
G1 X111.889 Y113.158 E3.85094
G1 X111.974 Y113.193 E3.85349
G1 X113.027 Y113.200 E3.88290
G1 X113.269 Y113.243 E3.88975
G1 X113.460 Y113.343 E3.89578
G1 X113.625 Y113.493 E3.90201
G1 X113.773 Y113.779 E3.91100
G1 X113.800 Y113.980 E3.91668
G1 X113.800 Y118.026 E4.02965
G1 X113.755 Y118.282 E4.03691
G1 X113.576 Y118.562 E4.04617
G1 X113.401 Y118.695 E4.05231
G1 X113.208 Y118.775 E4.05816
G1 X113.021 Y118.800 E4.06342
G1 X111.974 Y118.807 E4.09265
G1 X111.863 Y118.871 E4.09623
G1 X112.146 Y119.299 F7800.000
G1 E2.09623 F2400.00000
G92 E0
G1 X97.548 Y123.618 F7800.000
G1 E2.00000 F2400.00000
G1 X97.218 Y124.189 E2.01841 F1800.000
G1 X97.029 Y124.701 E2.03366
G1 X96.935 Y125.232 E2.04870
G1 X96.935 Y125.768 E2.06368
G1 X97.023 Y126.267 E2.07781
G1 X97.122 Y126.579 E2.08694
G1 X97.330 Y127.027 E2.10076
G1 X97.748 Y127.629 E2.12121
G1 X91.030 Y127.629 E2.30879
G1 X90.422 Y127.602 E2.32577
G1 X89.849 Y127.527 E2.34191
G1 X89.285 Y127.402 E2.35806
G1 X88.733 Y127.228 E2.37420
G1 X88.199 Y127.007 E2.39034
G1 X87.686 Y126.740 E2.40649
G1 X87.199 Y126.429 E2.42263
G1 X86.740 Y126.077 E2.43878
G1 X86.314 Y125.686 E2.45492
G1 X85.923 Y125.260 E2.47106
G1 X85.571 Y124.801 E2.48721
G1 X85.260 Y124.314 E2.50335
G1 X84.993 Y123.801 E2.51950
G1 X84.772 Y123.267 E2.53564
G1 X84.598 Y122.715 E2.55178
G1 X84.473 Y122.151 E2.56793
G1 X84.398 Y121.578 E2.58407
G1 X84.371 Y120.970 E2.60105
G1 X84.371 Y111.030 E2.87861
G1 X84.398 Y110.422 E2.89559
G1 X84.473 Y109.849 E2.91173
G1 X84.598 Y109.285 E2.92788
G1 X84.772 Y108.733 E2.94402
G1 X84.993 Y108.199 E2.96016
G1 X85.260 Y107.686 E2.97631
G1 X85.571 Y107.199 E2.99245
G1 X85.923 Y106.740 E3.00860
G1 X86.314 Y106.314 E3.02474
G1 X86.740 Y105.923 E3.04088
G1 X87.199 Y105.571 E3.05703
G1 X87.686 Y105.260 E3.07317
G1 X88.199 Y104.993 E3.08932
G1 X88.733 Y104.772 E3.10546
G1 X89.285 Y104.598 E3.12160
G1 X89.849 Y104.473 E3.13775
G1 X90.422 Y104.398 E3.15389
G1 X91.030 Y104.371 E3.17087
G1 X97.749 Y104.371 E3.35849
G1 X97.353 Y104.937 E3.37778
G1 X97.201 Y105.228 E3.38694
G1 X97.028 Y105.704 E3.40108
G1 X96.935 Y106.232 E3.41605
G1 X96.935 Y106.768 E3.43102
G1 X97.028 Y107.296 E3.44600
G1 X97.201 Y107.772 E3.46013
G1 X97.353 Y108.062 E3.46927
G1 X97.574 Y108.379 E3.48005
G1 X88.850 Y108.379 E3.72364
G1 X88.226 Y108.517 E3.74150
G1 X87.662 Y108.912 E3.76071
G1 X87.267 Y109.476 E3.77993
G1 X87.129 Y110.100 E3.79778
G1 X87.129 Y121.840 E4.12559
G1 X87.185 Y122.268 E4.13764
G1 X87.437 Y122.808 E4.15428
G1 X87.810 Y123.215 E4.16971
G1 X88.353 Y123.528 E4.18720
G1 X88.880 Y123.621 E4.20216
G1 X97.473 Y123.618 E4.44208
G1 X98.652 Y123.082 F7800.000
G1 X98.722 Y123.307 E4.44867 F1800.000
G1 X98.368 Y123.555 E4.46074
G1 X98.068 Y123.855 E4.47259
G1 X97.912 Y124.059 E4.47977
G1 X97.704 Y124.417 E4.49133
G1 X97.548 Y124.841 E4.50394
G1 X97.471 Y125.279 E4.51635
G1 X97.471 Y125.721 E4.52870
G1 X97.545 Y126.139 E4.54055
G1 X97.622 Y126.384 E4.54773
G1 X97.796 Y126.760 E4.55928
G1 X98.054 Y127.131 E4.57190
G1 X98.368 Y127.445 E4.58430
G1 X98.731 Y127.699 E4.59666
G1 X99.189 Y127.913 E4.61079
G1 X99.134 Y128.164 E4.61800
G1 X91.018 Y128.164 E4.84460
G1 X90.376 Y128.136 E4.86256
G1 X89.756 Y128.055 E4.88001
G1 X89.146 Y127.920 E4.89746
G1 X88.550 Y127.732 E4.91491
G1 X87.973 Y127.492 E4.93236
G1 X87.418 Y127.204 E4.94981
G1 X86.891 Y126.868 E4.96726
G1 X86.395 Y126.488 E4.98471
G1 X85.935 Y126.065 E5.00216
G1 X85.512 Y125.605 E5.01961
G1 X85.132 Y125.109 E5.03706
G1 X84.796 Y124.582 E5.05451
G1 X84.508 Y124.027 E5.07196
G1 X84.268 Y123.450 E5.08941
G1 X84.080 Y122.854 E5.10686
G1 X83.945 Y122.244 E5.12431
G1 X83.864 Y121.624 E5.14176
G1 X83.836 Y120.982 E5.15972
G1 X83.836 Y111.018 E5.43792
G1 X83.864 Y110.376 E5.45588
G1 X83.945 Y109.756 E5.47333
G1 X84.080 Y109.146 E5.49078
G1 X84.268 Y108.550 E5.50823
G1 X84.508 Y107.973 E5.52568
G1 X84.796 Y107.418 E5.54313
G1 X85.132 Y106.891 E5.56058
G1 X85.512 Y106.395 E5.57803
G1 X85.935 Y105.935 E5.59548
G1 X86.395 Y105.512 E5.61293
G1 X86.891 Y105.132 E5.63038
G1 X87.418 Y104.796 E5.64783
G1 X87.973 Y104.508 E5.66528
G1 X88.550 Y104.268 E5.68273
G1 X89.146 Y104.080 E5.70018
G1 X89.756 Y103.945 E5.71763
G1 X90.376 Y103.864 E5.73508
G1 X91.018 Y103.836 E5.75304
G1 X99.149 Y103.836 E5.98008
G1 X99.196 Y104.101 E5.98761
G1 X98.927 Y104.199 E5.99560
G1 X98.560 Y104.411 E6.00745
G1 X98.355 Y104.568 E6.01465
G1 X98.055 Y104.868 E6.02649
G1 X97.812 Y105.216 E6.03834
G1 X97.693 Y105.444 E6.04554
G1 X97.548 Y105.843 E6.05738
G1 X97.471 Y106.279 E6.06974
G1 X97.471 Y106.721 E6.08209
G1 X97.548 Y107.157 E6.09445
G1 X97.693 Y107.556 E6.10630
G1 X97.812 Y107.784 E6.11348
G1 X98.048 Y108.123 E6.12503
G1 X98.367 Y108.444 E6.13765
G1 X98.718 Y108.690 E6.14961
G1 X98.647 Y108.914 E6.15619
G1 X88.908 Y108.914 E6.42811
G1 X88.446 Y109.017 E6.44135
G1 X88.046 Y109.296 E6.45496
G1 X87.767 Y109.696 E6.46856
G1 X87.664 Y110.158 E6.48180
G1 X87.664 Y121.805 E6.80700
G1 X87.705 Y122.116 E6.81576
G1 X87.887 Y122.506 E6.82779
G1 X88.149 Y122.792 E6.83862
G1 X88.539 Y123.017 E6.85117
G1 X88.927 Y123.086 E6.86218
G1 X98.577 Y123.082 E7.13162
G1 E5.13162 F2400.00000
G92 E0
G1 X99.816 Y108.492 F7800.000
G1 E2.00000 F2400.00000
G1 X99.488 Y108.434 E2.00929 F1800.000
G1 X99.310 Y108.378 E2.01453
G1 X98.999 Y108.233 E2.02408
G1 X98.713 Y108.033 E2.03384
G1 X98.461 Y107.779 E2.04383
G1 X98.271 Y107.506 E2.05312
G1 X98.184 Y107.340 E2.05836
G1 X98.067 Y107.018 E2.06791
G1 X98.006 Y106.674 E2.07765
G1 X98.006 Y106.326 E2.08739
G1 X98.067 Y105.982 E2.09713
G1 X98.184 Y105.660 E2.10669
G1 X98.271 Y105.494 E2.11193
G1 X98.467 Y105.214 E2.12148
G1 X98.709 Y104.972 E2.13104
G1 X98.858 Y104.857 E2.13628
G1 X99.154 Y104.686 E2.14583
G1 X99.483 Y104.567 E2.15559
G1 X99.835 Y104.506 E2.16558 F1800.000
G1 X100.168 Y104.507 E2.17487
G1 X100.354 Y104.531 E2.18011
G1 X100.684 Y104.620 E2.18966
G1 X101.001 Y104.767 E2.19940
G1 X101.287 Y104.967 E2.20916
G1 X101.539 Y105.221 E2.21915
G1 X101.729 Y105.494 E2.22844
G1 X101.816 Y105.660 E2.23368
G1 X101.933 Y105.982 E2.24323
G1 X101.994 Y106.326 E2.25297
G1 X101.994 Y106.674 E2.26271
G1 X101.933 Y107.018 E2.27247
G1 X101.809 Y107.354 E2.28246
G1 X101.642 Y107.642 E2.29175
G1 X101.528 Y107.791 E2.29699
G1 X101.286 Y108.033 E2.30656
G1 X100.992 Y108.238 E2.31655
G1 X100.690 Y108.378 E2.32584
G1 X100.511 Y108.434 E2.33108
G1 X100.174 Y108.494 E2.34065
G1 X99.891 Y108.493 E2.34855
G1 X99.617 Y108.759 F7800.000
G1 X102.454 Y108.379 F7800.000
G1 X102.782 Y107.811 E2.36686 F1800.000
G1 X102.971 Y107.299 E2.38211
G1 X103.065 Y106.768 E2.39715
G1 X103.065 Y106.232 E2.41213
G1 X102.972 Y105.704 E2.42710
G1 X102.799 Y105.228 E2.44123
G1 X102.647 Y104.938 E2.45037
G1 X102.252 Y104.371 E2.46967
G1 X108.970 Y104.371 E2.65726
G1 X109.513 Y104.395 E2.67244
G1 X110.156 Y104.474 E2.69053
G1 X110.715 Y104.598 E2.70652
G1 X111.267 Y104.772 E2.72267
G1 X111.801 Y104.993 E2.73881
G1 X112.314 Y105.260 E2.75495
G1 X112.801 Y105.571 E2.77110
G1 X113.260 Y105.923 E2.78724
G1 X113.686 Y106.314 E2.80339
G1 X114.077 Y106.740 E2.81953
G1 X114.429 Y107.199 E2.83567
G1 X114.740 Y107.686 E2.85182
G1 X115.007 Y108.199 E2.86796
G1 X115.228 Y108.733 E2.88411
G1 X115.402 Y109.285 E2.90025
G1 X115.527 Y109.849 E2.91639
G1 X115.602 Y110.422 E2.93254
G1 X115.629 Y111.030 E2.94952
G1 X115.629 Y120.970 E3.22707
G1 X115.602 Y121.578 E3.24405
G1 X115.527 Y122.151 E3.26020
G1 X115.402 Y122.715 E3.27634
G1 X115.228 Y123.267 E3.29249
G1 X115.007 Y123.801 E3.30863
G1 X114.740 Y124.314 E3.32477
G1 X114.429 Y124.801 E3.34092
G1 X114.077 Y125.260 E3.35706
G1 X113.686 Y125.686 E3.37321
G1 X113.260 Y126.077 E3.38935
G1 X112.801 Y126.429 E3.40549
G1 X112.314 Y126.740 E3.42164
G1 X111.801 Y127.007 E3.43778
G1 X111.267 Y127.228 E3.45393
G1 X110.715 Y127.402 E3.47007
G1 X110.151 Y127.527 E3.48621
G1 X109.578 Y127.602 E3.50236
G1 X108.970 Y127.629 E3.51934
G1 X102.251 Y127.629 E3.70696
G1 X102.647 Y127.063 E3.72625
G1 X102.798 Y126.773 E3.73538
G1 X102.968 Y126.308 E3.74919
G1 X103.065 Y125.771 E3.76444
G1 X103.065 Y125.232 E3.77949
G1 X102.972 Y124.704 E3.79446
G1 X102.788 Y124.200 E3.80944
G1 X102.451 Y123.617 E3.82824
G1 X111.298 Y123.614 E4.07526
G1 X111.825 Y123.447 E4.09068
G1 X112.313 Y123.106 E4.10732
G1 X112.649 Y122.667 E4.12275
G1 X112.863 Y122.080 E4.14019
G1 X112.869 Y119.872 E4.20185
G1 X113.095 Y119.871 E4.20815
G1 X113.487 Y119.819 E4.21921
G1 X113.940 Y119.631 E4.23291
G1 X114.376 Y119.298 E4.24821
G1 X114.772 Y118.680 E4.26873
G1 X114.871 Y118.120 E4.28460
G1 X114.871 Y113.910 E4.40215
G1 X114.811 Y113.452 E4.41506
G1 X114.488 Y112.831 E4.43460
G1 X114.080 Y112.457 E4.45004
G1 X113.617 Y112.216 E4.46462
G1 X113.125 Y112.130 E4.47857
G1 X112.871 Y112.128 E4.48567
G1 X112.869 Y110.056 E4.54353
G1 X112.769 Y109.606 E4.55639
G1 X112.543 Y109.170 E4.57012
G1 X112.190 Y108.785 E4.58470
G1 X111.647 Y108.472 E4.60219
G1 X111.120 Y108.379 E4.61714
G1 X102.529 Y108.379 E4.85703
G1 X101.351 Y108.914 F7800.000
G1 X101.281 Y108.689 E4.86362 F1800.000
G1 X101.631 Y108.446 E4.87552
G1 X101.932 Y108.145 E4.88741
G1 X102.088 Y107.941 E4.89459
G1 X102.296 Y107.583 E4.90615
G1 X102.452 Y107.159 E4.91876
G1 X102.529 Y106.721 E4.93117
G1 X102.529 Y106.279 E4.94352
