; generated by Slic3r 1.2.9 on 2017-10-21 at 13:53:50

; external perimeters extrusion width = 0.50mm
; perimeters extrusion width = 0.85mm
; infill extrusion width = 1.02mm
; solid infill extrusion width = 0.85mm
; top infill extrusion width = 0.85mm

M107
M190 S60 ; set bed temperature
M104 S200 ; set temperature
G28 ; home all axes
G1 Z5 F5000 ; lift nozzle

M109 S200 ; wait for temperature to be reached
G21 ; set units to millimeters
G90 ; use absolute coordinates
M82 ; use absolute distances for extrusion
G92 E0
G1 Z0.240 F7800.000
G1 E-2.00000 F2400.00000
G92 E0
G1 X65.166 Y77.299 F7800.000
G1 E2.00000 F2400.00000
G1 X65.606 Y76.929 E2.00944 F1800.000
G1 X66.266 Y76.523 E2.02216
G1 X76.091 Y70.942 E2.20767
G1 X76.875 Y70.529 E2.22223
G1 X77.384 Y70.292 E2.23144
G1 X77.986 Y70.043 E2.24213
G1 X78.513 Y69.851 E2.25134
G1 X79.123 Y69.658 E2.26185
G1 X79.676 Y69.510 E2.27124
G1 X80.312 Y69.369 E2.28195
G1 X80.864 Y69.271 E2.29115
G1 X81.510 Y69.186 E2.30185
G1 X82.069 Y69.137 E2.31105
G1 X83.000 Y69.103 E2.32635
G1 X117.280 Y69.109 E2.88916
G1 X117.931 Y69.137 E2.89986 F1800.000
G1 X118.490 Y69.186 E2.90907
G1 X119.137 Y69.271 E2.91977
G1 X119.688 Y69.369 E2.92897
G1 X120.324 Y69.510 E2.93967
G1 X120.866 Y69.655 E2.94888
G1 X121.487 Y69.851 E2.95957
G1 X122.014 Y70.043 E2.96878
G1 X122.616 Y70.292 E2.97948
G1 X123.125 Y70.529 E2.98869
G1 X123.909 Y70.942 E3.00324
G1 X133.601 Y76.447 E3.18623
G1 X134.340 Y76.895 E3.20043
G1 X136.030 Y78.394 E3.23751
G1 X137.097 Y80.385 E3.27460
G1 X137.413 Y82.237 E3.30544
G1 X137.428 Y83.000 E3.31798
G1 X137.428 Y110.469 E3.76895
G1 X137.413 Y111.232 E3.78149
G1 X137.196 Y112.753 E3.80672
G1 X135.632 Y118.588 E3.90589
G1 X135.060 Y120.014 E3.93112
G1 X134.761 Y120.559 E3.94132
G1 X134.297 Y121.336 E3.95619
G1 X133.348 Y122.545 E3.98142
G1 X129.076 Y126.816 E4.08059
G1 X127.868 Y127.765 E4.10582
G1 X127.337 Y128.088 E4.11601
G1 X126.546 Y128.528 E4.13089
G1 X125.119 Y129.101 E4.15612
G1 X119.285 Y130.664 E4.25529
G1 X117.763 Y130.882 E4.28052
G1 X117.000 Y130.897 E4.29306
G1 X83.000 Y130.897 E4.85126
G1 X82.237 Y130.882 E4.86380
G1 X80.715 Y130.664 E4.88903
G1 X74.881 Y129.101 E4.98820
G1 X73.454 Y128.528 E5.01343
G1 X72.910 Y128.230 E5.02363
G1 X72.132 Y127.765 E5.03850
G1 X70.924 Y126.816 E5.06373
G1 X66.652 Y122.545 E5.16290
G1 X65.703 Y121.336 E5.18813
G1 X65.239 Y120.559 E5.20301
G1 X64.940 Y120.014 E5.21320
G1 X64.368 Y118.588 E5.23843
G1 X62.804 Y112.753 E5.33760
G1 X62.587 Y111.232 E5.36283
G1 X62.572 Y110.469 E5.37537
G1 X62.572 Y83.000 E5.82634
G1 X62.587 Y82.236 E5.83888
G1 X63.033 Y80.022 E5.87597
G1 X64.218 Y78.099 E5.91305
G1 X65.109 Y77.348 E5.93219
G1 E3.93219 F2400.00000
G92 E0
G1 X84.570 Y85.201 F7800.000
G1 E2.00000 F2400.00000
G1 X84.142 Y85.448 E2.00813 F1800.000
G1 X83.699 Y85.609 E2.01586
G1 X83.212 Y85.695 E2.02398
G1 X82.554 Y85.666 E2.03479
G1 X82.076 Y85.538 E2.04291
G1 X81.649 Y85.339 E2.05064
G1 X81.264 Y85.069 E2.05837
G1 X80.914 Y84.719 E2.06650
G1 X80.560 Y84.164 E2.07730
G1 X80.391 Y83.699 E2.08543
G1 X80.309 Y83.235 E2.09318
G1 X80.310 Y82.736 E2.10136
G1 X80.452 Y82.098 E2.11210
G1 X80.661 Y81.649 E2.12022
G1 X80.931 Y81.264 E2.12795
G1 X81.281 Y80.914 E2.13607
G1 X81.836 Y80.560 E2.14688
G1 X82.302 Y80.391 E2.15502
G1 X82.793 Y80.305 E2.16321 F1800.000
G1 X83.446 Y80.334 E2.17394
G1 X83.924 Y80.462 E2.18206
G1 X84.351 Y80.661 E2.18979
G1 X84.756 Y80.945 E2.19792
G1 X85.201 Y81.430 E2.20872
G1 X85.448 Y81.858 E2.21685
G1 X85.609 Y82.301 E2.22458
G1 X85.691 Y82.765 E2.23232
G1 X85.690 Y83.264 E2.24051
G1 X85.548 Y83.902 E2.25124
G1 X85.339 Y84.351 E2.25936
G1 X85.055 Y84.756 E2.26749
G1 X84.626 Y85.150 E2.27706
G1 X84.315 Y84.853 F7800.000
G1 X83.960 Y85.058 E2.28380 F1800.000
G1 X83.588 Y85.194 E2.29030
G1 X83.183 Y85.265 E2.29704
G1 X82.620 Y85.240 E2.30630
G1 X82.223 Y85.134 E2.31305
G1 X81.864 Y84.967 E2.31954
G1 X81.540 Y84.740 E2.32604
G1 X81.250 Y84.449 E2.33279
G1 X80.947 Y83.974 E2.34205
G1 X80.806 Y83.588 E2.34879
G1 X80.738 Y83.197 E2.35530
G1 X80.738 Y82.783 E2.36210
G1 X80.860 Y82.236 E2.37129
G1 X81.033 Y81.864 E2.37803
G1 X81.260 Y81.540 E2.38453
G1 X81.551 Y81.250 E2.39127
G1 X82.026 Y80.947 E2.40053
G1 X82.413 Y80.806 E2.40728
G1 X82.821 Y80.735 E2.41408 F1800.000
G1 X83.380 Y80.760 E2.42328
G1 X83.777 Y80.866 E2.43002
G1 X84.136 Y81.033 E2.43652
G1 X84.472 Y81.269 E2.44326
G1 X84.853 Y81.685 E2.45252
G1 X85.058 Y82.040 E2.45926
G1 X85.194 Y82.412 E2.46576
G1 X85.262 Y82.803 E2.47227
G1 X85.262 Y83.217 E2.47907
G1 X85.140 Y83.764 E2.48826
G1 X84.967 Y84.136 E2.49500
G1 X84.731 Y84.472 E2.50174
G1 X84.371 Y84.802 E2.50977
G1 X84.060 Y84.505 F7800.000
G1 X83.778 Y84.668 E2.51513 F1800.000
G1 X83.476 Y84.778 E2.52040
G1 X83.155 Y84.835 E2.52575
G1 X82.685 Y84.814 E2.53347
G1 X82.370 Y84.730 E2.53883
G1 X82.080 Y84.594 E2.54410
G1 X81.817 Y84.410 E2.54936
G1 X81.586 Y84.180 E2.55472
G1 X81.333 Y83.783 E2.56244
G1 X81.222 Y83.476 E2.56779
G1 X81.166 Y83.160 E2.57307
G1 X81.167 Y82.831 E2.57848
G1 X81.268 Y82.375 E2.58614
G1 X81.406 Y82.080 E2.59149
G1 X81.590 Y81.817 E2.59676
G1 X81.820 Y81.586 E2.60212
G1 X82.217 Y81.333 E2.60984
G1 X82.524 Y81.222 E2.61520
G1 X82.848 Y81.165 E2.62061 F1800.000
G1 X83.315 Y81.186 E2.62827
G1 X83.630 Y81.270 E2.63362
G1 X83.920 Y81.406 E2.63889
G1 X84.188 Y81.593 E2.64425
G1 X84.505 Y81.940 E2.65197
G1 X84.668 Y82.222 E2.65732
G1 X84.778 Y82.524 E2.66259
G1 X84.834 Y82.840 E2.66786
G1 X84.833 Y83.169 E2.67327
G1 X84.732 Y83.625 E2.68094
G1 X84.594 Y83.920 E2.68629
G1 X84.407 Y84.188 E2.69165
G1 X84.116 Y84.455 E2.69813
G1 X84.084 Y84.831 F7800.000
G1 X89.450 Y94.168 F7800.000
G1 X89.178 Y93.998 E2.70339 F1800.000
G1 X88.871 Y93.775 E2.70963
G1 X88.635 Y93.576 E2.71469
G1 X88.294 Y93.219 E2.72281
G1 X88.188 Y93.064 E2.72587
G1 X88.061 Y92.708 E2.73209
G1 X87.846 Y92.268 E2.74013
G1 X87.593 Y91.901 E2.74744
G1 X87.296 Y91.587 E2.75455
G1 X86.849 Y91.269 E2.76354
G1 X86.303 Y91.062 E2.77313
G1 X85.777 Y91.008 E2.78181
G1 X85.335 Y91.072 E2.78915
G1 X84.817 Y91.221 E2.79799
G1 X84.386 Y91.461 E2.80609
G1 X84.096 Y91.714 E2.81241
G1 X83.849 Y92.018 E2.81884
G1 X83.603 Y92.491 E2.82759
G1 X83.460 Y93.078 E2.83752
G1 X83.438 Y93.575 E2.84569
G1 X83.498 Y94.113 E2.85458
G1 X83.544 Y94.310 E2.85789
G1 X83.503 Y94.619 E2.86302
G1 X83.352 Y95.138 E2.87189
G1 X83.207 Y95.491 E2.87815
G1 X83.002 Y95.896 E2.88561
G1 X82.851 Y95.614 E2.89086
G1 X82.697 Y95.266 E2.89711
G1 X82.513 Y94.691 E2.90702
G1 X82.461 Y94.310 E2.91334
G1 X82.529 Y93.938 E2.91955
G1 X82.563 Y93.449 E2.92760
G1 X82.527 Y93.005 E2.93490
G1 X82.432 Y92.604 E2.94167
G1 X82.279 Y92.235 E2.94823
G1 X82.000 Y91.816 E2.95650
G1 X81.693 Y91.522 E2.96347
G1 X81.399 Y91.328 E2.96926
G1 X81.099 Y91.193 E2.97466
G1 X80.603 Y91.056 E2.98311
G1 X80.149 Y91.010 E2.99060
G1 X79.770 Y91.052 E2.99686
G1 X79.400 Y91.158 E3.00318
G1 X78.929 Y91.406 E3.01191
G1 X78.494 Y91.795 E3.02150
G1 X78.149 Y92.261 E3.03102
G1 X77.971 Y92.633 E3.03779
G1 X77.812 Y93.068 E3.04539
G1 X77.752 Y93.158 E3.04717
G1 X77.455 Y93.491 E3.05449
G1 X77.236 Y93.688 E3.05933
G1 X76.934 Y93.921 E3.06560
G1 X76.553 Y94.169 E3.07305
G1 X76.564 Y93.850 E3.07831
G1 X76.604 Y93.471 E3.08455
G1 X76.658 Y93.168 E3.08961
G1 X76.797 Y92.694 E3.09772
G1 X76.878 Y92.525 E3.10079
G1 X77.136 Y92.223 E3.10731
G1 X77.494 Y91.649 E3.11843
G1 X77.654 Y91.234 E3.12572
G1 X77.743 Y90.825 E3.13260
G1 X77.751 Y90.288 E3.14141
G1 X77.612 Y89.726 E3.15091
G1 X77.358 Y89.264 E3.15958
G1 X76.905 Y88.785 E3.17039
G1 X76.507 Y88.498 E3.17846
G1 X76.003 Y88.302 E3.18732
G1 X75.480 Y88.239 E3.19597
G1 X75.062 Y88.274 E3.20286
G1 X74.502 Y88.437 E3.21244
G1 X74.061 Y88.667 E3.22061
G1 X73.625 Y88.988 E3.22950
G1 X73.478 Y89.126 E3.23281
G1 X73.189 Y89.245 E3.23794
G1 X72.664 Y89.374 E3.24681
G1 X72.286 Y89.425 E3.25307
G1 X71.832 Y89.450 E3.26053
G1 X72.002 Y89.178 E3.26578
G1 X72.225 Y88.871 E3.27203
G1 X72.631 Y88.424 E3.28194
G1 X72.936 Y88.188 E3.28826
G1 X73.310 Y88.055 E3.29478
G1 X73.908 Y87.737 E3.30589
G1 X74.253 Y87.458 E3.31319
G1 X74.525 Y87.158 E3.31983
G1 X74.814 Y86.703 E3.32868
G1 X74.971 Y86.121 E3.33857
G1 X74.982 Y85.606 E3.34704
G1 X74.850 Y85.042 E3.35654
G1 X74.708 Y84.662 E3.36321
G1 X74.414 Y84.224 E3.37186
G1 X74.003 Y83.860 E3.38089
G1 X73.509 Y83.603 E3.39002
G1 X72.922 Y83.460 E3.39994
G1 X72.425 Y83.438 E3.40811
G1 X71.887 Y83.498 E3.41700
G1 X71.690 Y83.544 E3.42031
G1 X71.381 Y83.503 E3.42544
G1 X70.862 Y83.352 E3.43431
G1 X70.509 Y83.207 E3.44058
G1 X70.104 Y83.002 E3.44803
G1 X70.386 Y82.851 E3.45329
G1 X70.734 Y82.697 E3.45953
G1 X71.309 Y82.513 E3.46945
G1 X71.697 Y82.460 E3.47588
G1 X72.209 Y82.548 E3.48441
G1 X72.714 Y82.559 E3.49271
G1 X73.324 Y82.458 E3.50286
G1 X73.847 Y82.238 E3.51217
G1 X74.247 Y81.941 E3.52034
G1 X74.795 Y81.359 E3.53347
G1 X75.216 Y80.966 E3.54293
G1 X75.674 Y80.590 E3.55266
G1 X79.345 Y77.782 E3.62854
G1 X79.815 Y77.483 E3.63768
G1 X80.308 Y77.226 E3.64680
G1 X80.821 Y77.014 E3.65592
G1 X81.351 Y76.847 E3.66505
G1 X81.894 Y76.726 E3.67417
G1 X82.445 Y76.654 E3.68330
G1 X83.000 Y76.629 E3.69242
G1 X83.545 Y76.653 E3.70138
G1 X84.107 Y76.726 E3.71068
G1 X84.649 Y76.847 E3.71979
G1 X85.179 Y77.014 E3.72892
G1 X85.692 Y77.226 E3.73804
G1 X86.180 Y77.480 E3.74708
G1 X86.783 Y77.873 E3.75888
G1 X89.873 Y80.131 E3.82172
G1 X90.486 Y80.621 E3.83460
G1 X91.039 Y81.145 E3.84712
G1 X91.718 Y81.907 E3.86388
G1 X92.000 Y82.137 E3.86984
G1 X92.337 Y82.330 E3.87621
G1 X92.865 Y82.503 E3.88534
G1 X93.328 Y82.560 E3.89300
G1 X93.846 Y82.543 E3.90150
G1 X94.270 Y82.459 E3.90860
G1 X94.604 Y82.494 E3.91411
G1 X95.138 Y82.648 E3.92324
G1 X95.491 Y82.793 E3.92951
G1 X95.896 Y82.998 E3.93696
G1 X95.614 Y83.149 E3.94222
G1 X95.266 Y83.303 E3.94846
G1 X94.977 Y83.408 E3.95352
G1 X94.496 Y83.525 E3.96163
G1 X94.310 Y83.539 E3.96470
G1 X93.938 Y83.471 E3.97092
G1 X93.449 Y83.437 E3.97896
G1 X93.005 Y83.473 E3.98627
G1 X92.604 Y83.568 E3.99303
G1 X92.235 Y83.721 E3.99960
G1 X91.816 Y84.000 E4.00787
G1 X91.522 Y84.307 E4.01484
G1 X91.328 Y84.601 E4.02062
G1 X91.193 Y84.901 E4.02603
G1 X91.056 Y85.397 E4.03448
G1 X91.010 Y85.851 E4.04196
G1 X91.052 Y86.230 E4.04822
G1 X91.158 Y86.600 E4.05454
G1 X91.406 Y87.071 E4.06328
G1 X91.792 Y87.502 E4.07278
G1 X92.165 Y87.783 E4.08045
G1 X92.611 Y88.021 E4.08876
G1 X93.068 Y88.188 E4.09674
G1 X93.158 Y88.248 E4.09852
G1 X93.491 Y88.545 E4.10584
G1 X93.688 Y88.764 E4.11068
G1 X93.921 Y89.066 E4.11694
G1 X94.169 Y89.447 E4.12440
G1 X93.850 Y89.436 E4.12965
G1 X93.471 Y89.396 E4.13590
G1 X93.168 Y89.342 E4.14096
G1 X92.694 Y89.203 E4.14907
G1 X92.525 Y89.122 E4.15214
G1 X92.223 Y88.864 E4.15866
G1 X91.649 Y88.506 E4.16978
G1 X91.234 Y88.346 E4.17707
G1 X90.825 Y88.257 E4.18395
G1 X90.288 Y88.249 E4.19276
G1 X89.726 Y88.388 E4.20226
G1 X89.264 Y88.642 E4.21093
G1 X88.785 Y89.095 E4.22174
G1 X88.498 Y89.493 E4.22981
G1 X88.302 Y89.997 E4.23867
G1 X88.239 Y90.520 E4.24732
G1 X88.274 Y90.938 E4.25421
G1 X88.437 Y91.498 E4.26379
G1 X88.667 Y91.939 E4.27196
G1 X88.988 Y92.375 E4.28085
G1 X89.126 Y92.522 E4.28416
G1 X89.245 Y92.811 E4.28929
G1 X89.374 Y93.336 E4.29816
G1 X89.425 Y93.714 E4.30442
G1 X89.446 Y94.093 E4.31065
G1 X89.872 Y94.420 F7800.000
G1 X89.451 Y94.663 E4.31863 F1800.000
G1 X88.938 Y94.354 E4.32845
G1 X88.606 Y94.112 E4.33520
G1 X88.347 Y93.893 E4.34077
G1 X87.954 Y93.481 E4.35012
G1 X87.803 Y93.260 E4.35450
G1 X87.666 Y92.874 E4.36124
G1 X87.475 Y92.485 E4.36836
G1 X87.259 Y92.172 E4.37460
G1 X87.013 Y91.912 E4.38047
G1 X86.646 Y91.650 E4.38788
G1 X86.204 Y91.483 E4.39564
G1 X85.786 Y91.440 E4.40253
G1 X85.425 Y91.492 E4.40852
G1 X84.983 Y91.619 E4.41607
G1 X84.634 Y91.814 E4.42263
G1 X84.406 Y92.013 E4.42761
G1 X84.209 Y92.254 E4.43272
G1 X84.007 Y92.643 E4.43990
G1 X83.886 Y93.139 E4.44829
G1 X83.868 Y93.561 E4.45522
G1 X83.973 Y94.338 E4.46810
G1 X83.924 Y94.699 E4.47408
G1 X83.755 Y95.286 E4.48412
G1 X83.597 Y95.670 E4.49093
G1 X83.379 Y96.100 E4.49885
G1 X83.241 Y96.326 E4.50319
G1 X82.755 Y96.326 E4.51117
G1 X82.466 Y95.802 E4.52099
G1 X82.299 Y95.426 E4.52774
G1 X82.184 Y95.107 E4.53332
G1 X82.095 Y94.789 E4.53873
G1 X82.050 Y94.554 E4.54267
G1 X82.029 Y94.287 E4.54706
G1 X82.104 Y93.884 E4.55379
G1 X82.133 Y93.451 E4.56091
G1 X82.103 Y93.073 E4.56715
G1 X82.023 Y92.737 E4.57282
G1 X81.899 Y92.438 E4.57813
G1 X81.670 Y92.093 E4.58493
G1 X81.424 Y91.859 E4.59050
G1 X81.192 Y91.705 E4.59508
G1 X80.953 Y91.597 E4.59938
G1 X80.524 Y91.479 E4.60669
G1 X80.151 Y91.441 E4.61284
G1 X79.853 Y91.474 E4.61776
G1 X79.560 Y91.557 E4.62276
G1 X79.176 Y91.760 E4.62990
G1 X78.812 Y92.085 E4.63790
G1 X78.518 Y92.483 E4.64603
G1 X78.366 Y92.800 E4.65179
G1 X78.197 Y93.263 E4.65988
G1 X78.092 Y93.421 E4.66300
G1 X77.759 Y93.794 E4.67120
G1 X77.510 Y94.018 E4.67670
G1 X77.182 Y94.271 E4.68351
G1 X76.778 Y94.535 E4.69143
G1 X76.546 Y94.661 E4.69577
G1 X76.334 Y94.545 E4.69973
G1 X76.125 Y94.418 E4.70375
G1 X76.121 Y94.298 E4.70572
G1 X76.136 Y93.820 E4.71358
G1 X76.180 Y93.411 E4.72033
G1 X76.239 Y93.077 E4.72590
G1 X76.322 Y92.758 E4.73132
G1 X76.400 Y92.531 E4.73526
G1 X76.516 Y92.290 E4.73964
G1 X76.789 Y91.969 E4.74656
G1 X77.109 Y91.456 E4.75649
G1 X77.243 Y91.111 E4.76256
G1 X77.315 Y90.776 E4.76820
G1 X77.322 Y90.337 E4.77539
G1 X77.209 Y89.884 E4.78307
G1 X77.008 Y89.518 E4.78991
G1 X76.622 Y89.109 E4.79916
G1 X76.300 Y88.877 E4.80566
G1 X75.899 Y88.721 E4.81274
G1 X75.473 Y88.670 E4.81978
G1 X75.141 Y88.697 E4.82525
G1 X74.663 Y88.837 E4.83342
G1 X74.288 Y89.032 E4.84036
G1 X73.899 Y89.318 E4.84829
G1 X73.732 Y89.475 E4.85205
G1 X73.331 Y89.650 E4.85924
G1 X72.737 Y89.797 E4.86928
G1 X72.326 Y89.852 E4.87609
G1 X71.844 Y89.878 E4.88401
G1 X71.580 Y89.872 E4.88835
G1 X71.337 Y89.451 E4.89633
G1 X71.646 Y88.938 E4.90615
G1 X71.888 Y88.606 E4.91290
G1 X72.107 Y88.347 E4.91848
G1 X72.519 Y87.954 E4.92783
G1 X72.740 Y87.803 E4.93221
G1 X73.137 Y87.662 E4.93913
G1 X73.670 Y87.378 E4.94905
G1 X73.958 Y87.146 E4.95512
G1 X74.183 Y86.898 E4.96062
G1 X74.417 Y86.529 E4.96780
G1 X74.543 Y86.060 E4.97576
G1 X74.552 Y85.651 E4.98249
G1 X74.439 Y85.166 E4.99065
G1 X74.324 Y84.859 E4.99604
G1 X74.089 Y84.509 E5.00297
G1 X73.758 Y84.215 E5.01023
G1 X73.357 Y84.007 E5.01764
G1 X72.861 Y83.886 E5.02602
G1 X72.439 Y83.868 E5.03296
G1 X71.662 Y83.973 E5.04584
G1 X71.301 Y83.924 E5.05181
G1 X70.714 Y83.755 E5.06185
G1 X70.330 Y83.597 E5.06866
G1 X69.900 Y83.379 E5.07658
G1 X69.674 Y83.241 E5.08093
G1 X69.674 Y82.755 E5.08891
G1 X70.198 Y82.466 E5.09873
G1 X70.574 Y82.299 E5.10548
G1 X70.893 Y82.184 E5.11105
G1 X71.211 Y82.095 E5.11647
G1 X71.446 Y82.050 E5.12041
G1 X71.717 Y82.029 E5.12487
G1 X72.250 Y82.120 E5.13375
G1 X72.684 Y82.130 E5.14087
G1 X73.204 Y82.044 E5.14953
G1 X73.633 Y81.863 E5.15716
G1 X73.961 Y81.619 E5.16387
G1 X74.493 Y81.055 E5.17660
G1 X74.934 Y80.643 E5.18651
G1 X75.408 Y80.254 E5.19659
G1 X79.100 Y77.430 E5.27288
G1 X79.600 Y77.112 E5.28263
G1 X80.126 Y76.838 E5.29237
G1 X80.674 Y76.611 E5.30211
G1 X81.240 Y76.432 E5.31185
G1 X81.819 Y76.304 E5.32159
G1 X82.407 Y76.226 E5.33132
G1 X83.000 Y76.201 E5.34106
G1 X83.582 Y76.226 E5.35063
G1 X84.181 Y76.304 E5.36055
G1 X84.760 Y76.432 E5.37028
G1 X85.326 Y76.611 E5.38002
G1 X85.874 Y76.838 E5.38976
G1 X86.397 Y77.110 E5.39944
G1 X87.027 Y77.520 E5.41178
G1 X90.134 Y79.791 E5.47496
G1 X90.768 Y80.297 E5.48829
G1 X91.347 Y80.847 E5.50140
G1 X92.015 Y81.597 E5.51789
G1 X92.244 Y81.782 E5.52271
G1 X92.512 Y81.936 E5.52780
G1 X92.959 Y82.083 E5.53552
G1 X93.347 Y82.131 E5.54194
G1 X93.797 Y82.115 E5.54933
G1 X94.239 Y82.029 E5.55672
G1 X94.497 Y82.042 E5.56097
G1 X94.689 Y82.073 E5.56416
G1 X95.286 Y82.245 E5.57437
G1 X95.670 Y82.403 E5.58117
G1 X96.100 Y82.621 E5.58910
G1 X96.326 Y82.759 E5.59344
G1 X96.326 Y83.245 E5.60142
G1 X95.802 Y83.534 E5.61124
G1 X95.426 Y83.701 E5.61799
G1 X95.107 Y83.816 E5.62356
G1 X94.554 Y83.950 E5.63291
G1 X94.287 Y83.971 E5.63730
G1 X93.884 Y83.896 E5.64403
G1 X93.451 Y83.867 E5.65115
G1 X93.073 Y83.897 E5.65739
G1 X92.737 Y83.977 E5.66306
G1 X92.438 Y84.101 E5.66837
G1 X92.093 Y84.330 E5.67517
G1 X91.859 Y84.576 E5.68074
