; generated by Slic3r 1.2.9 on 2017-08-22 at 16:43:05

; external perimeters extrusion width = 0.50mm
; perimeters extrusion width = 0.72mm
; infill extrusion width = 0.72mm
; solid infill extrusion width = 0.72mm
; top infill extrusion width = 0.72mm

M107
M190 S55 ; set bed temperature
M104 S195 ; set temperature
G28 ; home all axes
G1 Z5 F5000 ; lift nozzle

M109 S195 ; wait for temperature to be reached
G21 ; set units to millimeters
G90 ; use absolute coordinates
M82 ; use absolute distances for extrusion
G92 E0
G1 Z0.300 F7800.000
G1 E-2.00000 F2400.00000
G92 E0
G1 X53.488 Y89.292 F7800.000
G1 E2.00000 F2400.00000
G1 X54.429 Y88.774 E2.02998 F1800.000
G1 X54.963 Y88.524 E2.04645
G1 X55.447 Y88.324 E2.06106
G1 X56.482 Y87.971 E2.09159
G1 X57.033 Y87.824 E2.10751
G1 X58.105 Y87.611 E2.13804
G1 X59.192 Y87.493 E2.16857
G1 X60.000 Y87.464 E2.19115
G1 X140.285 Y87.471 E4.43291
G1 X141.376 Y87.543 E4.46344 F1800.000
G1 X142.456 Y87.710 E4.49397
G1 X142.968 Y87.824 E4.50859
G1 X144.017 Y88.129 E4.53911
G1 X145.037 Y88.524 E4.56964
G1 X146.018 Y89.007 E4.60018
G1 X146.953 Y89.573 E4.63071
G1 X147.835 Y90.219 E4.66123
G1 X148.272 Y90.585 E4.67715
G1 X149.061 Y91.342 E4.70768
G1 X149.781 Y92.165 E4.73820
G1 X150.427 Y93.047 E4.76874
G1 X150.709 Y93.489 E4.78337
G1 X151.235 Y94.446 E4.81388
G1 X151.676 Y95.447 E4.84441
G1 X152.029 Y96.482 E4.87493
G1 X152.176 Y97.033 E4.89086
G1 X152.389 Y98.105 E4.92138
G1 X152.507 Y99.192 E4.95192
G1 X152.529 Y100.285 E4.98244
G1 X152.457 Y101.376 E5.01298
G1 X152.290 Y102.456 E5.04350
G1 X152.176 Y102.967 E5.05811
G1 X151.871 Y104.018 E5.08865
G1 X151.476 Y105.037 E5.11917
G1 X150.993 Y106.018 E5.14970
G1 X150.427 Y106.953 E5.18023
G1 X149.781 Y107.836 E5.21078
G1 X149.074 Y108.644 E5.24076
G1 X148.658 Y109.061 E5.25721
G1 X147.835 Y109.781 E5.28774
G1 X146.953 Y110.427 E5.31826
G1 X146.018 Y110.993 E5.34879
G1 X145.553 Y111.235 E5.36341
G1 X144.553 Y111.676 E5.39394
G1 X143.518 Y112.029 E5.42447
G1 X142.456 Y112.290 E5.45499
G1 X141.376 Y112.457 E5.48552
G1 X140.808 Y112.507 E5.50144
G1 X140.000 Y112.536 E5.52402
G1 X60.000 Y112.536 E7.75783
G1 X59.192 Y112.507 E7.78040
G1 X58.105 Y112.389 E7.81093
G1 X57.033 Y112.176 E7.84146
G1 X56.482 Y112.029 E7.85738
G1 X55.982 Y111.871 E7.87200
G1 X54.963 Y111.476 E7.90253
G1 X53.982 Y110.993 E7.93305
G1 X53.064 Y110.438 E7.96303
G1 X52.580 Y110.100 E7.97950
G1 X51.728 Y109.415 E8.01003
G1 X51.342 Y109.061 E8.02464
G1 X50.585 Y108.272 E8.05518
G1 X49.912 Y107.436 E8.08515
G1 X49.573 Y106.953 E8.10162
G1 X49.007 Y106.018 E8.13215
G1 X48.524 Y105.037 E8.16268
G1 X48.129 Y104.017 E8.19321
G1 X47.971 Y103.518 E8.20784
G1 X47.710 Y102.456 E8.23835
G1 X47.611 Y101.895 E8.25427
G1 X47.543 Y101.376 E8.26890
G1 X47.471 Y100.285 E8.29943
G1 X47.493 Y99.192 E8.32995
G1 X47.611 Y98.105 E8.36047
G1 X47.710 Y97.544 E8.37640
G1 X47.971 Y96.482 E8.40692
G1 X48.129 Y95.983 E8.42154
G1 X48.524 Y94.963 E8.45207
G1 X49.007 Y93.982 E8.48260
G1 X49.573 Y93.047 E8.51312
G1 X49.900 Y92.580 E8.52905
G1 X50.585 Y91.728 E8.55957
G1 X50.939 Y91.342 E8.57419
G1 X51.728 Y90.585 E8.60472
G1 X52.580 Y89.900 E8.63525
G1 X53.425 Y89.332 E8.66368
G1 E6.66368 F2400.00000
G92 E0
G1 X61.427 Y103.060 F7800.000
G1 E2.00000 F2400.00000
G1 X60.874 Y103.261 E2.01643 F1800.000
G1 X60.293 Y103.364 E2.03291
G1 X59.699 Y103.363 E2.04950
G1 X59.155 Y103.267 E2.06491
G1 X58.818 Y103.160 E2.07479
G1 X58.312 Y102.924 E2.09038
G1 X57.830 Y102.587 E2.10681
G1 X57.413 Y102.169 E2.12329
G1 X57.073 Y101.682 E2.13988
G1 X56.840 Y101.182 E2.15529
G1 X56.733 Y100.844 E2.16517
G1 X56.639 Y100.310 E2.18032
G1 X56.627 Y99.775 E2.19525
G1 X56.739 Y99.123 E2.21373
G1 X56.930 Y98.601 E2.22925
G1 X57.093 Y98.287 E2.23913
G1 X57.414 Y97.829 E2.25476
G1 X57.835 Y97.409 E2.27135
G1 X58.288 Y97.093 E2.28676
G1 X58.601 Y96.930 E2.29664
G1 X59.127 Y96.738 E2.31227
G1 X59.713 Y96.636 E2.32886 F1800.000
G1 X60.265 Y96.636 E2.34427
G1 X60.615 Y96.683 E2.35415
G1 X61.155 Y96.827 E2.36974
G1 X61.688 Y97.076 E2.38618
G1 X62.170 Y97.413 E2.40261
G1 X62.587 Y97.830 E2.41905
G1 X62.925 Y98.313 E2.43552
G1 X63.175 Y98.852 E2.45211
G1 X63.317 Y99.385 E2.46752
G1 X63.364 Y99.736 E2.47740
G1 X63.364 Y100.266 E2.49220
G1 X63.316 Y100.623 E2.50225
G1 X63.173 Y101.155 E2.51765
G1 X62.924 Y101.688 E2.53407
G1 X62.587 Y102.170 E2.55050
G1 X62.192 Y102.565 E2.56610
G1 X61.911 Y102.781 E2.57599
G1 X61.492 Y103.023 E2.58949
G1 X61.200 Y102.573 F7800.000
G1 X60.735 Y102.742 E2.60331 F1800.000
G1 X60.247 Y102.828 E2.61715
G1 X59.746 Y102.827 E2.63112
G1 X59.283 Y102.745 E2.64425
G1 X59.012 Y102.660 E2.65217
G1 X58.581 Y102.458 E2.66548
G1 X58.175 Y102.175 E2.67930
G1 X57.825 Y101.824 E2.69314
G1 X57.539 Y101.414 E2.70711
G1 X57.340 Y100.987 E2.72024
G1 X57.255 Y100.717 E2.72817
G1 X57.174 Y100.257 E2.74120
G1 X57.164 Y99.815 E2.75355
G1 X57.259 Y99.262 E2.76923
G1 X57.421 Y98.817 E2.78243
G1 X57.552 Y98.566 E2.79035
G1 X57.826 Y98.175 E2.80368
G1 X58.180 Y97.821 E2.81765
G1 X58.566 Y97.552 E2.83079
G1 X58.817 Y97.421 E2.83871
G1 X59.266 Y97.258 E2.85204
G1 X59.759 Y97.172 E2.86601 F1800.000
G1 X60.229 Y97.172 E2.87914
G1 X60.511 Y97.209 E2.88707
G1 X60.971 Y97.332 E2.90037
G1 X61.419 Y97.542 E2.91419
G1 X61.825 Y97.825 E2.92801
G1 X62.175 Y98.175 E2.94182
G1 X62.459 Y98.581 E2.95566
G1 X62.670 Y99.035 E2.96963
G1 X62.791 Y99.490 E2.98277
G1 X62.828 Y99.771 E2.99069
G1 X62.828 Y100.230 E3.00351
G1 X62.789 Y100.517 E3.01160
G1 X62.667 Y100.971 E3.02473
G1 X62.458 Y101.419 E3.03854
G1 X62.175 Y101.825 E3.05235
G1 X61.838 Y102.162 E3.06566
G1 X61.612 Y102.335 E3.07359
G1 X61.265 Y102.535 E3.08480
G1 X60.973 Y102.086 F7800.000
G1 X60.596 Y102.223 E3.09600 F1800.000
G1 X60.200 Y102.292 E3.10721
G1 X59.794 Y102.292 E3.11856
G1 X59.411 Y102.224 E3.12942
G1 X59.207 Y102.160 E3.13539
G1 X58.849 Y101.993 E3.14640
G1 X58.521 Y101.763 E3.15760
G1 X58.237 Y101.479 E3.16881
G1 X58.005 Y101.146 E3.18016
G1 X57.840 Y100.793 E3.19102
G1 X57.776 Y100.589 E3.19699
G1 X57.708 Y100.204 E3.20791
G1 X57.700 Y99.855 E3.21767
G1 X57.779 Y99.400 E3.23055
G1 X57.912 Y99.034 E3.24144
G1 X58.011 Y98.844 E3.24740
G1 X58.237 Y98.521 E3.25843
G1 X58.525 Y98.234 E3.26978
G1 X58.844 Y98.011 E3.28064
G1 X59.034 Y97.912 E3.28661
G1 X59.405 Y97.777 E3.29763
G1 X59.805 Y97.707 E3.30898 F1800.000
G1 X60.194 Y97.708 E3.31984
G1 X60.406 Y97.736 E3.32581
G1 X60.787 Y97.838 E3.33682
G1 X61.151 Y98.007 E3.34802
G1 X61.479 Y98.237 E3.35922
G1 X61.763 Y98.521 E3.37042
G1 X61.993 Y98.850 E3.38163
G1 X62.164 Y99.218 E3.39298
G1 X62.264 Y99.594 E3.40384
G1 X62.292 Y99.806 E3.40981
G1 X62.292 Y100.194 E3.42065
G1 X62.263 Y100.412 E3.42677
G1 X62.162 Y100.787 E3.43763
G1 X61.993 Y101.151 E3.44883
G1 X61.763 Y101.479 E3.46003
G1 X61.484 Y101.758 E3.47105
G1 X61.314 Y101.888 E3.47702
G1 X61.037 Y102.048 E3.48594
G1 X60.926 Y102.484 F7800.000
G1 X136.636 Y100.294 F7800.000
G1 X136.636 Y99.706 E3.50237 F1800.000
G1 X136.739 Y99.126 E3.51881
G1 X136.930 Y98.601 E3.53440
G1 X137.093 Y98.287 E3.54429
G1 X137.414 Y97.829 E3.55992
G1 X137.835 Y97.409 E3.57651
G1 X138.288 Y97.093 E3.59192
G1 X138.601 Y96.930 E3.60180
G1 X139.127 Y96.738 E3.61743
G1 X139.713 Y96.636 E3.63402 F1800.000
G1 X140.265 Y96.636 E3.64944
G1 X140.615 Y96.683 E3.65931
G1 X141.155 Y96.827 E3.67491
G1 X141.688 Y97.076 E3.69134
G1 X142.170 Y97.413 E3.70778
G1 X142.565 Y97.808 E3.72337
G1 X142.781 Y98.089 E3.73326
G1 X143.060 Y98.573 E3.74885
G1 X143.261 Y99.126 E3.76529
G1 X143.364 Y99.707 E3.78176
G1 X143.363 Y100.301 E3.79835
G1 X143.267 Y100.845 E3.81376
G1 X143.160 Y101.182 E3.82364
G1 X142.924 Y101.688 E3.83923
G1 X142.586 Y102.171 E3.85571
G1 X142.165 Y102.591 E3.87230
G1 X141.712 Y102.907 E3.88771
G1 X141.399 Y103.070 E3.89759
G1 X140.874 Y103.261 E3.91318
G1 X140.293 Y103.364 E3.92965
G1 X139.699 Y103.363 E3.94624
G1 X139.155 Y103.267 E3.96165
G1 X138.818 Y103.160 E3.97153
G1 X138.312 Y102.924 E3.98713
G1 X137.853 Y102.603 E4.00277
G1 X137.588 Y102.359 E4.01282
G1 X137.234 Y101.936 E4.02822
G1 X136.940 Y101.427 E4.04464
G1 X136.739 Y100.874 E4.06107
G1 X136.649 Y100.368 E4.07541
G1 X137.172 Y100.247 F7800.000
G1 X137.172 Y99.753 E4.08923 F1800.000
G1 X137.258 Y99.265 E4.10305
G1 X137.421 Y98.817 E4.11635
G1 X137.552 Y98.566 E4.12428
G1 X137.826 Y98.175 E4.13761
G1 X138.180 Y97.822 E4.15158
G1 X138.566 Y97.552 E4.16472
G1 X138.818 Y97.421 E4.17264
G1 X139.266 Y97.258 E4.18597
G1 X139.759 Y97.172 E4.19994 F1800.000
G1 X140.229 Y97.172 E4.21307
G1 X140.511 Y97.209 E4.22100
G1 X140.971 Y97.332 E4.23430
G1 X141.419 Y97.542 E4.24812
G1 X141.825 Y97.825 E4.26193
G1 X142.162 Y98.162 E4.27524
G1 X142.335 Y98.388 E4.28317
G1 X142.573 Y98.800 E4.29648
G1 X142.742 Y99.265 E4.31029
G1 X142.828 Y99.753 E4.32413
G1 X142.827 Y100.254 E4.33810
G1 X142.745 Y100.717 E4.35124
G1 X142.660 Y100.988 E4.35916
G1 X142.458 Y101.419 E4.37247
G1 X142.174 Y101.825 E4.38631
G1 X141.820 Y102.179 E4.40028
G1 X141.434 Y102.448 E4.41341
G1 X141.183 Y102.579 E4.42133
G1 X140.735 Y102.742 E4.43464
G1 X140.247 Y102.828 E4.44848
G1 X139.746 Y102.827 E4.46245
G1 X139.283 Y102.745 E4.47559
G1 X139.012 Y102.660 E4.48351
G1 X138.581 Y102.458 E4.49681
G1 X138.189 Y102.185 E4.51015
G1 X137.976 Y101.988 E4.51823
G1 X137.674 Y101.628 E4.53136
G1 X137.427 Y101.200 E4.54517
G1 X137.258 Y100.735 E4.55899
G1 X137.185 Y100.321 E4.57071
G1 X137.708 Y100.201 F7800.000
G1 X137.708 Y99.799 E4.58191 F1800.000
G1 X137.777 Y99.404 E4.59311
G1 X137.912 Y99.034 E4.60413
G1 X138.011 Y98.844 E4.61010
G1 X138.237 Y98.521 E4.62112
G1 X138.525 Y98.234 E4.63247
G1 X138.844 Y98.011 E4.64333
G1 X139.034 Y97.912 E4.64930
G1 X139.405 Y97.777 E4.66032
G1 X139.805 Y97.707 E4.67167 F1800.000
G1 X140.194 Y97.708 E4.68254
G1 X140.406 Y97.736 E4.68850
G1 X140.787 Y97.838 E4.69952
G1 X141.151 Y98.007 E4.71072
G1 X141.479 Y98.237 E4.72192
G1 X141.758 Y98.516 E4.73294
G1 X141.888 Y98.686 E4.73891
G1 X142.086 Y99.027 E4.74992
G1 X142.223 Y99.404 E4.76112
G1 X142.292 Y99.800 E4.77233
G1 X142.292 Y100.206 E4.78368
G1 X142.224 Y100.589 E4.79454
G1 X142.160 Y100.793 E4.80051
G1 X141.993 Y101.151 E4.81152
G1 X141.763 Y101.479 E4.82273
G1 X141.475 Y101.766 E4.83408
G1 X141.156 Y101.989 E4.84494
G1 X140.966 Y102.088 E4.85091
G1 X140.596 Y102.223 E4.86193
G1 X140.200 Y102.292 E4.87313
G1 X139.794 Y102.292 E4.88448
G1 X139.411 Y102.224 E4.89534
G1 X139.207 Y102.160 E4.90131
G1 X138.849 Y101.993 E4.91233
G1 X138.526 Y101.766 E4.92336
G1 X138.365 Y101.618 E4.92947
G1 X138.115 Y101.320 E4.94033
G1 X137.914 Y100.973 E4.95153
G1 X137.777 Y100.596 E4.96273
G1 X137.721 Y100.274 E4.97184
G1 X137.349 Y100.021 F7800.000
G1 X136.713 Y103.911 F7800.000
G1 X130.459 Y102.236 E5.15263 F1800.000
G1 X130.167 Y102.171 E5.16099
G1 X129.676 Y102.129 E5.17475
G1 X70.316 Y102.129 E6.83222
G1 X69.833 Y102.171 E6.84578
G1 X69.541 Y102.236 E6.85412
G1 X61.227 Y104.463 E7.09445
G1 X60.804 Y104.557 E7.10656
G1 X60.403 Y104.610 E7.11783
G1 X60.000 Y104.627 E7.12911
G1 X59.597 Y104.610 E7.14038
G1 X59.196 Y104.557 E7.15165
G1 X58.802 Y104.470 E7.16292
G1 X58.417 Y104.348 E7.17420
G1 X58.044 Y104.194 E7.18547
G1 X57.686 Y104.007 E7.19674
G1 X57.346 Y103.791 E7.20801
G1 X57.026 Y103.545 E7.21928
G1 X56.728 Y103.272 E7.23056
G1 X56.455 Y102.974 E7.24183
G1 X56.209 Y102.654 E7.25310
G1 X55.993 Y102.314 E7.26437
G1 X55.806 Y101.956 E7.27564
G1 X55.652 Y101.583 E7.28692
G1 X55.530 Y101.198 E7.29819
G1 X55.443 Y100.804 E7.30946
G1 X55.390 Y100.403 E7.32073
G1 X55.373 Y100.000 E7.33201
G1 X55.390 Y99.597 E7.34328
G1 X55.443 Y99.196 E7.35455
G1 X55.530 Y98.802 E7.36582
G1 X55.646 Y98.434 E7.37661
G1 X55.807 Y98.042 E7.38842
G1 X55.993 Y97.686 E7.39964
G1 X56.209 Y97.346 E7.41091
G1 X56.455 Y97.026 E7.42218
G1 X56.728 Y96.728 E7.43345
G1 X57.026 Y96.455 E7.44473
G1 X57.346 Y96.209 E7.45600
G1 X57.686 Y95.993 E7.46727
G1 X58.044 Y95.806 E7.47854
G1 X58.417 Y95.652 E7.48981
G1 X58.802 Y95.530 E7.50109
G1 X59.196 Y95.443 E7.51236
G1 X59.597 Y95.390 E7.52363
G1 X60.000 Y95.373 E7.53490
G1 X60.403 Y95.390 E7.54617
G1 X60.804 Y95.443 E7.55745
G1 X61.227 Y95.537 E7.56955
G1 X69.541 Y97.764 E7.80989
G1 X69.833 Y97.829 E7.81823
G1 X70.316 Y97.871 E7.83179
G1 X129.662 Y97.871 E9.48886
G1 X130.057 Y97.845 E9.49993
G1 X130.446 Y97.768 E9.51100
G1 X138.773 Y95.537 E9.75172
G1 X139.196 Y95.443 E9.76383
G1 X139.597 Y95.390 E9.77510
G1 X140.000 Y95.373 E9.78637
G1 X140.386 Y95.389 E9.79716
G1 X140.806 Y95.443 E9.80897 F1800.000
G1 X141.198 Y95.530 E9.82019
G1 X141.583 Y95.652 E9.83146
G1 X141.956 Y95.806 E9.84273
G1 X142.314 Y95.993 E9.85400
G1 X142.654 Y96.209 E9.86527
G1 X142.974 Y96.455 E9.87655
G1 X143.272 Y96.728 E9.88782
G1 X143.545 Y97.026 E9.89909
G1 X143.791 Y97.346 E9.91036
G1 X144.007 Y97.686 E9.92163
G1 X144.194 Y98.044 E9.93291
G1 X144.348 Y98.417 E9.94418
G1 X144.470 Y98.802 E9.95545
G1 X144.557 Y99.196 E9.96672
G1 X144.608 Y99.579 E9.97751
G1 X144.627 Y100.002 E9.98933
G1 X144.610 Y100.403 E10.00054
G1 X144.557 Y100.804 E10.01181
G1 X144.470 Y101.198 E10.02308
G1 X144.348 Y101.583 E10.03435
G1 X144.194 Y101.956 E10.04563
G1 X144.007 Y102.314 E10.05690
G1 X143.791 Y102.654 E10.06817
G1 X143.545 Y102.974 E10.07944
G1 X143.284 Y103.259 E10.09023
G1 X142.973 Y103.546 E10.10205
G1 X142.654 Y103.791 E10.11326
G1 X142.314 Y104.007 E10.12453
G1 X141.956 Y104.194 E10.13580
G1 X141.583 Y104.348 E10.14707
G1 X141.198 Y104.470 E10.15835
G1 X140.804 Y104.557 E10.16962
G1 X140.403 Y104.610 E10.18089
G1 X140.000 Y104.627 E10.19216
G1 X139.597 Y104.610 E10.20343
G1 X139.196 Y104.557 E10.21471
G1 X138.773 Y104.463 E10.22682
G1 X136.786 Y103.931 E10.28426
G1 X136.575 Y104.429 F7800.000
G1 X130.332 Y102.756 E10.46472 F1800.000
G1 X130.086 Y102.702 E10.47177
G1 X129.653 Y102.664 E10.48390
G1 X70.340 Y102.665 E12.14007
G1 X69.914 Y102.702 E12.15201
G1 X69.668 Y102.756 E12.15905
G1 X61.354 Y104.984 E12.39937
G1 X60.897 Y105.085 E12.41246
G1 X60.450 Y105.144 E12.42504
G1 X60.000 Y105.164 E12.43761
G1 X59.550 Y105.144 E12.45019
G1 X59.103 Y105.085 E12.46277
G1 X58.664 Y104.988 E12.47535
G1 X58.234 Y104.852 E12.48793
G1 X57.818 Y104.680 E12.50050
G1 X57.418 Y104.472 E12.51308
G1 X57.038 Y104.230 E12.52566
G1 X56.681 Y103.956 E12.53824
G1 X56.349 Y103.651 E12.55082
G1 X56.044 Y103.319 E12.56340
G1 X55.770 Y102.962 E12.57597
G1 X55.528 Y102.582 E12.58855
G1 X55.320 Y102.182 E12.60113
G1 X55.148 Y101.766 E12.61371
G1 X55.012 Y101.336 E12.62629
G1 X54.915 Y100.897 E12.63886
G1 X54.856 Y100.450 E12.65144
G1 X54.836 Y100.000 E12.66402
G1 X54.856 Y99.550 E12.67660
G1 X54.915 Y99.103 E12.68918
G1 X55.012 Y98.664 E12.70175
G1 X55.142 Y98.251 E12.71382
G1 X55.321 Y97.817 E12.72695
G1 X55.528 Y97.418 E12.73949
G1 X55.770 Y97.038 E12.75207
G1 X56.044 Y96.681 E12.76464
G1 X56.349 Y96.349 E12.77722
G1 X56.681 Y96.044 E12.78980
G1 X57.038 Y95.770 E12.80238
G1 X57.418 Y95.528 E12.81496
G1 X57.818 Y95.320 E12.82753
G1 X58.234 Y95.148 E12.84011
G1 X58.664 Y95.012 E12.85269
G1 X59.103 Y94.915 E12.86527
G1 X59.550 Y94.856 E12.87785
G1 X60.000 Y94.836 E12.89042
G1 X60.450 Y94.856 E12.90300
G1 X60.897 Y94.915 E12.91558
G1 X61.354 Y95.016 E12.92867
G1 X69.668 Y97.244 E13.16899
G1 X69.914 Y97.298 E13.17603
G1 X70.340 Y97.335 E13.18797
G1 X129.644 Y97.336 E14.84389
G1 X129.987 Y97.313 E14.85349
G1 X130.324 Y97.246 E14.86309
G1 X138.646 Y95.016 E15.10365
G1 X139.103 Y94.915 E15.11673
G1 X139.550 Y94.856 E15.12931
G1 X140.000 Y94.836 E15.14189
G1 X140.432 Y94.855 E15.15396
G1 X140.898 Y94.915 E15.16708 F1800.000
G1 X141.336 Y95.012 E15.17962
G1 X141.766 Y95.148 E15.19220
G1 X142.182 Y95.320 E15.20478
G1 X142.582 Y95.528 E15.21736
G1 X142.962 Y95.770 E15.22994
G1 X143.319 Y96.044 E15.24251
G1 X143.651 Y96.349 E15.25509
G1 X143.956 Y96.681 E15.26767
G1 X144.230 Y97.038 E15.28025
G1 X144.472 Y97.418 E15.29283
G1 X144.680 Y97.818 E15.30540
G1 X144.852 Y98.234 E15.31798
G1 X144.988 Y98.664 E15.33056
G1 X145.085 Y99.103 E15.34314
G1 X145.142 Y99.532 E15.35521
G1 X145.164 Y100.001 E15.36833
G1 X145.144 Y100.450 E15.38087
G1 X145.085 Y100.897 E15.39345
G1 X144.988 Y101.336 E15.40603
G1 X144.852 Y101.766 E15.41861
G1 X144.680 Y102.182 E15.43118
G1 X144.472 Y102.582 E15.44376
