; generated by Slic3r 1.2.9 on 2018-02-05 at 13:12:51

; external perimeters extrusion width = 0.50mm
; perimeters extrusion width = 0.72mm
; infill extrusion width = 0.72mm
; solid infill extrusion width = 0.72mm
; top infill extrusion width = 0.72mm

M107
M190 S60 ; set bed temperature
M104 S200 ; set temperature
G28 ; home all axes
G1 Z5 F5000 ; lift nozzle

M109 S200 ; wait for temperature to be reached
G21 ; set units to millimeters
G90 ; use absolute coordinates
M82 ; use absolute distances for extrusion
G92 E0
G1 Z0.340 F7800.000
G1 E-2.00000 F2400.00000
G92 E0
G1 X88.259 Y88.259 F7800.000
G1 E2.00000 F2400.00000
G1 X88.778 Y87.760 E2.02374 F1800.000
G1 X90.793 Y86.453 E2.10288
G1 X96.931 Y83.911 E2.32176
G1 X99.280 Y83.410 E2.40091
G1 X100.179 Y83.395 E2.43052
G1 X100.720 Y83.410 E2.44837 F1800.000
G1 X103.069 Y83.911 E2.52751
G1 X109.207 Y86.453 E2.74639
G1 X111.222 Y87.760 E2.82555
G1 X111.615 Y88.132 E2.84338
G1 X112.240 Y88.778 E2.87300
G1 X113.547 Y90.793 E2.95215
G1 X116.089 Y96.931 E3.17103
G1 X116.590 Y99.280 E3.25018
G1 X116.605 Y100.179 E3.27980
G1 X116.590 Y100.720 E3.29763
G1 X116.089 Y103.069 E3.37678
G1 X113.547 Y109.207 E3.59566
G1 X112.240 Y111.222 E3.67482
G1 X111.868 Y111.615 E3.69265
G1 X111.222 Y112.240 E3.72226
G1 X109.207 Y113.547 E3.80142
G1 X103.069 Y116.089 E4.02030
G1 X100.720 Y116.590 E4.09946
G1 X100.179 Y116.605 E4.11729
G1 X99.280 Y116.590 E4.14690
G1 X96.931 Y116.089 E4.22606
G1 X90.793 Y113.547 E4.44493
G1 X88.778 Y112.240 E4.52409
G1 X88.132 Y111.615 E4.55370
G1 X87.760 Y111.222 E4.57154
G1 X86.453 Y109.207 E4.65069
G1 X83.911 Y103.069 E4.86957
G1 X83.410 Y100.720 E4.94873
G1 X83.395 Y100.178 E4.96657
G1 X83.410 Y99.280 E4.99618
G1 X83.911 Y96.931 E5.07533
G1 X86.453 Y90.793 E5.29420
G1 X87.760 Y88.778 E5.37336
G1 X88.206 Y88.312 E5.39461
G1 E3.39461 F2400.00000
G92 E0
G1 X102.892 Y102.892 F7800.000
G1 E2.00000 F2400.00000
G1 X102.629 Y103.133 E2.01176 F1800.000
G1 X102.346 Y103.351 E2.02353
G1 X102.035 Y103.548 E2.03565
G1 X101.729 Y103.707 E2.04703
G1 X101.399 Y103.844 E2.05879
G1 X101.059 Y103.951 E2.07054
G1 X100.710 Y104.028 E2.08230
G1 X100.356 Y104.075 E2.09406
G1 X100.000 Y104.090 E2.10583
G1 X99.632 Y104.073 E2.11796
G1 X99.290 Y104.028 E2.12933
G1 X98.941 Y103.951 E2.14109
G1 X98.601 Y103.844 E2.15285
G1 X98.271 Y103.707 E2.16460
G1 X97.955 Y103.542 E2.17636
G1 X97.654 Y103.351 E2.18812
G1 X97.371 Y103.133 E2.19988
G1 X97.108 Y102.892 E2.21163
G1 X96.867 Y102.629 E2.22339
G1 X96.649 Y102.346 E2.23516
G1 X96.452 Y102.035 E2.24729
G1 X96.293 Y101.729 E2.25866
G1 X96.156 Y101.399 E2.27042
G1 X96.049 Y101.059 E2.28218
G1 X95.972 Y100.710 E2.29393
G1 X95.925 Y100.356 E2.30569
G1 X95.910 Y100.000 E2.31745
G1 X95.925 Y99.643 E2.32922
G1 X95.974 Y99.278 E2.34135
G1 X96.049 Y98.941 E2.35272
G1 X96.156 Y98.601 E2.36448
G1 X96.293 Y98.271 E2.37624
G1 X96.458 Y97.955 E2.38799
G1 X96.649 Y97.654 E2.39975
G1 X96.867 Y97.371 E2.41151
G1 X97.108 Y97.107 E2.42328
G1 X97.380 Y96.860 E2.43540
G1 X97.654 Y96.649 E2.44678
G1 X97.955 Y96.458 E2.45854
G1 X98.271 Y96.293 E2.47030
G1 X98.601 Y96.156 E2.48205
G1 X98.941 Y96.049 E2.49381
G1 X99.290 Y95.972 E2.50558
G1 X99.655 Y95.925 E2.51771
G1 X100.000 Y95.910 E2.52908 F1800.000
G1 X100.356 Y95.925 E2.54084
G1 X100.710 Y95.972 E2.55260
G1 X101.059 Y96.049 E2.56435
G1 X101.399 Y96.156 E2.57611
G1 X101.729 Y96.293 E2.58787
G1 X102.045 Y96.458 E2.59963
G1 X102.346 Y96.649 E2.61138
G1 X102.629 Y96.867 E2.62314
G1 X102.892 Y97.108 E2.63490
G1 X103.133 Y97.371 E2.64666
G1 X103.352 Y97.656 E2.65849
G1 X103.569 Y98.006 E2.67207
G1 X103.707 Y98.271 E2.68192
G1 X103.844 Y98.601 E2.69368
G1 X103.951 Y98.941 E2.70544
G1 X104.028 Y99.290 E2.71720
G1 X104.075 Y99.644 E2.72895
G1 X104.090 Y100.000 E2.74071
G1 X104.075 Y100.356 E2.75247
G1 X104.028 Y100.710 E2.76423
G1 X103.951 Y101.059 E2.77598
G1 X103.844 Y101.399 E2.78774
G1 X103.707 Y101.729 E2.79950
G1 X103.542 Y102.045 E2.81126
G1 X103.351 Y102.346 E2.82301
G1 X103.133 Y102.629 E2.83477
G1 X102.943 Y102.837 E2.84406
G1 X102.980 Y103.238 F7800.000
G1 E0.84406 F2400.00000
G92 E0
G1 X100.941 Y95.390 F7800.000
G1 E2.00000 F2400.00000
G1 X100.409 Y95.320 E2.01766 F1800.000
G1 X100.000 Y95.302 E2.03117
G1 X99.603 Y95.319 E2.04426
G1 X99.019 Y95.395 E2.06367
G1 X99.404 Y94.786 E2.08739
G1 X99.594 Y94.284 E2.10508
G1 X99.664 Y93.694 E2.12467
G1 X99.627 Y93.221 E2.14029
G1 X99.506 Y92.714 E2.15748
G1 X99.370 Y92.386 E2.16917
G1 X99.429 Y92.057 E2.18020
G1 X99.616 Y91.549 E2.19802
G1 X99.753 Y91.277 E2.20805
G1 X99.997 Y90.874 E2.22359
G1 X100.334 Y91.443 E2.24540
G1 X100.534 Y91.934 E2.26286
G1 X100.621 Y92.289 E2.27491
G1 X100.629 Y92.387 E2.27815
G1 X100.499 Y92.697 E2.28922
G1 X100.378 Y93.190 E2.30596
G1 X100.337 Y93.637 E2.32076
G1 X100.366 Y94.070 E2.33503
G1 X100.506 Y94.594 E2.35291
G1 X100.905 Y95.324 E2.38033
G1 X97.406 Y96.075 F7800.000
G1 X96.990 Y96.394 E2.39758 F1800.000
G1 X96.679 Y96.677 E2.41145
G1 X96.401 Y96.980 E2.42500
G1 X96.050 Y97.438 E2.44401
G1 X95.892 Y96.735 E2.46776
G1 X95.671 Y96.245 E2.48545
G1 X95.303 Y95.778 E2.50505
G1 X94.943 Y95.470 E2.52066
G1 X94.499 Y95.197 E2.53785
G1 X94.171 Y95.061 E2.54954
G1 X93.979 Y94.787 E2.56057
G1 X93.753 Y94.296 E2.57839
G1 X93.657 Y94.007 E2.58842
G1 X93.544 Y93.549 E2.60397
G1 X94.185 Y93.713 E2.62578
G1 X94.674 Y93.919 E2.64323
G1 X94.986 Y94.109 E2.65529
G1 X95.061 Y94.172 E2.65852
G1 X95.189 Y94.483 E2.66959
G1 X95.452 Y94.918 E2.68633
G1 X95.740 Y95.262 E2.70113
G1 X96.065 Y95.548 E2.71541
G1 X96.535 Y95.820 E2.73328
G1 X97.334 Y96.054 E2.76070
G1 X95.391 Y99.058 F7800.000
G1 X95.320 Y99.589 E2.77836 F1800.000
G1 X95.302 Y100.000 E2.79191
G1 X95.320 Y100.409 E2.80541
G1 X95.395 Y100.982 E2.82442
G1 X94.786 Y100.596 E2.84817
G1 X94.284 Y100.406 E2.86586
G1 X93.694 Y100.336 E2.88545
G1 X93.221 Y100.373 E2.90107
G1 X92.714 Y100.494 E2.91826
G1 X92.386 Y100.630 E2.92995
G1 X92.057 Y100.571 E2.94098
G1 X91.549 Y100.384 E2.95880
G1 X91.277 Y100.247 E2.96883
G1 X90.874 Y100.003 E2.98437
G1 X91.443 Y99.666 E3.00618
G1 X91.934 Y99.466 E3.02364
G1 X92.289 Y99.379 E3.03569
G1 X92.387 Y99.371 E3.03893
G1 X92.697 Y99.501 E3.05000
G1 X93.190 Y99.622 E3.06674
G1 X93.638 Y99.663 E3.08154
G1 X94.070 Y99.634 E3.09581
G1 X94.594 Y99.494 E3.11369
G1 X95.326 Y99.094 E3.14117
G1 X96.075 Y102.594 F7800.000
G1 X96.401 Y103.020 E3.15883 F1800.000
G1 X96.678 Y103.322 E3.17234
G1 X96.980 Y103.599 E3.18584
G1 X97.438 Y103.950 E3.20485
G1 X96.735 Y104.108 E3.22860
G1 X96.245 Y104.329 E3.24629
G1 X95.778 Y104.697 E3.26588
G1 X95.470 Y105.057 E3.28150
G1 X95.197 Y105.501 E3.29869
G1 X95.061 Y105.829 E3.31038
G1 X94.787 Y106.021 E3.32141
G1 X94.296 Y106.247 E3.33923
G1 X94.007 Y106.343 E3.34926
G1 X93.549 Y106.456 E3.36481
G1 X93.713 Y105.815 E3.38662
G1 X93.919 Y105.326 E3.40407
G1 X94.109 Y105.014 E3.41613
G1 X94.172 Y104.939 E3.41936
G1 X94.483 Y104.811 E3.43043
G1 X94.918 Y104.548 E3.44717
G1 X95.262 Y104.260 E3.46197
G1 X95.548 Y103.935 E3.47625
G1 X95.820 Y103.465 E3.49412
G1 X96.054 Y102.666 E3.52154
G1 X99.052 Y104.609 F7800.000
G1 X99.578 Y104.678 E3.53901 F1800.000
G1 X99.999 Y104.698 E3.55288
G1 X100.409 Y104.680 E3.56643
G1 X100.982 Y104.605 E3.58544
G1 X100.596 Y105.214 E3.60919
G1 X100.406 Y105.716 E3.62688
G1 X100.336 Y106.306 E3.64648
G1 X100.373 Y106.779 E3.66210
G1 X100.494 Y107.286 E3.67928
G1 X100.630 Y107.614 E3.69097
G1 X100.571 Y107.943 E3.70200
G1 X100.384 Y108.451 E3.71982
G1 X100.247 Y108.723 E3.72985
G1 X100.003 Y109.126 E3.74540
G1 X99.666 Y108.557 E3.76721
G1 X99.466 Y108.066 E3.78466
G1 X99.379 Y107.711 E3.79672
G1 X99.371 Y107.611 E3.80001
G1 X99.509 Y107.278 E3.81190
G1 X99.626 Y106.785 E3.82860
G1 X99.663 Y106.340 E3.84331
G1 X99.631 Y105.909 E3.85755
G1 X99.487 Y105.388 E3.87536
G1 X99.089 Y104.675 E3.90227
G1 X102.594 Y103.925 F7800.000
G1 X103.020 Y103.599 E3.91993 F1800.000
G1 X103.322 Y103.322 E3.93344
G1 X103.599 Y103.020 E3.94694
G1 X103.950 Y102.562 E3.96596
G1 X104.108 Y103.265 E3.98970
G1 X104.329 Y103.755 E4.00739
G1 X104.697 Y104.222 E4.02699
G1 X105.057 Y104.530 E4.04261
G1 X105.501 Y104.803 E4.05979
G1 X105.829 Y104.939 E4.07148
G1 X106.021 Y105.213 E4.08251
G1 X106.247 Y105.704 E4.10033
G1 X106.343 Y105.993 E4.11036
G1 X106.456 Y106.451 E4.12591
G1 X105.815 Y106.287 E4.14772
G1 X105.326 Y106.081 E4.16517
G1 X105.014 Y105.891 E4.17723
G1 X104.939 Y105.828 E4.18046
G1 X104.811 Y105.517 E4.19153
G1 X104.548 Y105.082 E4.20827
G1 X104.260 Y104.738 E4.22307
G1 X103.935 Y104.452 E4.23735
G1 X103.465 Y104.180 E4.25522
G1 X102.666 Y103.946 E4.28264
G1 X104.610 Y100.941 F7800.000
G1 X104.680 Y100.409 E4.30031 F1800.000
G1 X104.698 Y100.000 E4.31381
G1 X104.680 Y99.591 E4.32732
G1 X104.605 Y99.018 E4.34633
G1 X105.214 Y99.404 E4.37007
G1 X105.716 Y99.594 E4.38777
G1 X106.306 Y99.664 E4.40736
G1 X106.779 Y99.627 E4.42298
G1 X107.286 Y99.506 E4.44017
G1 X107.614 Y99.370 E4.45186
G1 X107.943 Y99.429 E4.46289
G1 X108.451 Y99.616 E4.48070
G1 X108.723 Y99.753 E4.49074
G1 X109.126 Y99.997 E4.50628
G1 X108.557 Y100.334 E4.52809
G1 X108.066 Y100.534 E4.54554
G1 X107.711 Y100.621 E4.55760
G1 X107.613 Y100.629 E4.56084
G1 X107.303 Y100.499 E4.57191
G1 X106.810 Y100.378 E4.58865
G1 X106.362 Y100.337 E4.60344
G1 X105.930 Y100.366 E4.61772
G1 X105.406 Y100.506 E4.63560
G1 X104.676 Y100.905 E4.66302
G1 X103.925 Y97.406 F7800.000
G1 X103.599 Y96.980 E4.68068 F1800.000
G1 X103.322 Y96.678 E4.69419
G1 X103.020 Y96.401 E4.70769
G1 X102.562 Y96.050 E4.72670
G1 X103.265 Y95.892 E4.75045
G1 X103.755 Y95.671 E4.76814
G1 X104.222 Y95.303 E4.78773
G1 X104.530 Y94.943 E4.80335
G1 X104.803 Y94.499 E4.82054
G1 X104.939 Y94.171 E4.83223
G1 X105.213 Y93.979 E4.84326
G1 X105.704 Y93.753 E4.86108
G1 X105.993 Y93.657 E4.87111
G1 X106.451 Y93.544 E4.88665
G1 X106.287 Y94.185 E4.90846
G1 X106.081 Y94.674 E4.92592
G1 X105.891 Y94.986 E4.93797
G1 X105.828 Y95.061 E4.94121
G1 X105.517 Y95.189 E4.95228
G1 X105.082 Y95.452 E4.96902
G1 X104.738 Y95.740 E4.98382
G1 X104.452 Y96.065 E4.99809
G1 X104.180 Y96.535 E5.01597
G1 X103.946 Y97.334 E5.04339
G1 X107.082 Y93.435 F7800.000
G1 X106.963 Y94.044 E5.06383 F1800.000
G1 X106.859 Y94.391 E5.07576
G1 X106.623 Y94.950 E5.09577
G1 X106.386 Y95.342 E5.11085
G1 X106.196 Y95.567 E5.12054
G1 X105.791 Y95.733 E5.13497
G1 X105.436 Y95.947 E5.14864
G1 X105.163 Y96.175 E5.16036
G1 X104.947 Y96.421 E5.17112
G1 X104.742 Y96.776 E5.18463
G1 X104.635 Y97.142 E5.19720
G1 X104.621 Y97.504 E5.20913
G1 X104.688 Y97.832 E5.22019
G1 X104.875 Y98.269 E5.23583
G1 X105.082 Y98.553 E5.24743
G1 X105.273 Y98.723 E5.25586
G1 X105.486 Y98.858 E5.26416
G1 X105.861 Y99.000 E5.27737
G1 X106.318 Y99.054 E5.29255
G1 X106.684 Y99.026 E5.30464
G1 X107.098 Y98.927 E5.31866
G1 X107.510 Y98.756 E5.33337
G1 X107.908 Y98.796 E5.34654
G1 X108.120 Y98.847 E5.35371
G1 X108.693 Y99.058 E5.37384
G1 X109.017 Y99.221 E5.38578
G1 X109.371 Y99.435 E5.39942
G1 X109.650 Y99.636 E5.41076
G1 X109.660 Y100.000 E5.42274
G1 X109.650 Y100.366 E5.43481
G1 X109.135 Y100.712 E5.45525
G1 X108.816 Y100.884 E5.46718
G1 X108.254 Y101.113 E5.48719
G1 X107.809 Y101.221 E5.50227
G1 X107.516 Y101.246 E5.51196
G1 X107.112 Y101.077 E5.52639
G1 X106.709 Y100.978 E5.54006
G1 X106.355 Y100.946 E5.55178
G1 X106.029 Y100.968 E5.56254
G1 X105.633 Y101.073 E5.57605
G1 X105.298 Y101.256 E5.58862
G1 X105.032 Y101.502 E5.60055
G1 X104.848 Y101.782 E5.61161
G1 X104.671 Y102.223 E5.62725
G1 X104.617 Y102.571 E5.63885
G1 X104.631 Y102.826 E5.64728
G1 X104.687 Y103.072 E5.65558
G1 X104.851 Y103.437 E5.66879
G1 X105.136 Y103.799 E5.68397
G1 X105.415 Y104.038 E5.69605
G1 X105.778 Y104.261 E5.71008
G1 X106.190 Y104.431 E5.72479
G1 X106.443 Y104.740 E5.73796
G1 X106.557 Y104.926 E5.74513
G1 X106.813 Y105.481 E5.76526
G1 X106.927 Y105.825 E5.77720
G1 X107.026 Y106.227 E5.79084
G1 X107.081 Y106.566 E5.80218
G1 X106.831 Y106.831 E5.81416
G1 X106.565 Y107.082 E5.82623
G1 X105.956 Y106.963 E5.84667
G1 X105.609 Y106.859 E5.85860
G1 X105.050 Y106.623 E5.87861
G1 X104.658 Y106.386 E5.89369
G1 X104.433 Y106.196 E5.90338
G1 X104.267 Y105.791 E5.91781
G1 X104.053 Y105.436 E5.93148
G1 X103.825 Y105.163 E5.94320
G1 X103.579 Y104.947 E5.95396
G1 X103.224 Y104.742 E5.96747
G1 X102.858 Y104.635 E5.98004
G1 X102.496 Y104.621 E5.99197
G1 X102.168 Y104.688 E6.00303
G1 X101.731 Y104.875 E6.01867
G1 X101.447 Y105.082 E6.03027
G1 X101.277 Y105.273 E6.03870
G1 X101.142 Y105.486 E6.04700
G1 X101.000 Y105.861 E6.06021
G1 X100.946 Y106.318 E6.07539
G1 X100.974 Y106.684 E6.08747
G1 X101.073 Y107.098 E6.10149
G1 X101.244 Y107.510 E6.11621
G1 X101.204 Y107.908 E6.12938
G1 X101.153 Y108.120 E6.13655
G1 X100.942 Y108.693 E6.15668
G1 X100.779 Y109.017 E6.16862
G1 X100.565 Y109.371 E6.18226
G1 X100.364 Y109.650 E6.19360
G1 X100.000 Y109.660 E6.20558
G1 X99.634 Y109.650 E6.21765
G1 X99.288 Y109.135 E6.23809
G1 X99.116 Y108.816 E6.25002
G1 X98.887 Y108.254 E6.27003
G1 X98.779 Y107.809 E6.28511
G1 X98.754 Y107.516 E6.29481
G1 X98.930 Y107.090 E6.30999
G1 X99.025 Y106.689 E6.32356
G1 X99.054 Y106.337 E6.33520
G1 X99.030 Y106.013 E6.34591
G1 X98.921 Y105.620 E6.35936
G1 X98.736 Y105.288 E6.37187
G1 X98.489 Y105.025 E6.38378
G1 X98.208 Y104.844 E6.39478
G1 X97.777 Y104.671 E6.41010
G1 X97.429 Y104.617 E6.42169
G1 X97.174 Y104.631 E6.43012
G1 X96.928 Y104.687 E6.43842
G1 X96.563 Y104.851 E6.45163
G1 X96.201 Y105.136 E6.46680
G1 X95.962 Y105.415 E6.47889
G1 X95.739 Y105.778 E6.49291
G1 X95.569 Y106.190 E6.50763
G1 X95.260 Y106.443 E6.52079
G1 X95.074 Y106.557 E6.52797
G1 X94.519 Y106.813 E6.54810
G1 X94.175 Y106.927 E6.56004
G1 X93.773 Y107.026 E6.57368
G1 X93.434 Y107.081 E6.58502
G1 X93.169 Y106.831 E6.59700
G1 X92.918 Y106.565 E6.60907
G1 X93.037 Y105.956 E6.62951
G1 X93.141 Y105.609 E6.64144
G1 X93.377 Y105.050 E6.66145
G1 X93.614 Y104.658 E6.67652
G1 X93.804 Y104.433 E6.68622
G1 X94.209 Y104.267 E6.70064
G1 X94.564 Y104.053 E6.71432
G1 X94.837 Y103.825 E6.72604
G1 X95.053 Y103.579 E6.73680
G1 X95.258 Y103.224 E6.75031
G1 X95.365 Y102.858 E6.76288
G1 X95.379 Y102.496 E6.77481
G1 X95.312 Y102.168 E6.78587
G1 X95.125 Y101.731 E6.80151
G1 X94.918 Y101.447 E6.81311
G1 X94.727 Y101.277 E6.82154
G1 X94.514 Y101.142 E6.82984
G1 X94.139 Y101.000 E6.84305
G1 X93.681 Y100.946 E6.85822
G1 X93.316 Y100.974 E6.87031
G1 X92.902 Y101.073 E6.88433
G1 X92.490 Y101.244 E6.89905
G1 X92.092 Y101.204 E6.91221
G1 X91.880 Y101.153 E6.91938
G1 X91.307 Y100.942 E6.93952
G1 X90.983 Y100.779 E6.95146
G1 X90.629 Y100.565 E6.96510
G1 X90.350 Y100.364 E6.97643
G1 X90.340 Y100.000 E6.98842
G1 X90.350 Y99.634 E7.00049
G1 X90.865 Y99.288 E7.02092
G1 X91.184 Y99.116 E7.03286
G1 X91.746 Y98.887 E7.05286
G1 X92.191 Y98.779 E7.06794
G1 X92.484 Y98.754 E7.07764
G1 X92.888 Y98.923 E7.09206
G1 X93.291 Y99.022 E7.10574
G1 X93.645 Y99.054 E7.11746
G1 X93.971 Y99.032 E7.12822
G1 X94.367 Y98.927 E7.14173
G1 X94.702 Y98.744 E7.15430
G1 X94.968 Y98.498 E7.16623
G1 X95.152 Y98.218 E7.17729
G1 X95.329 Y97.777 E7.19293
G1 X95.383 Y97.429 E7.20452
G1 X95.369 Y97.174 E7.21296
G1 X95.313 Y96.928 E7.22126
G1 X95.149 Y96.563 E7.23447
G1 X94.864 Y96.201 E7.24964
G1 X94.585 Y95.962 E7.26173
G1 X94.222 Y95.739 E7.27575
G1 X93.810 Y95.569 E7.29046
G1 X93.557 Y95.260 E7.30363
G1 X93.443 Y95.074 E7.31080
G1 X93.187 Y94.519 E7.33094
G1 X93.073 Y94.175 E7.34288
G1 X92.974 Y93.773 E7.35652
G1 X92.919 Y93.434 E7.36785
G1 X93.169 Y93.169 E7.37984
G1 X93.435 Y92.918 E7.39191
G1 X94.044 Y93.037 E7.41234
G1 X94.391 Y93.141 E7.42428
G1 X94.950 Y93.377 E7.44428
G1 X95.342 Y93.614 E7.45936
G1 X95.567 Y93.804 E7.46905
G1 X95.733 Y94.209 E7.48348
G1 X95.947 Y94.564 E7.49715
G1 X96.175 Y94.837 E7.50888
G1 X96.421 Y95.053 E7.51964
G1 X96.776 Y95.258 E7.53314
G1 X97.142 Y95.365 E7.54572
G1 X97.504 Y95.379 E7.55764
G1 X97.832 Y95.312 E7.56871
G1 X98.269 Y95.125 E7.58435
G1 X98.553 Y94.918 E7.59594
G1 X98.723 Y94.727 E7.60438
G1 X98.858 Y94.514 E7.61268
G1 X99.000 Y94.139 E7.62588
G1 X99.054 Y93.681 E7.64106
G1 X99.026 Y93.316 E7.65315
G1 X98.927 Y92.902 E7.66717
G1 X98.756 Y92.490 E7.68188
G1 X98.796 Y92.092 E7.69505
G1 X98.847 Y91.880 E7.70222
G1 X99.058 Y91.307 E7.72236
G1 X99.221 Y90.983 E7.73430
