; generated by Slic3r 1.2.9 on 2017-08-22 at 13:10:40

; external perimeters extrusion width = 0.50mm
; perimeters extrusion width = 0.72mm
; infill extrusion width = 0.72mm
; solid infill extrusion width = 0.72mm
; top infill extrusion width = 0.72mm

M107
M190 S55 ; set bed temperature
M104 S195 ; set temperature
G28 ; home all axes
G1 Z5 F5000 ; lift nozzle

M109 S195 ; wait for temperature to be reached
G21 ; set units to millimeters
G90 ; use absolute coordinates
M82 ; use absolute distances for extrusion
G92 E0
G1 Z0.300 F7800.000
G1 E-2.00000 F2400.00000
G92 E0
G1 X72.741 Y87.349 F7800.000
G1 E2.00000 F2400.00000
G1 X73.145 Y87.026 E2.01441 F1800.000
G1 X73.709 Y86.615 E2.03392
G1 X74.142 Y86.324 E2.04848
G1 X74.739 Y85.961 E2.06799
G1 X75.107 Y85.754 E2.07978
G1 X75.823 Y85.396 E2.10214
G1 X76.332 Y85.169 E2.11769
G1 X77.159 Y84.844 E2.14251
G1 X78.512 Y84.440 E2.18195
G1 X79.541 Y84.224 E2.21128
G1 X80.860 Y84.059 E2.24841
G1 X82.000 Y84.014 E2.28026
G1 X118.283 Y84.021 E3.29337
G1 X119.136 Y84.060 E3.31722 F1800.000
G1 X119.548 Y84.101 E3.32879
G1 X120.489 Y84.229 E3.35529
G1 X120.802 Y84.291 E3.36421
G1 X121.816 Y84.524 E3.39326
G1 X122.690 Y84.795 E3.41881
G1 X123.236 Y84.994 E3.43503
G1 X123.875 Y85.258 E3.45434
G1 X124.398 Y85.502 E3.47044
G1 X125.131 Y85.885 E3.49356
G1 X126.277 Y86.602 E3.53130
G1 X127.410 Y87.471 E3.57116
G1 X128.278 Y88.272 E3.60415
G1 X129.066 Y89.126 E3.63658
G1 X129.737 Y89.982 E3.66696
G1 X130.065 Y90.450 E3.68291
G1 X130.468 Y91.082 E3.70386
G1 X130.725 Y91.532 E3.71832
G1 X131.134 Y92.324 E3.74322
G1 X131.555 Y93.310 E3.77315
G1 X131.697 Y93.686 E3.78438
G1 X132.020 Y94.715 E3.81448
G1 X132.331 Y96.120 E3.85466
G1 X132.478 Y97.262 E3.88681
G1 X132.536 Y98.550 E3.92282
G1 X132.532 Y122.757 E4.59875
G1 X132.478 Y123.845 E4.62915
G1 X132.337 Y124.941 E4.66000
G1 X132.026 Y126.366 E4.70075
G1 X131.698 Y127.411 E4.73131
G1 X131.152 Y128.740 E4.77144
G1 X130.726 Y129.566 E4.79740
G1 X130.440 Y130.061 E4.81335
G1 X130.066 Y130.649 E4.83282
G1 X129.738 Y131.118 E4.84880
G1 X129.069 Y131.971 E4.87907
G1 X128.386 Y132.718 E4.90732
G1 X127.430 Y133.611 E4.94385
G1 X126.569 Y134.287 E4.97443
G1 X126.093 Y134.620 E4.99062
G1 X125.512 Y134.990 E5.00988
G1 X125.014 Y135.277 E5.02592
G1 X124.155 Y135.718 E5.05289
G1 X122.946 Y136.218 E5.08941
G1 X121.910 Y136.549 E5.11977
G1 X120.810 Y136.808 E5.15134
G1 X120.236 Y136.909 E5.16762
G1 X119.449 Y137.012 E5.18978
G1 X118.984 Y137.049 E5.20278
G1 X118.000 Y137.086 E5.23029
G1 X82.000 Y137.086 E6.23551
G1 X80.853 Y137.040 E6.26755
G1 X79.504 Y136.870 E6.30554
G1 X78.183 Y136.575 E6.34332
G1 X77.183 Y136.263 E6.37255
G1 X75.967 Y135.774 E6.40917
G1 X74.706 Y135.123 E6.44878
G1 X73.669 Y134.461 E6.48315
G1 X72.721 Y133.738 E6.51642
G1 X71.929 Y133.026 E6.54616
G1 X71.525 Y132.622 E6.56212
G1 X70.876 Y131.906 E6.58912
G1 X70.069 Y130.853 E6.62615
G1 X69.367 Y129.738 E6.66294
G1 X68.854 Y128.752 E6.69399
G1 X68.436 Y127.768 E6.72384
G1 X68.290 Y127.375 E6.73555
G1 X67.978 Y126.379 E6.76468
G1 X67.734 Y125.325 E6.79490
G1 X67.659 Y124.912 E6.80660
G1 X67.551 Y124.102 E6.82943
G1 X67.501 Y123.533 E6.84538
G1 X67.464 Y122.550 E6.87284
G1 X67.468 Y97.699 E7.56674
G1 X67.503 Y97.125 E7.58279
G1 X67.604 Y96.407 E7.60304
G1 X67.808 Y95.415 E7.63133
G1 X68.077 Y94.385 E7.66105
G1 X68.251 Y93.844 E7.67692
G1 X68.500 Y93.167 E7.69705
G1 X68.689 Y92.717 E7.71069
G1 X69.161 Y91.737 E7.74107
G1 X69.762 Y90.708 E7.77434
G1 X70.232 Y90.024 E7.79751
G1 X70.574 Y89.570 E7.81337
G1 X70.988 Y89.067 E7.83157
G1 X71.366 Y88.645 E7.84739
G1 X71.978 Y88.022 E7.87180
G1 X72.685 Y87.398 E7.89811
G1 E5.89811 F2400.00000
G92 E0
G1 X115.788 Y113.051 F7800.000
G1 E2.00000 F2400.00000
G1 X115.511 Y113.227 E2.00917 F1800.000
G1 X115.052 Y113.441 E2.02330
G1 X114.534 Y113.580 E2.03827
G1 X114.000 Y113.626 E2.05325
G1 X113.466 Y113.580 E2.06822
G1 X112.948 Y113.441 E2.08320
G1 X112.462 Y113.215 E2.09816
G1 X112.052 Y112.928 E2.11212
G1 X111.806 Y112.704 E2.12141
G1 X111.480 Y112.315 E2.13560
G1 X111.212 Y111.850 E2.15057
G1 X111.029 Y111.347 E2.16553
G1 X110.941 Y110.854 E2.17949
G1 X110.927 Y110.552 E2.18795
G1 X110.940 Y110.252 E2.19632
G1 X111.028 Y109.754 E2.21046
G1 X111.212 Y109.250 E2.22543
G1 X111.480 Y108.785 E2.24040
G1 X111.825 Y108.375 E2.25538
G1 X112.235 Y108.030 E2.27035
G1 X112.700 Y107.762 E2.28533
G1 X113.175 Y107.589 E2.29946
G1 X113.495 Y107.518 E2.30861
G1 X113.994 Y107.474 E2.32258 F1800.000
G1 X114.533 Y107.520 E2.33769
G1 X115.023 Y107.651 E2.35186
G1 X115.326 Y107.777 E2.36101
G1 X115.759 Y108.027 E2.37498
G1 X116.175 Y108.374 E2.39009
G1 X116.521 Y108.786 E2.40512
G1 X116.790 Y109.254 E2.42021
G1 X116.961 Y109.725 E2.43419
G1 X117.032 Y110.044 E2.44333
G1 X117.076 Y110.547 E2.45743
G1 X117.030 Y111.082 E2.47243
G1 X116.890 Y111.605 E2.48752
G1 X116.678 Y112.059 E2.50152
G1 X116.500 Y112.339 E2.51077
G1 X116.174 Y112.727 E2.52493
G1 X115.845 Y113.002 E2.53691
G1 X115.470 Y112.618 F7800.000
G1 X115.253 Y112.756 E2.54412 F1800.000
G1 X114.868 Y112.936 E2.55596
G1 X114.441 Y113.050 E2.56832
G1 X114.000 Y113.089 E2.58068
G1 X113.559 Y113.050 E2.59303
G1 X113.132 Y112.936 E2.60539
G1 X112.731 Y112.749 E2.61774
G1 X112.388 Y112.509 E2.62943
G1 X112.194 Y112.332 E2.63676
G1 X111.920 Y112.006 E2.64864
G1 X111.699 Y111.623 E2.66099
G1 X111.548 Y111.207 E2.67334
G1 X111.475 Y110.795 E2.68503
G1 X111.464 Y110.551 E2.69185
G1 X111.474 Y110.311 E2.69857
G1 X111.548 Y109.893 E2.71042
G1 X111.699 Y109.477 E2.72278
G1 X111.920 Y109.094 E2.73513
G1 X112.205 Y108.755 E2.74749
G1 X112.544 Y108.470 E2.75985
G1 X112.927 Y108.249 E2.77220
G1 X113.326 Y108.104 E2.78405
G1 X113.577 Y108.048 E2.79124
G1 X113.994 Y108.011 E2.80294 F1800.000
G1 X114.440 Y108.050 E2.81543
G1 X114.851 Y108.160 E2.82729
G1 X115.089 Y108.258 E2.83449
G1 X115.452 Y108.467 E2.84618
G1 X115.795 Y108.754 E2.85867
G1 X116.080 Y109.094 E2.87106
G1 X116.303 Y109.481 E2.88353
G1 X116.446 Y109.875 E2.89523
G1 X116.502 Y110.126 E2.90242
G1 X116.539 Y110.548 E2.91423
G1 X116.501 Y110.989 E2.92661
G1 X116.385 Y111.421 E2.93908
G1 X116.207 Y111.801 E2.95079
G1 X116.067 Y112.021 E2.95809
G1 X115.794 Y112.346 E2.96994
G1 X115.528 Y112.570 E2.97964
G1 X115.153 Y112.185 F7800.000
G1 X114.995 Y112.286 E2.98489 F1800.000
G1 X114.684 Y112.430 E2.99445
G1 X114.347 Y112.521 E3.00419
G1 X114.000 Y112.551 E3.01393
G1 X113.653 Y112.521 E3.02367
G1 X113.316 Y112.430 E3.03341
G1 X113.000 Y112.283 E3.04315
G1 X112.723 Y112.090 E3.05257
G1 X112.581 Y111.960 E3.05793
G1 X112.361 Y111.698 E3.06750
G1 X112.186 Y111.396 E3.07724
G1 X112.067 Y111.068 E3.08698
G1 X112.008 Y110.736 E3.09640
G1 X112.000 Y110.550 E3.10158
G1 X112.008 Y110.369 E3.10665
G1 X112.067 Y110.032 E3.11620
G1 X112.186 Y109.704 E3.12594
G1 X112.361 Y109.402 E3.13568
G1 X112.585 Y109.135 E3.14542
G1 X112.852 Y108.911 E3.15516
G1 X113.154 Y108.736 E3.16490
G1 X113.476 Y108.619 E3.17446
G1 X113.659 Y108.579 E3.17970
G1 X113.995 Y108.549 E3.18912 F1800.000
G1 X114.347 Y108.579 E3.19899
G1 X114.678 Y108.668 E3.20855
G1 X114.851 Y108.740 E3.21379
G1 X115.144 Y108.908 E3.22321
G1 X115.415 Y109.135 E3.23308
G1 X115.639 Y109.402 E3.24283
G1 X115.815 Y109.708 E3.25267
G1 X115.931 Y110.025 E3.26210
G1 X115.971 Y110.208 E3.26734
G1 X116.001 Y110.548 E3.27686
G1 X115.971 Y110.896 E3.28662
G1 X115.880 Y111.237 E3.29646
G1 X115.737 Y111.543 E3.30589
G1 X115.634 Y111.704 E3.31122
G1 X115.414 Y111.966 E3.32078
G1 X115.211 Y112.137 E3.32820
G1 X115.170 Y112.372 F7800.000
G1 E1.32820 F2400.00000
G92 E0
G1 X89.076 Y110.550 F7800.000
G1 E2.00000 F2400.00000
G1 X89.030 Y111.084 E2.01497 F1800.000
G1 X88.899 Y111.573 E2.02911
G1 X88.773 Y111.876 E2.03827
G1 X88.520 Y112.315 E2.05240
G1 X88.195 Y112.702 E2.06654
G1 X87.953 Y112.924 E2.07570
G1 X87.538 Y113.214 E2.08983
G1 X87.052 Y113.441 E2.10480
G1 X86.534 Y113.580 E2.11978
G1 X86.000 Y113.626 E2.13475
G1 X85.496 Y113.582 E2.14888
G1 X85.176 Y113.511 E2.15803
G1 X84.706 Y113.341 E2.17201
G1 X84.236 Y113.071 E2.18713
G1 X83.824 Y112.725 E2.20213
G1 X83.479 Y112.314 E2.21712
G1 X83.210 Y111.846 E2.23220
G1 X83.039 Y111.375 E2.24619
G1 X82.968 Y111.056 E2.25533
G1 X82.924 Y110.553 E2.26942
G1 X82.970 Y110.017 E2.28443
G1 X83.110 Y109.495 E2.29952
G1 X83.322 Y109.041 E2.31352
G1 X83.500 Y108.761 E2.32277
G1 X83.826 Y108.373 E2.33692
G1 X84.235 Y108.030 E2.35184
G1 X84.700 Y107.762 E2.36682
G1 X85.175 Y107.589 E2.38096
G1 X85.495 Y107.518 E2.39010
G1 X85.994 Y107.474 E2.40408 F1800.000
G1 X86.533 Y107.520 E2.41919
G1 X87.023 Y107.651 E2.43336
G1 X87.326 Y107.777 E2.44251
G1 X87.759 Y108.027 E2.45648
G1 X88.175 Y108.374 E2.47159
G1 X88.501 Y108.762 E2.48576
G1 X88.677 Y109.039 E2.49491
G1 X88.889 Y109.492 E2.50888
G1 X89.030 Y110.014 E2.52399
G1 X89.070 Y110.475 E2.53690
G1 X88.539 Y110.550 F7800.000
G1 X88.500 Y110.991 E2.54926 F1800.000
G1 X88.390 Y111.401 E2.56111
G1 X88.292 Y111.639 E2.56831
G1 X88.080 Y112.006 E2.58015
G1 X87.807 Y112.331 E2.59200
G1 X87.617 Y112.505 E2.59920
G1 X87.269 Y112.749 E2.61104
G1 X86.868 Y112.936 E2.62340
G1 X86.441 Y113.050 E2.63575
G1 X86.000 Y113.089 E2.64811
G1 X85.577 Y113.052 E2.65996
G1 X85.326 Y112.996 E2.66715
G1 X84.932 Y112.853 E2.67885
G1 X84.544 Y112.630 E2.69135
G1 X84.205 Y112.345 E2.70372
G1 X83.920 Y112.006 E2.71608
G1 X83.697 Y111.619 E2.72855
G1 X83.554 Y111.225 E2.74025
G1 X83.498 Y110.974 E2.74744
G1 X83.461 Y110.552 E2.75925
G1 X83.499 Y110.111 E2.77163
G1 X83.615 Y109.679 E2.78410
G1 X83.793 Y109.299 E2.79581
G1 X83.933 Y109.079 E2.80311
G1 X84.206 Y108.754 E2.81496
G1 X84.544 Y108.471 E2.82727
G1 X84.927 Y108.249 E2.83963
G1 X85.326 Y108.104 E2.85148
G1 X85.577 Y108.048 E2.85867
G1 X85.994 Y108.011 E2.87037 F1800.000
G1 X86.440 Y108.050 E2.88286
G1 X86.851 Y108.160 E2.89473
G1 X87.089 Y108.258 E2.90192
G1 X87.452 Y108.467 E2.91362
G1 X87.795 Y108.754 E2.92610
G1 X88.068 Y109.080 E2.93797
G1 X88.206 Y109.297 E2.94516
G1 X88.384 Y109.677 E2.95686
G1 X88.500 Y110.108 E2.96935
G1 X88.532 Y110.475 E2.97963
G1 X88.001 Y110.550 F7800.000
G1 X87.971 Y110.897 E2.98937 F1800.000
G1 X87.882 Y111.228 E2.99893
G1 X87.810 Y111.401 E3.00417
G1 X87.639 Y111.698 E3.01373
G1 X87.419 Y111.960 E3.02328
G1 X87.281 Y112.087 E3.02852
G1 X87.001 Y112.283 E3.03808
G1 X86.684 Y112.430 E3.04782
G1 X86.347 Y112.521 E3.05756
G1 X86.000 Y112.551 E3.06730
G1 X85.659 Y112.521 E3.07685
G1 X85.476 Y112.481 E3.08209
G1 X85.159 Y112.366 E3.09151
G1 X84.852 Y112.189 E3.10139
G1 X84.585 Y111.965 E3.11113
G1 X84.361 Y111.698 E3.12087
G1 X84.185 Y111.392 E3.13071
G1 X84.069 Y111.075 E3.14014
G1 X84.029 Y110.892 E3.14538
G1 X83.999 Y110.552 E3.15491
G1 X84.029 Y110.204 E3.16466
G1 X84.120 Y109.863 E3.17450
G1 X84.263 Y109.557 E3.18394
G1 X84.366 Y109.396 E3.18927
G1 X84.586 Y109.134 E3.19883
G1 X84.852 Y108.911 E3.20852
G1 X85.154 Y108.736 E3.21827
G1 X85.476 Y108.619 E3.22783
G1 X85.659 Y108.579 E3.23306
G1 X85.995 Y108.549 E3.24249 F1800.000
G1 X86.347 Y108.579 E3.25235
G1 X86.678 Y108.668 E3.26192
G1 X86.851 Y108.740 E3.26715
G1 X87.144 Y108.908 E3.27658
G1 X87.415 Y109.135 E3.28644
G1 X87.635 Y109.397 E3.29601
G1 X87.736 Y109.555 E3.30125
G1 X87.879 Y109.861 E3.31067
G1 X87.971 Y110.202 E3.32054
G1 X87.995 Y110.475 E3.32819
G1 X88.298 Y110.733 F7800.000
G1 E1.32819 F2400.00000
G92 E0
G1 X75.371 Y110.550 F7800.000
G1 E2.00000 F2400.00000
G1 X75.371 Y97.968 E2.35131 F1800.000
G1 X75.383 Y97.829 E2.35520
G1 X75.543 Y97.056 E2.37725
G1 X75.691 Y96.520 E2.39279
G1 X75.881 Y96.004 E2.40814
G1 X76.114 Y95.504 E2.42355
G1 X76.390 Y95.021 E2.43907
G1 X76.705 Y94.564 E2.45457
G1 X77.069 Y94.122 E2.47054
G1 X77.452 Y93.729 E2.48587
G1 X77.873 Y93.365 E2.50142
G1 X78.322 Y93.036 E2.51696
G1 X78.797 Y92.748 E2.53249
G1 X79.296 Y92.499 E2.54805
G1 X79.817 Y92.292 E2.56370
G1 X80.345 Y92.132 E2.57911
G1 X80.896 Y92.015 E2.59483
G1 X81.450 Y91.945 E2.61042
G1 X82.029 Y91.921 E2.62659
G1 X117.970 Y91.921 E3.63017
G1 X118.557 Y91.947 E3.64658
G1 X119.153 Y92.024 E3.66335 F1800.000
G1 X119.712 Y92.148 E3.67935
G1 X120.267 Y92.322 E3.69559
G1 X120.801 Y92.543 E3.71173
G1 X121.313 Y92.810 E3.72785
G1 X121.801 Y93.121 E3.74400
G1 X122.260 Y93.473 E3.76015
G1 X122.686 Y93.864 E3.77630
G1 X123.077 Y94.290 E3.79244
G1 X123.429 Y94.749 E3.80859
G1 X123.739 Y95.236 E3.82472
G1 X124.007 Y95.749 E3.84088
G1 X124.228 Y96.283 E3.85701
G1 X124.402 Y96.835 E3.87317
G1 X124.527 Y97.399 E3.88930
G1 X124.602 Y97.971 E3.90542
G1 X124.629 Y98.580 E3.92243
G1 X124.629 Y122.520 E4.59090
G1 X124.602 Y123.127 E4.60786
G1 X124.527 Y123.701 E4.62403
G1 X124.402 Y124.265 E4.64016
G1 X124.228 Y124.817 E4.65631
G1 X124.006 Y125.352 E4.67250
G1 X123.740 Y125.864 E4.68860
G1 X123.429 Y126.351 E4.70473
G1 X123.077 Y126.810 E4.72088
G1 X122.686 Y127.236 E4.73704
G1 X122.260 Y127.627 E4.75318
G1 X121.801 Y127.979 E4.76932
G1 X121.314 Y128.289 E4.78544
G1 X120.799 Y128.557 E4.80167
G1 X120.271 Y128.776 E4.81762
G1 X119.704 Y128.954 E4.83424
G1 X119.156 Y129.076 E4.84988
G1 X118.577 Y129.152 E4.86620
G1 X117.970 Y129.179 E4.88317
G1 X82.030 Y129.179 E5.88671
G1 X81.422 Y129.152 E5.90369
G1 X80.854 Y129.078 E5.91970
G1 X80.288 Y128.952 E5.93589
G1 X79.733 Y128.778 E5.95213
G1 X79.199 Y128.557 E5.96827
G1 X78.687 Y128.290 E5.98439
G1 X78.199 Y127.979 E6.00055
G1 X77.740 Y127.627 E6.01670
G1 X77.314 Y127.236 E6.03284
G1 X76.924 Y126.811 E6.04896
G1 X76.571 Y126.351 E6.06513
G1 X76.260 Y125.864 E6.08127
G1 X75.993 Y125.351 E6.09742
G1 X75.772 Y124.817 E6.11355
G1 X75.598 Y124.265 E6.12971
G1 X75.473 Y123.701 E6.14584
G1 X75.398 Y123.128 E6.16199
G1 X75.371 Y122.520 E6.17897
G1 X75.371 Y110.625 E6.51112
G1 X74.836 Y110.550 F7800.000
G1 X74.836 Y97.945 E6.86308 F1800.000
G1 X74.853 Y97.752 E6.86849
G1 X75.022 Y96.931 E6.89190
G1 X75.181 Y96.356 E6.90856
G1 X75.386 Y95.798 E6.92516
G1 X75.638 Y95.257 E6.94182
G1 X75.936 Y94.736 E6.95859
G1 X76.277 Y94.241 E6.97535
G1 X76.669 Y93.765 E6.99259
G1 X77.084 Y93.339 E7.00918
G1 X77.539 Y92.945 E7.02598
G1 X78.025 Y92.590 E7.04278
G1 X78.538 Y92.278 E7.05956
G1 X79.077 Y92.010 E7.07638
G1 X79.640 Y91.786 E7.09330
G1 X80.212 Y91.613 E7.10996
G1 X80.806 Y91.487 E7.12694
G1 X81.405 Y91.411 E7.14380
G1 X82.017 Y91.386 E7.16090
G1 X117.982 Y91.386 E8.16512
G1 X118.603 Y91.413 E8.18248
G1 X119.245 Y91.496 E8.20056 F1800.000
G1 X119.851 Y91.630 E8.21788
G1 X120.450 Y91.818 E8.23543
G1 X121.027 Y92.058 E8.25288
G1 X121.581 Y92.346 E8.27031
G1 X122.108 Y92.682 E8.28776
G1 X122.605 Y93.062 E8.30522
G1 X123.065 Y93.485 E8.32268
G1 X123.488 Y93.945 E8.34013
G1 X123.868 Y94.441 E8.35758
G1 X124.204 Y94.968 E8.37502
G1 X124.492 Y95.523 E8.39248
G1 X124.731 Y96.100 E8.40991
G1 X124.919 Y96.696 E8.42738
G1 X125.055 Y97.306 E8.44482
G1 X125.136 Y97.925 E8.46225
G1 X125.164 Y98.568 E8.48024
G1 X125.164 Y122.532 E9.14936
G1 X125.136 Y123.174 E9.16730
G1 X125.055 Y123.794 E9.18477
G1 X124.920 Y124.404 E9.20220
G1 X124.732 Y125.000 E9.21967
G1 X124.492 Y125.579 E9.23716
G1 X124.204 Y126.132 E9.25457
G1 X123.869 Y126.658 E9.27200
G1 X123.488 Y127.154 E9.28946
G1 X123.065 Y127.615 E9.30692
G1 X122.605 Y128.038 E9.32437
G1 X122.109 Y128.418 E9.34182
G1 X121.583 Y128.753 E9.35924
G1 X121.025 Y129.043 E9.37678
G1 X120.454 Y129.280 E9.39404
G1 X119.842 Y129.472 E9.41196
G1 X119.250 Y129.604 E9.42890
G1 X118.624 Y129.686 E9.44652
G1 X117.982 Y129.714 E9.46448
G1 X82.018 Y129.714 E10.46867
G1 X81.376 Y129.686 E10.48663
G1 X80.761 Y129.606 E10.50394
G1 X80.149 Y129.470 E10.52144
G1 X79.550 Y129.282 E10.53898
G1 X78.973 Y129.042 E10.55643
G1 X78.419 Y128.754 E10.57386
G1 X77.891 Y128.418 E10.59133
G1 X77.395 Y128.038 E10.60878
G1 X76.935 Y127.615 E10.62623
G1 X76.513 Y127.155 E10.64365
G1 X76.132 Y126.659 E10.66113
G1 X75.796 Y126.132 E10.67858
G1 X75.508 Y125.577 E10.69603
G1 X75.269 Y125.000 E10.71347
G1 X75.081 Y124.404 E10.73093
G1 X74.945 Y123.794 E10.74837
G1 X74.864 Y123.174 E10.76583
G1 X74.836 Y122.532 E10.78379
G1 X74.836 Y110.625 E11.11626
G1 X74.300 Y110.550 F7800.000
G1 X74.300 Y97.922 E11.46888 F1800.000
G1 X74.322 Y97.674 E11.47581
G1 X74.501 Y96.805 E11.50058
G1 X74.670 Y96.191 E11.51837
G1 X74.891 Y95.592 E11.53621
