; generated by Slic3r 1.2.9 on 2017-08-22 at 16:16:16

; external perimeters extrusion width = 0.50mm
; perimeters extrusion width = 0.72mm
; infill extrusion width = 0.72mm
; solid infill extrusion width = 0.72mm
; top infill extrusion width = 0.72mm

M107
M190 S55 ; set bed temperature
M104 S195 ; set temperature
G28 ; home all axes
G1 Z5 F5000 ; lift nozzle

M109 S195 ; wait for temperature to be reached
G21 ; set units to millimeters
G90 ; use absolute coordinates
M82 ; use absolute distances for extrusion
G92 E0
G1 Z0.300 F7800.000
G1 E-2.00000 F2400.00000
G92 E0
G1 X74.342 Y91.163 F7800.000
G1 E2.00000 F2400.00000
G1 X75.118 Y90.567 E2.02733 F1800.000
G1 X75.941 Y90.038 E2.05465
G1 X76.807 Y89.581 E2.08198
G1 X77.194 Y89.406 E2.09385
G1 X78.108 Y89.058 E2.12117
G1 X79.039 Y88.791 E2.14821
G1 X79.591 Y88.671 E2.16397
G1 X80.559 Y88.529 E2.19130
G1 X81.259 Y88.475 E2.21089
G1 X116.194 Y86.976 E3.18728
G1 X117.033 Y86.971 E3.21070
G1 X117.615 Y86.996 E3.22698 F1800.000
G1 X118.181 Y87.046 E3.24282
G1 X119.303 Y87.219 E3.27453
G1 X120.407 Y87.490 E3.30627
G1 X121.483 Y87.856 E3.33800
G1 X122.523 Y88.314 E3.36973
G1 X123.519 Y88.861 E3.40147
G1 X124.463 Y89.493 E3.43319
G1 X124.915 Y89.840 E3.44910
G1 X125.769 Y90.590 E3.48083
G1 X126.555 Y91.411 E3.51257
G1 X127.266 Y92.298 E3.54430
G1 X127.897 Y93.243 E3.57603
G1 X128.180 Y93.734 E3.59187
G1 X128.677 Y94.741 E3.62322
G1 X128.901 Y95.279 E3.63950
G1 X129.094 Y95.812 E3.65533
G1 X129.412 Y96.903 E3.68706
G1 X129.634 Y98.018 E3.71879
G1 X129.758 Y99.147 E3.75052
G1 X129.783 Y100.283 E3.78225
G1 X129.708 Y101.418 E3.81399
G1 X129.535 Y102.541 E3.84573
G1 X129.266 Y103.645 E3.87746
G1 X128.905 Y104.708 E3.90881
G1 X128.683 Y105.247 E3.92509
G1 X128.180 Y106.266 E3.95682
G1 X127.591 Y107.238 E3.98855
G1 X126.919 Y108.155 E4.02028
G1 X126.170 Y109.009 E4.05202
G1 X125.769 Y109.410 E4.06784
G1 X124.915 Y110.160 E4.09957
G1 X123.999 Y110.833 E4.13132
G1 X123.028 Y111.423 E4.16304
G1 X122.009 Y111.926 E4.19477
G1 X120.950 Y112.338 E4.22650
G1 X120.407 Y112.510 E4.24241
G1 X119.303 Y112.781 E4.27414
G1 X118.180 Y112.954 E4.30587
G1 X117.046 Y113.029 E4.33760
G1 X116.194 Y113.024 E4.36139
G1 X81.259 Y111.525 E5.33778
G1 X80.559 Y111.471 E5.35737
G1 X80.009 Y111.400 E5.37286
G1 X79.049 Y111.212 E5.40018
G1 X78.108 Y110.942 E5.42751
G1 X77.708 Y110.800 E5.43936
G1 X76.807 Y110.419 E5.46669
G1 X76.312 Y110.169 E5.48217
G1 X75.469 Y109.671 E5.50950
G1 X75.118 Y109.433 E5.52135
G1 X74.342 Y108.837 E5.54867
G1 X73.926 Y108.470 E5.56416
G1 X73.236 Y107.776 E5.59149
G1 X72.955 Y107.457 E5.60334
G1 X72.355 Y106.685 E5.63066
G1 X71.822 Y105.863 E5.65800
G1 X71.365 Y105.009 E5.68504
G1 X71.132 Y104.495 E5.70080
G1 X70.789 Y103.579 E5.72813
G1 X70.665 Y103.172 E5.74000
G1 X70.438 Y102.230 E5.76705
G1 X70.342 Y101.675 E5.78279
G1 X70.288 Y101.253 E5.79466
G1 X70.223 Y100.276 E5.82199
G1 X70.241 Y99.309 E5.84902
G1 X70.288 Y98.746 E5.86478
G1 X70.342 Y98.324 E5.87666
G1 X70.526 Y97.363 E5.90398
G1 X70.789 Y96.421 E5.93129
G1 X70.974 Y95.899 E5.94677
G1 X71.132 Y95.505 E5.95862
G1 X71.551 Y94.621 E5.98594
G1 X72.044 Y93.775 E6.01327
G1 X72.355 Y93.315 E6.02876
G1 X72.607 Y92.974 E6.04061
G1 X73.236 Y92.224 E6.06793
G1 X73.619 Y91.824 E6.08342
G1 X74.286 Y91.213 E6.10865
G1 E4.10865 F2400.00000
G92 E0
G1 X83.577 Y102.175 F7800.000
G1 E2.00000 F2400.00000
G1 X83.169 Y102.460 E2.01392 F1800.000
G1 X82.740 Y102.660 E2.02711
G1 X82.470 Y102.745 E2.03504
G1 X82.001 Y102.828 E2.04834
G1 X81.505 Y102.828 E2.06217
G1 X81.014 Y102.741 E2.07609
G1 X80.570 Y102.579 E2.08929
G1 X80.319 Y102.448 E2.09721
G1 X79.928 Y102.175 E2.11052
G1 X79.578 Y101.825 E2.12433
G1 X79.305 Y101.434 E2.13764
G1 X79.174 Y101.183 E2.14557
G1 X79.011 Y100.735 E2.15887
G1 X78.925 Y100.247 E2.17269
G1 X78.925 Y99.752 E2.18652
G1 X79.012 Y99.261 E2.20044
G1 X79.174 Y98.817 E2.21363
G1 X79.305 Y98.566 E2.22156
G1 X79.568 Y98.190 E2.23437
G1 X79.763 Y97.978 E2.24241
G1 X80.125 Y97.674 E2.25559
G1 X80.553 Y97.427 E2.26941
G1 X81.019 Y97.258 E2.28324
G1 X81.510 Y97.172 E2.29716 F1800.000
G1 X81.982 Y97.172 E2.31035
G1 X82.264 Y97.209 E2.31827
G1 X82.724 Y97.332 E2.33158
G1 X83.172 Y97.542 E2.34540
G1 X83.578 Y97.825 E2.35921
G1 X83.928 Y98.175 E2.37303
G1 X84.212 Y98.581 E2.38685
G1 X84.413 Y99.013 E2.40017
G1 X84.499 Y99.288 E2.40821
G1 X84.578 Y99.735 E2.42090
G1 X84.590 Y100.023 E2.42893
G1 X84.549 Y100.493 E2.44212
G1 X84.421 Y100.971 E2.45593
G1 X84.212 Y101.419 E2.46975
G1 X83.928 Y101.825 E2.48356
G1 X83.630 Y102.122 E2.49530
G1 X83.232 Y101.763 F7800.000
G1 X82.900 Y101.995 E2.50660 F1800.000
G1 X82.546 Y102.160 E2.51751
G1 X82.342 Y102.224 E2.52348
G1 X81.954 Y102.292 E2.53450
G1 X81.552 Y102.292 E2.54570
G1 X81.154 Y102.222 E2.55700
G1 X80.787 Y102.088 E2.56792
G1 X80.597 Y101.989 E2.57388
G1 X80.274 Y101.763 E2.58490
G1 X79.990 Y101.479 E2.59610
G1 X79.764 Y101.156 E2.60712
G1 X79.665 Y100.966 E2.61309
G1 X79.530 Y100.596 E2.62410
G1 X79.461 Y100.201 E2.63530
G1 X79.461 Y99.799 E2.64651
G1 X79.531 Y99.401 E2.65781
G1 X79.665 Y99.034 E2.66872
G1 X79.764 Y98.844 E2.67469
G1 X79.987 Y98.526 E2.68553
G1 X80.134 Y98.366 E2.69160
G1 X80.433 Y98.115 E2.70251
G1 X80.781 Y97.914 E2.71371
G1 X81.158 Y97.777 E2.72491
G1 X81.556 Y97.707 E2.73621 F1800.000
G1 X81.947 Y97.708 E2.74713
G1 X82.159 Y97.736 E2.75309
G1 X82.540 Y97.838 E2.76411
G1 X82.904 Y98.007 E2.77531
G1 X83.232 Y98.237 E2.78651
G1 X83.516 Y98.521 E2.79771
G1 X83.746 Y98.849 E2.80891
G1 X83.913 Y99.207 E2.81994
G1 X83.978 Y99.415 E2.82600
G1 X84.044 Y99.793 E2.83674
G1 X84.053 Y100.010 E2.84281
G1 X84.019 Y100.400 E2.85372
G1 X83.915 Y100.787 E2.86492
G1 X83.746 Y101.151 E2.87612
G1 X83.516 Y101.479 E2.88732
G1 X83.285 Y101.710 E2.89643
G1 X83.290 Y102.163 F7800.000
G1 X113.289 Y100.301 F7800.000
G1 X113.291 Y99.685 E2.91362 F1800.000
G1 X113.390 Y99.129 E2.92939
G1 X113.499 Y98.784 E2.93950
G1 X113.742 Y98.262 E2.95558
G1 X114.090 Y97.765 E2.97250
G1 X114.497 Y97.358 E2.98858
G1 X114.785 Y97.137 E2.99872
G1 X115.284 Y96.849 E3.01480
G1 X115.855 Y96.641 E3.03178
G1 X116.462 Y96.536 E3.04898 F1800.000
G1 X117.027 Y96.537 E3.06474
G1 X117.386 Y96.584 E3.07485
G1 X117.942 Y96.733 E3.09093
G1 X118.491 Y96.989 E3.10785
G1 X118.988 Y97.337 E3.12478
G1 X119.395 Y97.744 E3.14086
G1 X119.616 Y98.032 E3.15099
G1 X119.904 Y98.531 E3.16707
G1 X120.111 Y99.100 E3.18399
G1 X120.211 Y99.667 E3.20007
G1 X120.227 Y100.030 E3.21021
G1 X120.177 Y100.604 E3.22629
G1 X120.020 Y101.189 E3.24321
G1 X119.764 Y101.738 E3.26013
G1 X119.416 Y102.235 E3.27705
G1 X118.988 Y102.663 E3.29397
G1 X118.516 Y102.993 E3.31005
G1 X118.194 Y103.161 E3.32019
G1 X117.653 Y103.358 E3.33627
G1 X117.056 Y103.463 E3.35319
G1 X116.480 Y103.463 E3.36927
G1 X116.120 Y103.416 E3.37940
G1 X115.564 Y103.267 E3.39548
G1 X115.015 Y103.011 E3.41240
G1 X114.518 Y102.663 E3.42932
G1 X114.111 Y102.256 E3.44540
G1 X113.890 Y101.968 E3.45554
G1 X113.602 Y101.469 E3.47162
G1 X113.395 Y100.900 E3.48854
G1 X113.302 Y100.375 E3.50343
G1 X113.825 Y100.255 F7800.000
G1 X113.827 Y99.733 E3.51800 F1800.000
G1 X113.911 Y99.257 E3.53150
G1 X113.999 Y98.978 E3.53966
G1 X114.208 Y98.531 E3.55345
G1 X114.502 Y98.111 E3.56775
G1 X114.851 Y97.762 E3.58155
G1 X115.083 Y97.583 E3.58972
G1 X115.511 Y97.337 E3.60351
G1 X115.994 Y97.161 E3.61785
G1 X116.508 Y97.072 E3.63242 F1800.000
G1 X116.991 Y97.072 E3.64592
G1 X117.281 Y97.111 E3.65408
G1 X117.758 Y97.238 E3.66788
G1 X118.222 Y97.455 E3.68218
G1 X118.642 Y97.749 E3.69648
G1 X118.991 Y98.098 E3.71028
G1 X119.170 Y98.330 E3.71845
G1 X119.417 Y98.758 E3.73224
G1 X119.592 Y99.239 E3.74655
G1 X119.678 Y99.726 E3.76034
G1 X119.690 Y100.018 E3.76851
G1 X119.647 Y100.510 E3.78230
G1 X119.515 Y101.005 E3.79661
G1 X119.298 Y101.469 E3.81091
G1 X119.004 Y101.889 E3.82521
G1 X118.642 Y102.251 E3.83952
G1 X118.238 Y102.535 E3.85331
G1 X117.978 Y102.670 E3.86148
G1 X117.514 Y102.839 E3.87528
G1 X117.009 Y102.928 E3.88958
G1 X116.515 Y102.928 E3.90337
G1 X116.225 Y102.889 E3.91155
G1 X115.748 Y102.762 E3.92534
G1 X115.284 Y102.545 E3.93964
G1 X114.864 Y102.251 E3.95395
G1 X114.515 Y101.902 E3.96774
G1 X114.337 Y101.670 E3.97591
G1 X114.090 Y101.242 E3.98970
G1 X113.914 Y100.761 E4.00401
G1 X113.838 Y100.329 E4.01625
G1 X114.361 Y100.209 F7800.000
G1 X114.362 Y99.781 E4.02820 F1800.000
G1 X114.433 Y99.385 E4.03943
G1 X114.500 Y99.173 E4.04564
G1 X114.674 Y98.799 E4.05715
G1 X114.914 Y98.457 E4.06883
G1 X115.205 Y98.165 E4.08034
G1 X115.382 Y98.030 E4.08655
G1 X115.738 Y97.824 E4.09805
G1 X116.132 Y97.681 E4.10975
G1 X116.554 Y97.608 E4.12170 F1800.000
G1 X116.956 Y97.608 E4.13293
G1 X117.176 Y97.637 E4.13914
G1 X117.574 Y97.744 E4.15064
G1 X117.954 Y97.921 E4.16233
G1 X118.297 Y98.161 E4.17402
G1 X118.588 Y98.452 E4.18552
G1 X118.723 Y98.628 E4.19173
G1 X118.929 Y98.985 E4.20324
G1 X119.072 Y99.379 E4.21492
G1 X119.144 Y99.784 E4.22643
G1 X119.154 Y100.007 E4.23264
G1 X119.118 Y100.417 E4.24414
G1 X119.009 Y100.821 E4.25583
G1 X118.833 Y101.201 E4.26752
G1 X118.592 Y101.543 E4.27920
G1 X118.297 Y101.839 E4.29089
G1 X117.959 Y102.076 E4.30239
G1 X117.762 Y102.178 E4.30861
G1 X117.375 Y102.319 E4.32011
G1 X116.962 Y102.392 E4.33180
G1 X116.550 Y102.392 E4.34330
G1 X116.330 Y102.363 E4.34952
G1 X115.932 Y102.256 E4.36102
G1 X115.553 Y102.079 E4.37271
G1 X115.210 Y101.839 E4.38439
G1 X114.918 Y101.548 E4.39590
G1 X114.783 Y101.372 E4.40211
G1 X114.577 Y101.015 E4.41361
G1 X114.434 Y100.621 E4.42530
G1 X114.374 Y100.283 E4.43490
G1 X113.979 Y100.016 F7800.000
G1 X82.073 Y103.359 F7800.000
G1 X82.597 Y103.267 E4.44976 F1800.000
G1 X82.935 Y103.160 E4.45965
G1 X83.437 Y102.926 E4.47512
G1 X83.923 Y102.587 E4.49166
G1 X84.340 Y102.170 E4.50812
G1 X84.677 Y101.688 E4.52455
G1 X84.926 Y101.155 E4.54099
G1 X85.078 Y100.587 E4.55741
G1 X85.127 Y100.035 E4.57287
G1 X85.112 Y99.678 E4.58286
G1 X85.021 Y99.161 E4.59752
G1 X84.914 Y98.819 E4.60752
G1 X84.677 Y98.312 E4.62314
G1 X84.340 Y97.830 E4.63958
G1 X83.923 Y97.413 E4.65601
G1 X83.441 Y97.076 E4.67244
G1 X82.908 Y96.827 E4.68888
G1 X82.368 Y96.683 E4.70447
G1 X82.097 Y96.647 E4.71211
G1 X82.110 Y96.353 E4.72034
G1 X116.503 Y94.877 E5.68157
G1 X116.969 Y94.878 E5.69456
G1 X117.427 Y94.917 E5.70741
G1 X117.866 Y94.995 E5.71986
G1 X118.298 Y95.111 E5.73234
G1 X118.718 Y95.264 E5.74483
G1 X119.123 Y95.453 E5.75731
G1 X119.510 Y95.677 E5.76979
G1 X119.876 Y95.933 E5.78228
G1 X120.219 Y96.221 E5.79476
G1 X120.535 Y96.537 E5.80725
G1 X120.822 Y96.880 E5.81973
G1 X121.078 Y97.246 E5.83221
G1 X121.302 Y97.633 E5.84470
G1 X121.491 Y98.039 E5.85718
G1 X121.643 Y98.459 E5.86967
G1 X121.759 Y98.891 E5.88215
G1 X121.837 Y99.331 E5.89464
G1 X121.876 Y99.776 E5.90712
G1 X121.876 Y100.224 E5.91960
G1 X121.837 Y100.669 E5.93209
G1 X121.759 Y101.109 E5.94457
G1 X121.643 Y101.541 E5.95706
G1 X121.491 Y101.961 E5.96954
G1 X121.302 Y102.367 E5.98203
G1 X121.078 Y102.754 E5.99451
G1 X120.829 Y103.111 E6.00667
G1 X120.534 Y103.464 E6.01951
G1 X120.219 Y103.779 E6.03196
G1 X119.876 Y104.067 E6.04445
G1 X119.510 Y104.323 E6.05693
G1 X119.123 Y104.547 E6.06941
G1 X118.718 Y104.736 E6.08190
G1 X118.298 Y104.889 E6.09438
G1 X117.866 Y105.005 E6.10687
G1 X117.426 Y105.083 E6.11935
G1 X116.980 Y105.122 E6.13184
G1 X116.503 Y105.123 E6.14516
G1 X82.092 Y103.647 E7.10689
G1 X82.078 Y103.434 E7.11284
G1 X82.038 Y104.180 F7800.000
G1 X81.223 Y104.130 E7.13565 F1800.000
G1 X80.874 Y104.070 E7.14552
G1 X80.533 Y103.981 E7.15538
G1 X80.199 Y103.863 E7.16525
G1 X79.877 Y103.717 E7.17512
G1 X79.569 Y103.545 E7.18498
G1 X79.276 Y103.347 E7.19485
G1 X79.002 Y103.125 E7.20471
G1 X78.747 Y102.880 E7.21458
G1 X78.513 Y102.615 E7.22444
G1 X78.303 Y102.331 E7.23431
G1 X78.118 Y102.030 E7.24418
G1 X77.959 Y101.715 E7.25404
G1 X77.827 Y101.387 E7.26391
G1 X77.724 Y101.049 E7.27377
G1 X77.649 Y100.703 E7.28364
G1 X77.604 Y100.353 E7.29350
G1 X77.589 Y100.000 E7.30337
G1 X77.604 Y99.647 E7.31324
G1 X77.649 Y99.297 E7.32310
G1 X77.722 Y98.960 E7.33272
G1 X77.827 Y98.613 E7.34285
G1 X77.959 Y98.285 E7.35270
G1 X78.118 Y97.970 E7.36256
G1 X78.303 Y97.669 E7.37243
G1 X78.513 Y97.385 E7.38229
G1 X78.747 Y97.120 E7.39216
G1 X79.002 Y96.875 E7.40203
G1 X79.276 Y96.653 E7.41189
G1 X79.569 Y96.455 E7.42176
G1 X79.877 Y96.283 E7.43162
G1 X80.191 Y96.141 E7.44124
G1 X80.533 Y96.019 E7.45138
G1 X80.874 Y95.930 E7.46122
G1 X81.223 Y95.870 E7.47108
G1 X81.592 Y95.839 E7.48145
G1 X116.492 Y94.342 E8.45683
G1 X116.992 Y94.342 E8.47079
G1 X117.497 Y94.386 E8.48494 F1800.000
G1 X117.982 Y94.471 E8.49871
G1 X118.459 Y94.600 E8.51250
G1 X118.923 Y94.769 E8.52629
G1 X119.371 Y94.978 E8.54008
G1 X119.798 Y95.225 E8.55387
G1 X120.203 Y95.508 E8.56766
G1 X120.581 Y95.826 E8.58145
G1 X120.930 Y96.175 E8.59524
G1 X121.247 Y96.554 E8.60903
G1 X121.531 Y96.958 E8.62282
G1 X121.777 Y97.386 E8.63661
G1 X121.986 Y97.834 E8.65040
G1 X122.155 Y98.298 E8.66419
G1 X122.283 Y98.775 E8.67798
G1 X122.368 Y99.261 E8.69176
G1 X122.411 Y99.753 E8.70555
G1 X122.411 Y100.247 E8.71934
G1 X122.368 Y100.739 E8.73313
G1 X122.283 Y101.225 E8.74692
G1 X122.155 Y101.702 E8.76071
G1 X121.986 Y102.166 E8.77450
G1 X121.777 Y102.614 E8.78829
G1 X121.531 Y103.042 E8.80208
G1 X121.254 Y103.436 E8.81553
G1 X120.929 Y103.825 E8.82968
G1 X120.581 Y104.174 E8.84345
G1 X120.203 Y104.492 E8.85724
G1 X119.798 Y104.775 E8.87103
G1 X119.371 Y105.022 E8.88482
G1 X118.923 Y105.231 E8.89861
G1 X118.459 Y105.400 E8.91240
G1 X117.982 Y105.529 E8.92619
G1 X117.496 Y105.615 E8.93998
G1 X117.004 Y105.658 E8.95377
G1 X116.492 Y105.658 E8.96806
G1 X82.113 Y104.184 E9.92890
G1 X82.015 Y104.716 F7800.000
G1 X81.154 Y104.661 E9.95298 F1800.000
G1 X80.761 Y104.594 E9.96412
G1 X80.375 Y104.493 E9.97526
G1 X79.999 Y104.360 E9.98639
G1 X79.636 Y104.196 E9.99753
G1 X79.288 Y104.001 E10.00866
G1 X78.958 Y103.778 E10.01980
G1 X78.647 Y103.527 E10.03094
G1 X78.359 Y103.251 E10.04207
G1 X78.096 Y102.952 E10.05321
G1 X77.859 Y102.631 E10.06434
G1 X77.650 Y102.291 E10.07548
G1 X77.470 Y101.935 E10.08662
G1 X77.322 Y101.565 E10.09775
G1 X77.205 Y101.184 E10.10889
G1 X77.121 Y100.794 E10.12002
G1 X77.070 Y100.398 E10.13116
G1 X77.053 Y100.000 E10.14230
G1 X77.070 Y99.602 E10.15343
G1 X77.121 Y99.206 E10.16457
G1 X77.203 Y98.825 E10.17544
G1 X77.322 Y98.434 E10.18685
G1 X77.470 Y98.065 E10.19797
G1 X77.650 Y97.709 E10.20911
G1 X77.859 Y97.369 E10.22025
G1 X78.096 Y97.048 E10.23138
G1 X78.359 Y96.749 E10.24252
G1 X78.647 Y96.473 E10.25365
G1 X78.958 Y96.222 E10.26479
G1 X79.288 Y95.999 E10.27593
G1 X79.636 Y95.804 E10.28706
G1 X79.991 Y95.644 E10.29793
G1 X80.376 Y95.507 E10.30934
G1 X80.761 Y95.406 E10.32047
G1 X81.154 Y95.339 E10.33161
G1 X81.558 Y95.304 E10.34292
G1 X116.481 Y93.806 E11.31895
G1 X117.015 Y93.806 E11.33387
G1 X117.567 Y93.854 E11.34933 F1800.000
G1 X118.099 Y93.948 E11.36442
G1 X118.621 Y94.088 E11.37951
G1 X119.129 Y94.274 E11.39461
G1 X119.619 Y94.502 E11.40970
G1 X120.087 Y94.773 E11.42480
G1 X120.529 Y95.083 E11.43989
G1 X120.943 Y95.431 E11.45499
G1 X121.325 Y95.813 E11.47008
G1 X121.673 Y96.227 E11.48518
G1 X121.983 Y96.670 E11.50027
G1 X122.253 Y97.139 E11.51537
G1 X122.481 Y97.629 E11.53046
G1 X122.666 Y98.137 E11.54556
G1 X122.806 Y98.659 E11.56065
G1 X122.900 Y99.191 E11.57575
G1 X122.947 Y99.730 E11.59084
G1 X122.947 Y100.270 E11.60594
G1 X122.900 Y100.809 E11.62103
G1 X122.806 Y101.341 E11.63613
G1 X122.666 Y101.863 E11.65122
G1 X122.481 Y102.371 E11.66632
G1 X122.253 Y102.861 E11.68141
G1 X121.983 Y103.330 E11.69651
G1 X121.680 Y103.762 E11.71124
G1 X121.325 Y104.187 E11.72670
G1 X120.943 Y104.569 E11.74179
G1 X120.529 Y104.917 E11.75688
G1 X120.087 Y105.227 E11.77198
G1 X119.619 Y105.498 E11.78707
G1 X119.129 Y105.726 E11.80217
G1 X118.621 Y105.912 E11.81726
G1 X118.099 Y106.052 E11.83236
G1 X117.566 Y106.146 E11.84745
G1 X117.028 Y106.194 E11.86255
G1 X116.481 Y106.194 E11.87783
G1 X82.090 Y104.719 E12.83899
G1 X81.790 Y104.269 F7800.000
G1 X81.816 Y103.536 F7800.000
G1 X81.307 Y103.469 E12.86938 F1800.000
G1 X80.876 Y103.387 E12.89539
G1 X80.327 Y103.195 E12.92980
G1 X79.953 Y103.001 E12.95476
G1 X79.673 Y102.810 E12.97479
