; generated by Slic3r 1.2.9 on 2017-08-23 at 11:17:53

; external perimeters extrusion width = 0.50mm
; perimeters extrusion width = 0.72mm
; infill extrusion width = 0.72mm
; solid infill extrusion width = 0.72mm
; top infill extrusion width = 0.72mm

M107
M190 S55 ; set bed temperature
M104 S195 ; set temperature
G28 ; home all axes
G1 Z5 F5000 ; lift nozzle

M109 S195 ; wait for temperature to be reached
G21 ; set units to millimeters
G90 ; use absolute coordinates
M82 ; use absolute distances for extrusion
G92 E0
G1 Z0.300 F7800.000
G1 E-2.00000 F2400.00000
G92 E0
G1 X76.044 Y60.156 F7800.000
G1 E2.00000 F2400.00000
G1 X77.092 Y58.886 E2.04596 F1800.000
G1 X77.451 Y58.485 E2.06097
G1 X78.598 Y57.306 E2.10693
G1 X78.989 Y56.936 E2.12195
G1 X80.230 Y55.855 E2.16791
G1 X80.650 Y55.519 E2.18293
G1 X81.896 Y54.602 E2.22613
G1 X82.422 Y54.243 E2.24390
G1 X83.823 Y53.380 E2.28986
G1 X84.292 Y53.117 E2.30488
G1 X85.760 Y52.372 E2.35084
G1 X86.249 Y52.149 E2.36585
G1 X87.773 Y51.527 E2.41181
G1 X88.279 Y51.344 E2.42683
G1 X89.849 Y50.850 E2.47278
G1 X90.368 Y50.710 E2.48780
G1 X91.974 Y50.346 E2.53376
G1 X92.503 Y50.249 E2.54878
G1 X94.132 Y50.019 E2.59474
G1 X94.615 Y49.969 E2.60828
G1 X97.914 Y49.750 E2.70062
G1 X98.347 Y49.736 E2.71269
G1 X101.653 Y49.736 E2.80503
G1 X102.086 Y49.750 E2.81710
G1 X105.385 Y49.969 E2.90944 F1800.000
G1 X105.868 Y50.019 E2.92298
G1 X107.498 Y50.249 E2.96894
G1 X108.026 Y50.346 E2.98396
G1 X109.632 Y50.710 E3.02992
G1 X110.151 Y50.850 E3.04493
G1 X111.627 Y51.315 E3.08813
G1 X112.227 Y51.527 E3.10591
G1 X113.751 Y52.149 E3.15187
G1 X114.240 Y52.372 E3.16688
G1 X115.620 Y53.072 E3.21008
G1 X116.177 Y53.380 E3.22786
G1 X117.578 Y54.243 E3.27382
G1 X118.024 Y54.544 E3.28883
G1 X119.270 Y55.460 E3.33203
G1 X119.770 Y55.855 E3.34981
G1 X121.011 Y56.936 E3.39576
G1 X121.401 Y57.306 E3.41078
G1 X122.549 Y58.485 E3.45674
G1 X122.908 Y58.886 E3.47176
G1 X123.956 Y60.156 E3.51772
G1 X124.280 Y60.585 E3.53273
G1 X125.219 Y61.936 E3.57869
G1 X125.508 Y62.390 E3.59371
G1 X150.733 Y106.081 E5.00239
G1 X150.982 Y106.558 E5.01741
G1 X151.683 Y108.047 E5.06337
G1 X151.891 Y108.542 E5.07838
G1 X152.468 Y110.084 E5.12435
G1 X152.635 Y110.595 E5.13936
G1 X153.083 Y112.179 E5.18532
G1 X153.207 Y112.702 E5.20034
G1 X153.523 Y114.318 E5.24629
G1 X153.604 Y114.849 E5.26131
G1 X153.786 Y116.485 E5.30727
G1 X153.824 Y117.022 E5.32229
G1 X153.870 Y118.667 E5.36825
G1 X153.863 Y119.205 E5.38326
G1 X153.775 Y120.848 E5.42922
G1 X153.724 Y121.384 E5.44424
G1 X153.500 Y123.014 E5.49020
G1 X153.405 Y123.544 E5.50521
G1 X153.048 Y125.151 E5.55118
G1 X152.910 Y125.670 E5.56619
G1 X152.422 Y127.242 E5.61215
G1 X152.242 Y127.749 E5.62716
G1 X151.626 Y129.275 E5.67313
G1 X151.429 Y129.718 E5.68667
G1 X149.968 Y132.685 E5.77901
G1 X149.764 Y133.066 E5.79108
G1 X148.111 Y135.930 E5.88342
G1 X147.882 Y136.297 E5.89549
G1 X146.043 Y139.046 E5.98783
G1 X145.759 Y139.439 E6.00137
G1 X144.744 Y140.735 E6.04733
G1 X144.396 Y141.144 E6.06234
G1 X143.278 Y142.353 E6.10831
G1 X142.897 Y142.732 E6.12332
G1 X141.757 Y143.778 E6.16652
G1 X141.273 Y144.192 E6.18429
G1 X139.973 Y145.201 E6.23025
G1 X139.535 Y145.513 E6.24527
G1 X138.156 Y146.411 E6.29123
G1 X137.693 Y146.686 E6.30624
G1 X136.245 Y147.468 E6.35221
G1 X135.762 Y147.704 E6.36722
G1 X134.254 Y148.365 E6.41318
G1 X133.753 Y148.560 E6.42820
G1 X132.197 Y149.094 E6.47415
G1 X131.681 Y149.248 E6.48917
G1 X130.085 Y149.652 E6.53514
G1 X129.559 Y149.763 E6.55015
G1 X128.033 Y150.018 E6.59335
G1 X127.402 Y150.101 E6.61112
G1 X125.762 Y150.239 E6.65708
G1 X125.225 Y150.262 E6.67210
G1 X74.775 Y150.262 E8.08078
G1 X74.238 Y150.239 E8.09580
G1 X72.598 Y150.101 E8.14176
G1 X72.064 Y150.035 E8.15677
G1 X70.441 Y149.763 E8.20273
G1 X69.914 Y149.652 E8.21775
G1 X68.319 Y149.248 E8.26371
G1 X67.803 Y149.094 E8.27872
G1 X66.247 Y148.560 E8.32468
G1 X65.746 Y148.365 E8.33970
G1 X64.872 Y147.982 E8.36634
G1 X63.755 Y147.468 E8.40067
G1 X62.307 Y146.686 E8.44663
G1 X61.844 Y146.411 E8.46164
G1 X60.465 Y145.513 E8.50760
G1 X60.027 Y145.201 E8.52262
G1 X58.727 Y144.192 E8.56858
G1 X58.316 Y143.845 E8.58359
G1 X57.103 Y142.732 E8.62955
G1 X56.722 Y142.353 E8.64457
G1 X55.604 Y141.144 E8.69053
G1 X55.256 Y140.735 E8.70555
G1 X54.241 Y139.438 E8.75151
G1 X53.957 Y139.046 E8.76505
G1 X52.118 Y136.297 E8.85739
G1 X51.391 Y135.067 E8.89728
G1 X50.032 Y132.685 E8.97386
G1 X48.571 Y129.718 E9.06620
G1 X48.374 Y129.275 E9.07974
G1 X47.758 Y127.749 E9.12570
G1 X47.578 Y127.242 E9.14072
G1 X47.119 Y125.764 E9.18392
G1 X46.952 Y125.150 E9.20169
G1 X46.595 Y123.544 E9.24765
G1 X46.500 Y123.014 E9.26266
G1 X46.290 Y121.481 E9.30587
G1 X46.225 Y120.848 E9.32364
G1 X46.137 Y119.205 E9.36960
G1 X46.130 Y118.667 E9.38461
G1 X46.176 Y117.022 E9.43057
G1 X46.214 Y116.485 E9.44559
G1 X46.385 Y114.947 E9.48879
G1 X46.477 Y114.318 E9.50656
G1 X46.793 Y112.702 E9.55252
G1 X46.917 Y112.179 E9.56754
G1 X47.365 Y110.595 E9.61350
G1 X47.532 Y110.084 E9.62851
G1 X48.074 Y108.635 E9.67171
G1 X48.317 Y108.047 E9.68949
G1 X49.018 Y106.558 E9.73545
G1 X49.267 Y106.081 E9.75046
G1 X74.492 Y62.390 E11.15915
G1 X74.781 Y61.936 E11.17416
G1 X75.720 Y60.585 E11.22012
G1 X75.999 Y60.216 E11.23305
G1 E9.23305 F2400.00000
G92 E0
G1 X130.009 Y116.838 F7800.000
G1 E2.00000 F2400.00000
G1 X129.916 Y117.133 E2.00863 F1800.000
G1 X128.854 Y119.699 E2.08618
G1 X127.571 Y122.162 E2.16374
G1 X126.079 Y124.505 E2.24129
G1 X124.379 Y126.719 E2.31923
G1 X122.512 Y128.756 E2.39639
G1 X120.464 Y130.632 E2.47394
G1 X118.261 Y132.323 E2.55149
G1 X115.918 Y133.815 E2.62904
G1 X113.464 Y135.093 E2.70629
G1 X112.379 Y135.575 E2.73945
G1 X111.961 Y135.711 E2.75173
G1 X111.687 Y135.763 E2.75951
G1 X111.220 Y135.790 E2.77258
G1 X110.737 Y135.734 E2.78615
G1 X110.288 Y135.603 E2.79921
G1 X110.033 Y135.491 E2.80700
G1 X109.632 Y135.249 E2.82007
G1 X109.265 Y134.931 E2.83363
G1 X108.957 Y134.555 E2.84720
G1 X108.727 Y134.147 E2.86027
G1 X108.622 Y133.889 E2.86806
G1 X108.503 Y133.436 E2.88112
G1 X108.464 Y132.988 E2.89369
G1 X108.464 Y79.501 E4.38719
G1 X108.503 Y79.052 E4.39976
G1 X108.626 Y78.582 E4.41333
G1 X108.828 Y78.140 E4.42690
G1 X109.103 Y77.739 E4.44047
G1 X109.441 Y77.391 E4.45403
G1 X109.835 Y77.105 E4.46760
G1 X110.271 Y76.891 E4.48117
G1 X110.720 Y76.759 E4.49424
G1 X110.995 Y76.716 E4.50203
G1 X111.463 Y76.702 E4.51509 F1800.000
G1 X111.926 Y76.769 E4.52816
G1 X112.199 Y76.845 E4.53606
G1 X113.461 Y77.394 E4.57450
G1 X115.918 Y78.673 E4.65184
G1 X118.261 Y80.165 E4.72940
G1 X120.464 Y81.856 E4.80695
G1 X122.512 Y83.733 E4.88450
G1 X124.388 Y85.780 E4.96205
G1 X126.079 Y87.984 E5.03960
G1 X127.571 Y90.326 E5.11715
G1 X128.854 Y92.790 E5.19470
G1 X129.916 Y95.356 E5.27225
G1 X130.752 Y98.004 E5.34981
G1 X131.353 Y100.716 E5.42736
G1 X131.715 Y103.470 E5.50491
G1 X131.836 Y106.244 E5.58246
G1 X131.715 Y109.019 E5.66001
G1 X131.353 Y111.773 E5.73756
G1 X130.752 Y114.484 E5.81511
G1 X130.032 Y116.767 E5.88194
G1 X129.499 Y116.677 F7800.000
G1 X129.413 Y116.950 E5.88992 F1800.000
G1 X128.368 Y119.472 E5.96616
G1 X127.107 Y121.894 E6.04241
G1 X125.640 Y124.197 E6.11866
G1 X123.968 Y126.374 E6.19529
G1 X122.133 Y128.377 E6.27114
G1 X120.119 Y130.222 E6.34739
G1 X117.953 Y131.884 E6.42363
G1 X115.650 Y133.351 E6.49988
G1 X113.231 Y134.610 E6.57602
G1 X112.187 Y135.075 E6.60794
G1 X111.828 Y135.191 E6.61847
G1 X111.622 Y135.230 E6.62433
G1 X111.235 Y135.252 E6.63515
G1 X110.844 Y135.208 E6.64615
G1 X110.472 Y135.098 E6.65697
G1 X110.280 Y135.014 E6.66283
G1 X109.948 Y134.814 E6.67365
G1 X109.650 Y134.556 E6.68465
G1 X109.401 Y134.251 E6.69565
G1 X109.210 Y133.914 E6.70647
G1 X109.131 Y133.719 E6.71233
G1 X109.033 Y133.345 E6.72315
G1 X109.000 Y132.965 E6.73379
G1 X109.000 Y79.524 E8.22601
G1 X109.033 Y79.144 E8.23665
G1 X109.133 Y78.763 E8.24765
G1 X109.296 Y78.405 E8.25865
G1 X109.519 Y78.080 E8.26965
G1 X109.793 Y77.797 E8.28065
G1 X110.112 Y77.566 E8.29164
G1 X110.466 Y77.392 E8.30264
G1 X110.837 Y77.283 E8.31346
G1 X111.045 Y77.250 E8.31933
G1 X111.432 Y77.239 E8.33014 F1800.000
G1 X111.816 Y77.294 E8.34096
G1 X112.019 Y77.351 E8.34687
G1 X113.230 Y77.878 E8.38374
G1 X115.650 Y79.137 E8.45991
G1 X117.953 Y80.605 E8.53616
G1 X120.119 Y82.267 E8.61240
G1 X122.133 Y84.112 E8.68865
G1 X123.977 Y86.125 E8.76490
G1 X125.640 Y88.291 E8.84114
G1 X127.107 Y90.594 E8.91739
G1 X128.368 Y93.016 E8.99363
G1 X129.413 Y95.539 E9.06988
G1 X130.234 Y98.143 E9.14612
G1 X130.825 Y100.809 E9.22237
G1 X131.181 Y103.516 E9.29861
G1 X131.300 Y106.244 E9.37486
G1 X131.181 Y108.972 E9.45110
G1 X130.825 Y111.679 E9.52735
G1 X130.234 Y114.345 E9.60359
G1 X129.521 Y116.605 E9.66976
G1 X129.692 Y116.888 F7800.000
G1 E7.66976 F2400.00000
G92 E0
G1 X107.929 Y87.473 F7800.000
G1 E2.00000 F2400.00000
G1 X92.071 Y87.473 E2.44278 F1800.000
G1 X92.071 Y85.215 E2.50582
G1 X107.929 Y85.215 E2.94860
G1 X107.929 Y87.398 E3.00954
G1 X107.136 Y84.680 F7800.000
G1 X92.864 Y84.680 E3.40803 F1800.000
G1 X92.864 Y75.201 E3.67272
G1 X94.484 Y74.890 E3.71876
G1 X97.239 Y74.528 E3.79636
G1 X100.000 Y74.408 E3.87352
G1 X102.775 Y74.529 E3.95107
G1 X105.516 Y74.890 E4.02829
G1 X107.136 Y75.201 E4.07432
G1 X107.136 Y84.605 E4.33691
G1 X106.600 Y84.144 F7800.000
G1 X93.400 Y84.144 E4.70549 F1800.000
G1 X93.400 Y75.643 E4.94286
G1 X94.569 Y75.419 E4.97610
G1 X97.286 Y75.062 E5.05262
G1 X100.000 Y74.944 E5.12847
G1 X102.728 Y75.063 E5.20471
G1 X105.431 Y75.419 E5.28084
G1 X106.600 Y75.643 E5.31408
G1 X106.600 Y84.069 E5.54935
G1 X106.600 Y84.644 F7800.000
G1 X91.536 Y84.144 F7800.000
G1 X91.536 Y132.988 E6.91319 F1800.000
G1 X91.499 Y133.418 E6.92526
G1 X91.439 Y133.691 E6.93304
G1 X91.282 Y134.132 E6.94611
G1 X91.043 Y134.555 E6.95968
G1 X90.735 Y134.931 E6.97325
G1 X90.368 Y135.249 E6.98682
G1 X89.967 Y135.491 E6.99988
G1 X89.712 Y135.603 E7.00767
G1 X89.263 Y135.734 E7.02074
G1 X88.780 Y135.790 E7.03430
G1 X88.313 Y135.763 E7.04737
G1 X88.039 Y135.711 E7.05516
G1 X87.621 Y135.575 E7.06743
G1 X86.536 Y135.093 E7.10059
G1 X84.082 Y133.815 E7.17784
G1 X81.739 Y132.323 E7.25539
G1 X79.536 Y130.632 E7.33294
G1 X77.488 Y128.756 E7.41050
G1 X75.612 Y126.708 E7.48805
G1 X73.921 Y124.505 E7.56560
G1 X72.429 Y122.162 E7.64315
G1 X71.146 Y119.699 E7.72070
G1 X70.084 Y117.133 E7.79825
G1 X69.248 Y114.484 E7.87580
G1 X68.647 Y111.773 E7.95335
G1 X68.285 Y109.019 E8.03091
G1 X68.164 Y106.244 E8.10846
G1 X68.285 Y103.470 E8.18601
G1 X68.647 Y100.716 E8.26356
G1 X69.248 Y98.004 E8.34111
G1 X70.084 Y95.356 E8.41866
G1 X71.146 Y92.790 E8.49621
G1 X72.429 Y90.326 E8.57376
G1 X73.921 Y87.984 E8.65132
G1 X75.612 Y85.780 E8.72887
G1 X77.488 Y83.733 E8.80642
G1 X79.536 Y81.856 E8.88397
G1 X81.739 Y80.165 E8.96152
G1 X84.082 Y78.673 E9.03907
G1 X86.539 Y77.394 E9.11642
G1 X87.801 Y76.845 E9.15485
G1 X88.074 Y76.769 E9.16276
G1 X88.537 Y76.702 E9.17582 F1800.000
G1 X89.023 Y76.716 E9.18939
G1 X89.481 Y76.809 E9.20246
G1 X89.745 Y76.899 E9.21025
G1 X90.165 Y77.105 E9.22331
G1 X90.559 Y77.391 E9.23688
G1 X90.885 Y77.726 E9.24995
G1 X91.052 Y77.950 E9.25774
G1 X91.282 Y78.357 E9.27080
G1 X91.439 Y78.798 E9.28387
G1 X91.499 Y79.070 E9.29166
G1 X91.536 Y79.501 E9.30372
G1 X91.536 Y84.069 E9.43129
G1 X91.000 Y84.144 F7800.000
G1 X91.000 Y132.965 E10.79449 F1800.000
G1 X90.968 Y133.338 E10.80495
G1 X90.923 Y133.543 E10.81081
G1 X90.793 Y133.908 E10.82163
G1 X90.599 Y134.251 E10.83263
G1 X90.350 Y134.556 E10.84363
G1 X90.052 Y134.814 E10.85463
G1 X89.720 Y135.014 E10.86544
G1 X89.528 Y135.098 E10.87131
G1 X89.156 Y135.208 E10.88213
G1 X88.765 Y135.252 E10.89312
G1 X88.378 Y135.230 E10.90394
G1 X88.172 Y135.191 E10.90981
G1 X87.813 Y135.075 E10.92034
G1 X86.769 Y134.610 E10.95226
G1 X84.350 Y133.351 E11.02840
G1 X82.047 Y131.884 E11.10464
G1 X79.881 Y130.222 E11.18089
G1 X77.867 Y128.377 E11.25713
G1 X76.023 Y126.364 E11.33338
G1 X74.360 Y124.197 E11.40962
G1 X72.893 Y121.894 E11.48587
G1 X71.632 Y119.472 E11.56211
G1 X70.587 Y116.950 E11.63836
G1 X69.766 Y114.345 E11.71460
G1 X69.175 Y111.679 E11.79085
G1 X68.819 Y108.972 E11.86709
G1 X68.700 Y106.244 E11.94334
G1 X68.819 Y103.516 E12.01959
G1 X69.175 Y100.809 E12.09583
G1 X69.766 Y98.143 E12.17208
G1 X70.587 Y95.539 E12.24832
G1 X71.632 Y93.016 E12.32457
G1 X72.893 Y90.594 E12.40081
G1 X74.360 Y88.291 E12.47706
G1 X76.023 Y86.125 E12.55330
G1 X77.867 Y84.112 E12.62955
G1 X79.881 Y82.267 E12.70579
G1 X82.047 Y80.605 E12.78204
G1 X84.350 Y79.137 E12.85828
G1 X86.770 Y77.878 E12.93446
G1 X87.981 Y77.351 E12.97133
G1 X88.184 Y77.294 E12.97724
G1 X88.568 Y77.239 E12.98805 F1800.000
G1 X88.962 Y77.250 E12.99905
G1 X89.341 Y77.327 E13.00987
G1 X89.540 Y77.395 E13.01573
G1 X89.888 Y77.566 E13.02655
G1 X90.207 Y77.797 E13.03755
G1 X90.477 Y78.075 E13.04837
G1 X90.603 Y78.243 E13.05423
G1 X90.793 Y78.580 E13.06505
G1 X90.923 Y78.945 E13.07587
G1 X90.968 Y79.150 E13.08173
G1 X91.000 Y79.524 E13.09219
G1 X91.000 Y84.069 E13.21912
G1 X91.433 Y84.394 F7800.000
G1 E11.21912 F2400.00000
G92 E0
G1 X133.596 Y124.912 F7800.000
G1 E2.00000 F2400.00000
G1 X134.048 Y124.462 E2.01781 F1800.000
G1 X134.530 Y124.124 E2.03425
G1 X134.868 Y123.948 E2.04489
G1 X135.436 Y123.741 E2.06178
G1 X136.067 Y123.631 E2.07965 F1800.000
G1 X136.660 Y123.632 E2.09621
G1 X137.032 Y123.681 E2.10670
G1 X137.613 Y123.836 E2.12351
G1 X138.186 Y124.104 E2.14116
G1 X138.704 Y124.466 E2.15881
G1 X139.151 Y124.913 E2.17646
G1 X139.496 Y125.406 E2.19327
G1 X139.670 Y125.740 E2.20377
G1 X139.876 Y126.306 E2.22058
G1 X139.986 Y126.930 E2.23828
G1 X139.984 Y127.570 E2.25615
G1 X139.881 Y128.154 E2.27271
G1 X139.768 Y128.512 E2.28319
G1 X139.514 Y129.058 E2.30000
G1 X139.151 Y129.575 E2.31765
G1 X138.703 Y130.023 E2.33535
G1 X138.178 Y130.389 E2.35322
G1 X137.640 Y130.639 E2.36978
G1 X137.282 Y130.752 E2.38026
G1 X136.689 Y130.857 E2.39707
G1 X136.055 Y130.857 E2.41477
G1 X135.425 Y130.744 E2.43264
G1 X134.868 Y130.541 E2.44920
G1 X134.535 Y130.368 E2.45969
G1 X134.042 Y130.022 E2.47650
G1 X133.594 Y129.574 E2.49419
G1 X133.228 Y129.049 E2.51206
G1 X132.978 Y128.511 E2.52862
G1 X132.865 Y128.153 E2.53911
G1 X132.760 Y127.560 E2.55592
G1 X132.760 Y126.928 E2.57358
G1 X132.871 Y126.303 E2.59131
G1 X133.076 Y125.740 E2.60804
G1 X133.250 Y125.406 E2.61853
G1 X133.553 Y124.974 E2.63328
G1 X134.007 Y125.258 F7800.000
G1 X134.393 Y124.874 E2.64848 F1800.000
G1 X134.809 Y124.583 E2.66265
G1 X135.084 Y124.439 E2.67133
G1 X135.575 Y124.260 E2.68591
G1 X136.113 Y124.167 E2.70115 F1800.000
G1 X136.624 Y124.167 E2.71544
G1 X136.927 Y124.207 E2.72397
G1 X137.430 Y124.342 E2.73849
G1 X137.917 Y124.569 E2.75353
G1 X138.359 Y124.878 E2.76856
G1 X138.739 Y125.259 E2.78359
G1 X139.038 Y125.685 E2.79812
G1 X139.179 Y125.956 E2.80666
G1 X139.357 Y126.445 E2.82118
G1 X139.450 Y126.976 E2.83624
G1 X139.449 Y127.522 E2.85149
G1 X139.360 Y128.026 E2.86578
G1 X139.268 Y128.317 E2.87431
G1 X139.048 Y128.789 E2.88883
G1 X138.739 Y129.230 E2.90386
G1 X138.358 Y129.611 E2.91892
G1 X137.910 Y129.923 E2.93417
G1 X137.446 Y130.139 E2.94846
G1 X137.154 Y130.231 E2.95699
G1 X136.642 Y130.321 E2.97151
G1 X136.103 Y130.321 E2.98657
G1 X135.565 Y130.225 E3.00182
G1 X135.085 Y130.050 E3.01611
G1 X134.814 Y129.909 E3.02464
G1 X134.388 Y129.610 E3.03916
G1 X134.006 Y129.229 E3.05422
G1 X133.694 Y128.781 E3.06947
G1 X133.478 Y128.317 E3.08376
G1 X133.386 Y128.026 E3.09229
G1 X133.296 Y127.513 E3.10681
G1 X133.296 Y126.975 E3.12185
G1 X133.390 Y126.442 E3.13696
G1 X133.567 Y125.956 E3.15140
G1 X133.709 Y125.685 E3.15994
G1 X133.964 Y125.320 E3.17239
G1 X134.419 Y125.604 F7800.000
G1 X134.738 Y125.286 E3.18497 F1800.000
G1 X135.088 Y125.042 E3.19688
G1 X135.301 Y124.930 E3.20360
G1 X135.713 Y124.780 E3.21585
G1 X136.159 Y124.702 E3.22848 F1800.000
G1 X136.589 Y124.703 E3.24049
G1 X136.822 Y124.734 E3.24707
G1 X137.246 Y124.847 E3.25930
G1 X137.649 Y125.035 E3.27172
G1 X138.013 Y125.290 E3.28414
G1 X138.327 Y125.604 E3.29655
G1 X138.579 Y125.963 E3.30879
G1 X138.687 Y126.172 E3.31537
G1 X138.837 Y126.584 E3.32760
G1 X138.915 Y127.022 E3.34003
G1 X138.913 Y127.474 E3.35265
G1 X138.838 Y127.898 E3.36467
G1 X138.768 Y128.123 E3.37124
