; generated by Slic3r 1.2.9 on 2017-08-22 at 17:26:52

; external perimeters extrusion width = 0.50mm
; perimeters extrusion width = 0.72mm
; infill extrusion width = 0.72mm
; solid infill extrusion width = 0.72mm
; top infill extrusion width = 0.72mm

M107
M190 S55 ; set bed temperature
M104 S195 ; set temperature
G28 ; home all axes
G1 Z5 F5000 ; lift nozzle

M109 S195 ; wait for temperature to be reached
G21 ; set units to millimeters
G90 ; use absolute coordinates
M82 ; use absolute distances for extrusion
G92 E0
G1 Z0.300 F7800.000
G1 E-2.00000 F2400.00000
G92 E0
G1 X56.282 Y80.842 F7800.000
G1 E2.00000 F2400.00000
G1 X57.499 Y80.183 E2.03863 F1800.000
G1 X58.202 Y79.921 E2.05957
G1 X59.053 Y79.680 E2.08427
G1 X60.090 Y79.509 E2.11363
G1 X61.270 Y79.439 E2.14664
G1 X66.615 Y79.444 E2.29586
G1 X141.493 Y82.444 E4.38834 F1800.000
G1 X142.182 Y82.490 E4.40763
G1 X143.209 Y82.657 E4.43665
G1 X144.000 Y82.871 E4.45953
G1 X145.051 Y83.299 E4.49124
G1 X145.928 Y83.821 E4.51974
G1 X146.798 Y84.522 E4.55093
G1 X146.887 Y84.607 E4.55437
G1 X147.921 Y85.883 E4.60023
G1 X147.974 Y85.970 E4.60307
G1 X148.821 Y88.097 E4.66701
G1 X148.973 Y89.500 E4.70641
G1 X148.973 Y113.500 E5.37655
G1 X148.821 Y114.903 E5.41595
G1 X147.975 Y117.030 E5.47988
G1 X146.887 Y118.393 E5.52856
G1 X146.798 Y118.478 E5.53200
G1 X145.929 Y119.179 E5.56319
G1 X145.135 Y119.658 E5.58906
G1 X144.000 Y120.129 E5.62339
G1 X143.209 Y120.343 E5.64627
G1 X142.183 Y120.510 E5.67530
G1 X141.233 Y120.561 E5.70185
G1 X134.272 Y120.557 E5.89622
G1 X61.047 Y118.057 E7.94203
G1 X60.090 Y117.991 E7.96882
G1 X59.053 Y117.820 E7.99818
G1 X58.459 Y117.660 E8.01535
G1 X57.668 Y117.387 E8.03871
G1 X57.499 Y117.317 E8.04382
G1 X56.302 Y116.672 E8.08178
G1 X55.414 Y115.950 E8.11373
G1 X55.327 Y115.865 E8.11714
G1 X54.303 Y114.587 E8.16287
G1 X54.250 Y114.500 E8.16571
G1 X53.419 Y112.388 E8.22909
G1 X53.271 Y111.000 E8.26806
G1 X53.271 Y86.500 E8.95216
G1 X53.419 Y85.112 E8.99114
G1 X54.250 Y83.000 E9.05452
G1 X55.326 Y81.635 E9.10305
G1 X56.224 Y80.889 E9.13565
G1 E7.13565 F2400.00000
G92 E0
G1 X86.956 Y105.085 F7800.000
G1 E2.00000 F2400.00000
G1 X86.524 Y105.242 E2.01282 F1800.000
G1 X86.037 Y105.328 E2.02664
G1 X74.011 Y105.336 E2.36244
G1 X73.572 Y105.297 E2.37474
G1 X73.059 Y105.160 E2.38957
G1 X72.627 Y104.958 E2.40288
G1 X72.236 Y104.685 E2.41619
G1 X72.027 Y104.493 E2.42412
G1 X71.721 Y104.128 E2.43743
G1 X71.482 Y103.715 E2.45073
G1 X71.374 Y103.453 E2.45866
G1 X71.255 Y103.011 E2.47145
G1 X71.218 Y102.729 E2.47938
G1 X71.218 Y93.753 E2.73002
G1 X71.301 Y93.284 E2.74332
G1 X71.386 Y93.013 E2.75125
G1 X71.588 Y92.581 E2.76455
G1 X71.871 Y92.176 E2.77837
G1 X72.221 Y91.826 E2.79219
G1 X72.627 Y91.542 E2.80601
G1 X73.075 Y91.333 E2.81984
G1 X73.554 Y91.204 E2.83366
G1 X74.011 Y91.164 E2.84647
G1 X88.822 Y91.176 E3.26005 F1800.000
G1 X89.289 Y91.258 E3.27329
G1 X89.737 Y91.421 E3.28660
G1 X89.992 Y91.554 E3.29461
G1 X90.364 Y91.815 E3.30732
G1 X90.561 Y91.995 E3.31475
G1 X90.742 Y92.193 E3.32225
G1 X91.014 Y92.581 E3.33548
G1 X91.224 Y93.032 E3.34937
G1 X91.346 Y93.489 E3.36260
G1 X91.383 Y93.770 E3.37051
G1 X91.391 Y101.246 E3.57926
G1 X91.356 Y101.656 E3.59073
G1 X91.292 Y101.959 E3.59939
G1 X91.134 Y102.394 E3.61231
G1 X91.003 Y102.646 E3.62024
G1 X90.740 Y103.021 E3.63303
G1 X90.555 Y103.222 E3.64066
G1 X90.326 Y103.426 E3.64921
G1 X89.972 Y103.670 E3.66122
G1 X87.024 Y105.053 E3.75217
G1 X86.750 Y104.590 F7800.000
G1 X86.385 Y104.723 E3.76301 F1800.000
G1 X85.990 Y104.792 E3.77421
G1 X74.034 Y104.800 E4.10805
G1 X73.654 Y104.767 E4.11871
G1 X73.253 Y104.659 E4.13028
G1 X72.896 Y104.493 E4.14131
G1 X72.572 Y104.266 E4.15233
G1 X72.415 Y104.122 E4.15830
G1 X72.161 Y103.819 E4.16932
G1 X71.964 Y103.478 E4.18033
G1 X71.882 Y103.280 E4.18630
G1 X71.782 Y102.906 E4.19713
G1 X71.754 Y102.694 E4.20310
G1 X71.754 Y93.800 E4.45145
G1 X71.822 Y93.411 E4.46246
G1 X71.886 Y93.207 E4.46843
G1 X72.053 Y92.850 E4.47945
G1 X72.283 Y92.521 E4.49064
G1 X72.567 Y92.238 E4.50185
G1 X72.896 Y92.007 E4.51305
G1 X73.259 Y91.838 E4.52426
G1 X73.647 Y91.734 E4.53547
G1 X74.034 Y91.700 E4.54631
G1 X88.561 Y91.700 E4.95194 F1800.000
G1 X88.764 Y91.709 E4.95761
G1 X89.150 Y91.777 E4.96856
G1 X89.521 Y91.912 E4.97959
G1 X89.713 Y92.012 E4.98563
G1 X90.029 Y92.233 E4.99639
G1 X90.181 Y92.374 E5.00218
G1 X90.323 Y92.528 E5.00804
G1 X90.548 Y92.850 E5.01899
G1 X90.718 Y93.215 E5.03026
G1 X90.820 Y93.594 E5.04120
G1 X90.847 Y93.806 E5.04716
G1 X90.855 Y101.224 E5.25430
G1 X90.825 Y101.578 E5.26421
G1 X90.776 Y101.812 E5.27089
G1 X90.643 Y102.178 E5.28176
G1 X90.544 Y102.367 E5.28773
G1 X90.321 Y102.685 E5.29856
G1 X89.995 Y103.004 E5.31130
G1 X89.705 Y103.204 E5.32116
G1 X86.818 Y104.558 E5.41019
G1 X86.694 Y104.974 F7800.000
G1 E3.41019 F2400.00000
G92 E0
G1 X76.463 Y90.629 F7800.000
G1 E2.00000 F2400.00000
G1 X73.987 Y90.629 E2.06913 F1800.000
G1 X73.460 Y90.675 E2.08389
G1 X72.892 Y90.827 E2.10034
G1 X72.358 Y91.076 E2.11678
G1 X71.876 Y91.414 E2.13322
G1 X71.459 Y91.830 E2.14965
G1 X71.122 Y92.312 E2.16608
G1 X70.886 Y92.818 E2.18168
G1 X70.779 Y93.156 E2.19157
G1 X70.711 Y93.544 E2.20258
G1 X70.418 Y93.519 E2.21080
G1 X70.418 Y92.140 E2.24929
G1 X70.379 Y91.705 E2.26149
G1 X70.251 Y91.225 E2.27537
G1 X70.041 Y90.775 E2.28924
G1 X69.756 Y90.367 E2.30312
G1 X69.404 Y90.016 E2.31700
G1 X68.997 Y89.731 E2.33089
G1 X68.546 Y89.521 E2.34477
G1 X68.066 Y89.392 E2.35866
G1 X67.630 Y89.354 E2.37086
G1 X61.177 Y89.354 E2.55104
G1 X61.177 Y87.346 E2.60711
G1 X66.611 Y87.359 E2.75882
G1 X67.064 Y87.378 E2.77150
G1 X67.770 Y87.471 E2.79138
G1 X68.465 Y87.626 E2.81126
G1 X69.144 Y87.840 E2.83114
G1 X69.828 Y88.123 E2.85180
G1 X72.244 Y89.249 E2.92624
G1 X73.170 Y89.632 E2.95422
G1 X74.157 Y89.943 E2.98310
G1 X75.166 Y90.167 E3.01199
G1 X76.192 Y90.302 E3.04087
G1 X76.470 Y90.314 E3.04863
G1 X76.464 Y90.554 E3.05532
G1 E1.05532 F2400.00000
G92 E0
G1 X92.761 Y93.507 F7800.000
G1 E2.00000 F2400.00000
G1 X92.889 Y93.029 E2.01381 F1800.000
G1 X93.098 Y92.581 E2.02763
G1 X93.382 Y92.176 E2.04144
G1 X93.732 Y91.826 E2.05527
G1 X94.137 Y91.542 E2.06909
G1 X94.586 Y91.332 E2.08291
G1 X95.064 Y91.204 E2.09674
G1 X95.521 Y91.164 E2.10955 F1800.000
G1 X103.559 Y91.172 E2.33399
G1 X104.046 Y91.258 E2.34780
G1 X104.511 Y91.427 E2.36162
G1 X104.940 Y91.675 E2.37543
G1 X105.319 Y91.993 E2.38925
G1 X105.638 Y92.372 E2.40308
G1 X105.886 Y92.803 E2.41698
G1 X106.048 Y93.248 E2.43020
G1 X106.110 Y93.525 E2.43813
G1 X106.148 Y93.964 E2.45043
G1 X106.140 Y99.748 E2.61193
G1 X106.054 Y100.235 E2.62573
G1 X105.885 Y100.699 E2.63954
G1 X105.638 Y101.128 E2.65336
G1 X105.320 Y101.507 E2.66718
G1 X104.940 Y101.825 E2.68100
G1 X104.512 Y102.073 E2.69482
G1 X104.047 Y102.242 E2.70864
G1 X103.559 Y102.328 E2.72246
G1 X95.521 Y102.336 E2.94690
G1 X95.064 Y102.296 E2.95971
G1 X94.586 Y102.168 E2.97354
G1 X94.154 Y101.966 E2.98685
G1 X93.914 Y101.813 E2.99478
G1 X93.549 Y101.507 E3.00809
G1 X93.231 Y101.128 E3.02191
G1 X92.984 Y100.699 E3.03572
G1 X92.814 Y100.235 E3.04954
G1 X92.729 Y99.748 E3.06334
G1 X92.721 Y93.964 E3.22484
G1 X92.754 Y93.582 E3.23555
G1 X93.290 Y93.601 F7800.000
G1 X93.394 Y93.213 E3.24674 F1800.000
G1 X93.564 Y92.850 E3.25794
G1 X93.794 Y92.521 E3.26914
G1 X94.077 Y92.238 E3.28034
G1 X94.406 Y92.007 E3.29155
G1 X94.770 Y91.838 E3.30276
G1 X95.158 Y91.734 E3.31397
G1 X95.545 Y91.700 E3.32481 F1800.000
G1 X103.512 Y91.708 E3.54729
G1 X103.907 Y91.777 E3.55849
G1 X104.284 Y91.914 E3.56969
G1 X104.632 Y92.115 E3.58089
G1 X104.939 Y92.373 E3.59210
G1 X105.197 Y92.680 E3.60330
G1 X105.399 Y93.030 E3.61458
G1 X105.533 Y93.398 E3.62552
G1 X105.579 Y93.607 E3.63149
G1 X105.612 Y93.987 E3.64214
G1 X105.605 Y99.701 E3.80168
G1 X105.535 Y100.095 E3.81287
G1 X105.398 Y100.472 E3.82407
G1 X105.197 Y100.819 E3.83527
G1 X104.940 Y101.127 E3.84647
G1 X104.632 Y101.385 E3.85767
G1 X104.285 Y101.585 E3.86888
G1 X103.907 Y101.723 E3.88009
G1 X103.512 Y101.792 E3.89129
G1 X95.545 Y101.800 E4.11377
G1 X95.158 Y101.766 E4.12461
G1 X94.770 Y101.662 E4.13582
G1 X94.412 Y101.495 E4.14685
G1 X94.232 Y101.381 E4.15282
G1 X93.929 Y101.127 E4.16384
G1 X93.672 Y100.820 E4.17504
G1 X93.471 Y100.472 E4.18624
G1 X93.334 Y100.095 E4.19743
G1 X93.264 Y99.701 E4.20862
G1 X93.257 Y93.987 E4.36816
G1 X93.284 Y93.675 E4.37690
G1 X92.991 Y93.334 F7800.000
G1 X91.917 Y93.722 F7800.000
G1 X91.872 Y93.385 E4.38641 F1800.000
G1 X91.729 Y92.848 E4.40192
G1 X91.479 Y92.312 E4.41842
G1 X91.161 Y91.857 E4.43394
G1 X90.940 Y91.616 E4.44307
G1 X90.700 Y91.396 E4.45214
G1 X90.270 Y91.095 E4.46681
G1 X89.954 Y90.930 E4.47678
G1 X89.428 Y90.739 E4.49239
G1 X88.866 Y90.639 E4.50832
G1 X88.892 Y90.346 E4.51654
G1 X95.202 Y90.346 E4.69274
G1 X95.216 Y90.653 E4.70133
G1 X94.971 Y90.675 E4.70819
G1 X94.402 Y90.827 E4.72463
G1 X93.868 Y91.076 E4.74107
G1 X93.386 Y91.414 E4.75751
G1 X92.970 Y91.830 E4.77394
G1 X92.632 Y92.312 E4.79038
G1 X92.384 Y92.845 E4.80681
G1 X92.231 Y93.414 E4.82324
G1 X92.205 Y93.716 E4.83171
G1 X91.992 Y93.721 E4.83766
G1 E2.83766 F2400.00000
G92 E0
G1 X107.478 Y93.964 F7800.000
G1 E2.00000 F2400.00000
G1 X107.518 Y93.507 E2.01280 F1800.000
G1 X107.646 Y93.029 E2.02662
G1 X107.855 Y92.581 E2.04044
G1 X108.139 Y92.176 E2.05425
G1 X108.489 Y91.826 E2.06807
G1 X108.894 Y91.542 E2.08189
G1 X109.343 Y91.332 E2.09572
G1 X109.821 Y91.204 E2.10954
G1 X110.279 Y91.164 E2.12236 F1800.000
G1 X118.316 Y91.172 E2.34679
G1 X118.803 Y91.258 E2.36060
G1 X119.269 Y91.427 E2.37442
G1 X119.697 Y91.675 E2.38824
G1 X120.076 Y91.993 E2.40206
G1 X120.395 Y92.372 E2.41589
G1 X120.644 Y92.803 E2.42980
G1 X120.805 Y93.248 E2.44301
G1 X120.867 Y93.525 E2.45094
G1 X120.905 Y93.964 E2.46324
G1 X120.897 Y99.748 E2.62474
G1 X120.812 Y100.235 E2.63854
G1 X120.642 Y100.699 E2.65235
G1 X120.395 Y101.128 E2.66616
G1 X120.088 Y101.494 E2.67950
G1 X119.875 Y101.688 E2.68756
G1 X119.489 Y101.958 E2.70072
G1 X119.040 Y102.168 E2.71453
G1 X118.562 Y102.296 E2.72836
G1 X118.105 Y102.336 E2.74118
G1 X110.067 Y102.328 E2.96561
G1 X109.580 Y102.242 E2.97943
G1 X109.114 Y102.073 E2.99325
G1 X108.686 Y101.825 E3.00707
G1 X108.306 Y101.507 E3.02090
G1 X107.988 Y101.128 E3.03471
G1 X107.741 Y100.699 E3.04853
G1 X107.572 Y100.235 E3.06234
G1 X107.486 Y99.748 E3.07614
G1 X107.478 Y94.039 E3.23555
G1 X108.014 Y93.987 F7800.000
G1 X108.048 Y93.601 E3.24638 F1800.000
G1 X108.151 Y93.213 E3.25758
G1 X108.321 Y92.850 E3.26878
G1 X108.551 Y92.521 E3.27998
G1 X108.835 Y92.238 E3.29118
G1 X109.163 Y92.007 E3.30238
G1 X109.527 Y91.838 E3.31359
G1 X109.915 Y91.734 E3.32480
G1 X110.302 Y91.700 E3.33565 F1800.000
G1 X118.269 Y91.708 E3.55812
G1 X118.664 Y91.777 E3.56932
G1 X119.041 Y91.914 E3.58052
G1 X119.389 Y92.115 E3.59173
G1 X119.696 Y92.373 E3.60293
G1 X119.954 Y92.680 E3.61414
G1 X120.156 Y93.030 E3.62542
G1 X120.290 Y93.398 E3.63635
G1 X120.336 Y93.607 E3.64232
G1 X120.370 Y93.987 E3.65298
G1 X120.362 Y99.701 E3.81252
G1 X120.292 Y100.095 E3.82371
G1 X120.155 Y100.472 E3.83490
G1 X119.955 Y100.820 E3.84610
G1 X119.701 Y101.122 E3.85713
G1 X119.539 Y101.269 E3.86323
G1 X119.220 Y101.493 E3.87411
G1 X118.856 Y101.662 E3.88532
G1 X118.468 Y101.766 E3.89653
G1 X118.081 Y101.800 E3.90737
G1 X110.114 Y101.792 E4.12985
G1 X109.719 Y101.723 E4.14105
G1 X109.342 Y101.585 E4.15226
G1 X108.994 Y101.385 E4.16347
G1 X108.687 Y101.127 E4.17467
G1 X108.429 Y100.820 E4.18587
G1 X108.228 Y100.472 E4.19707
G1 X108.091 Y100.095 E4.20827
G1 X108.021 Y99.701 E4.21946
G1 X108.014 Y94.062 E4.37690
G1 X107.690 Y93.774 F7800.000
G1 X106.666 Y93.737 F7800.000
G1 X106.640 Y93.444 E4.38514 F1800.000
G1 X106.563 Y93.098 E4.39502
G1 X106.374 Y92.576 E4.41053
G1 X106.078 Y92.064 E4.42705
G1 X105.699 Y91.612 E4.44350
G1 X105.248 Y91.234 E4.45994
G1 X104.739 Y90.940 E4.47637
G1 X104.185 Y90.739 E4.49281
G1 X103.623 Y90.639 E4.50875
G1 X103.649 Y90.346 E4.51697
G1 X109.959 Y90.346 E4.69318
G1 X109.973 Y90.653 E4.70177
G1 X109.728 Y90.675 E4.70863
G1 X109.159 Y90.827 E4.72507
G1 X108.626 Y91.076 E4.74151
G1 X108.143 Y91.414 E4.75795
G1 X107.727 Y91.830 E4.77439
G1 X107.390 Y92.312 E4.79082
G1 X107.141 Y92.845 E4.80725
G1 X106.989 Y93.414 E4.82369
G1 X106.960 Y93.737 E4.83275
G1 X106.741 Y93.737 E4.83888
G1 X106.948 Y99.781 F7800.000
G1 X107.052 Y100.374 E4.85568 F1800.000
G1 X107.254 Y100.927 E4.87211
G1 X107.548 Y101.436 E4.88854
G1 X107.926 Y101.887 E4.90498
G1 X108.377 Y102.266 E4.92141
G1 X108.887 Y102.560 E4.93785
G1 X109.440 Y102.761 E4.95430
G1 X110.020 Y102.864 E4.97072
G1 X118.128 Y102.871 E5.19712
G1 X118.655 Y102.825 E5.21190
G1 X119.224 Y102.673 E5.22834
G1 X119.757 Y102.424 E5.24478
G1 X120.210 Y102.108 E5.26020
G1 X120.475 Y101.865 E5.27023
G1 X120.835 Y101.436 E5.28587
G1 X121.130 Y100.927 E5.30231
G1 X121.331 Y100.374 E5.31873
G1 X121.433 Y99.795 E5.33514
G1 X121.435 Y98.485 E5.37171
G1 X121.749 Y98.479 E5.38049
G1 X121.768 Y98.922 E5.39289
G1 X121.823 Y99.341 E5.40469
G1 X121.915 Y99.754 E5.41650
G1 X122.042 Y100.157 E5.42830
G1 X122.204 Y100.548 E5.44011
G1 X122.399 Y100.923 E5.45191
G1 X122.626 Y101.280 E5.46372
G1 X122.884 Y101.615 E5.47553
G1 X123.170 Y101.927 E5.48734
G1 X123.481 Y102.213 E5.49915
G1 X123.817 Y102.470 E5.51096
G1 X124.174 Y102.698 E5.52278
G1 X124.549 Y102.893 E5.53459
G1 X124.940 Y103.055 E5.54641
G1 X125.344 Y103.182 E5.55823
G1 X125.757 Y103.274 E5.57004
G1 X126.177 Y103.329 E5.58186
G1 X126.569 Y103.346 E5.59284
G1 X128.470 Y103.346 E5.64592
G1 X128.496 Y103.639 E5.65414
G1 X127.892 Y103.746 E5.67127
G1 X127.425 Y103.916 E5.68515
G1 X126.994 Y104.165 E5.69904
G1 X126.613 Y104.485 E5.71292
G1 X126.294 Y104.865 E5.72680
G1 X126.046 Y105.296 E5.74068
G1 X125.865 Y105.791 E5.75540
G1 X125.774 Y106.487 E5.77500
G1 X125.844 Y107.109 E5.79248
G1 X126.041 Y107.704 E5.80997
G1 X126.360 Y108.226 E5.82705
G1 X126.866 Y108.763 E5.84766
G1 X126.677 Y108.983 E5.85577
G1 X122.099 Y105.779 E6.01177
G1 X121.255 Y105.241 E6.03974
G1 X120.337 Y104.764 E6.06861
G1 X119.382 Y104.368 E6.09749
G1 X118.395 Y104.057 E6.12638
G1 X117.385 Y103.833 E6.15526
G1 X116.360 Y103.698 E6.18414
G1 X115.356 Y103.654 E6.21219
G1 X95.771 Y103.654 E6.75905
G1 X94.770 Y103.698 E6.78704
G1 X93.744 Y103.832 E6.81592
G1 X92.734 Y104.056 E6.84481
G1 X91.748 Y104.367 E6.87369
G1 X90.820 Y104.751 E6.90173
G1 X80.894 Y109.377 E7.20751
G1 X80.209 Y109.661 E7.22822
G1 X79.530 Y109.875 E7.24810
G1 X78.835 Y110.029 E7.26798
G1 X78.129 Y110.122 E7.28786
G1 X77.389 Y110.154 E7.30853
G1 X61.177 Y110.154 E7.76120
G1 X61.177 Y103.546 E7.94571
G1 X67.820 Y103.540 E8.13117
G1 X68.330 Y103.450 E8.14564
G1 X68.908 Y103.219 E8.16302
G1 X69.394 Y102.894 E8.17935
G1 X69.756 Y102.533 E8.19363
G1 X70.041 Y102.125 E8.20751
G1 X70.251 Y101.675 E8.22139
G1 X70.403 Y101.107 E8.23781
G1 X70.682 Y101.144 E8.24568
G1 X70.682 Y102.764 E8.29092
G1 X70.729 Y103.115 E8.30080
G1 X70.865 Y103.625 E8.31555
G1 X71.001 Y103.953 E8.32544
G1 X71.280 Y104.436 E8.34104
G1 X71.639 Y104.864 E8.35663
G1 X71.900 Y105.103 E8.36652
G1 X72.358 Y105.424 E8.38212
G1 X72.864 Y105.660 E8.39772
G1 X73.174 Y105.758 E8.40678
G1 X73.490 Y105.828 E8.41584
G1 X73.988 Y105.871 E8.42978
G1 X86.084 Y105.864 E8.76754
G1 X86.663 Y105.761 E8.78397
G1 X87.161 Y105.580 E8.79876
G1 X90.240 Y104.136 E8.89372
G1 X90.657 Y103.848 E8.90788
G1 X90.931 Y103.605 E8.91811
G1 X91.158 Y103.357 E8.92748
G1 X91.462 Y102.924 E8.94224
G1 X91.625 Y102.610 E8.95213
G1 X91.809 Y102.107 E8.96709
G1 X91.887 Y101.734 E8.97774
G1 X91.926 Y101.269 E8.99077
G1 X91.925 Y99.965 E9.02716
G1 X92.219 Y99.940 E9.03539
G1 X92.295 Y100.374 E9.04770
G1 X92.496 Y100.927 E9.06413
G1 X92.791 Y101.436 E9.08056
G1 X93.169 Y101.887 E9.09700
G1 X93.597 Y102.246 E9.11260
G1 X93.896 Y102.437 E9.12249
G1 X94.402 Y102.673 E9.13809
G1 X94.971 Y102.825 E9.15453
G1 X95.498 Y102.871 E9.16932
G1 X103.606 Y102.864 E9.39572
G1 X104.186 Y102.761 E9.41214
G1 X104.739 Y102.560 E9.42858
G1 X105.249 Y102.266 E9.44502
G1 X105.700 Y101.887 E9.46146
G1 X106.078 Y101.436 E9.47790
G1 X106.373 Y100.927 E9.49433
G1 X106.574 Y100.374 E9.51076
G1 X106.678 Y99.781 E9.52755
G1 X106.873 Y99.781 E9.53299
G1 E7.53299 F2400.00000
G92 E0
