; generated by Slic3r 1.2.9 on 2017-08-23 at 09:10:38

; external perimeters extrusion width = 0.50mm
; perimeters extrusion width = 0.72mm
; infill extrusion width = 0.72mm
; solid infill extrusion width = 0.72mm
; top infill extrusion width = 0.72mm

M107
M190 S55 ; set bed temperature
M104 S195 ; set temperature
G28 ; home all axes
G1 Z5 F5000 ; lift nozzle

M109 S195 ; wait for temperature to be reached
G21 ; set units to millimeters
G90 ; use absolute coordinates
M82 ; use absolute distances for extrusion
G92 E0
G1 Z0.300 F7800.000
G1 E-2.00000 F2400.00000
G92 E0
G1 X87.589 Y38.293 F7800.000
G1 E2.00000 F2400.00000
G1 X87.829 Y37.778 E2.01588 F1800.000
G1 X88.110 Y37.235 E2.03295
G1 X88.394 Y36.742 E2.04883
G1 X88.722 Y36.226 E2.06590
G1 X89.047 Y35.760 E2.08177
G1 X89.419 Y35.274 E2.09884
G1 X89.783 Y34.838 E2.11472
G1 X90.195 Y34.386 E2.13179
G1 X90.597 Y33.984 E2.14767
G1 X91.046 Y33.570 E2.16474
G1 X91.481 Y33.203 E2.18062
G1 X91.965 Y32.830 E2.19768
G1 X92.430 Y32.502 E2.21356
G1 X92.945 Y32.173 E2.23063
G1 X93.437 Y31.887 E2.24651
G1 X93.978 Y31.603 E2.26358
G1 X94.493 Y31.361 E2.27946
G1 X95.057 Y31.126 E2.29653
G1 X95.791 Y30.866 E2.31828
G1 X96.722 Y30.595 E2.34534
G1 X97.318 Y30.460 E2.36241
G1 X97.878 Y30.360 E2.37829
G1 X98.484 Y30.277 E2.39536
G1 X99.050 Y30.226 E2.41124
G1 X99.660 Y30.197 E2.42831
G1 X100.491 Y30.205 E2.45150
G1 X101.407 Y30.266 E2.47712 F1800.000
G1 X102.013 Y30.343 E2.49419
G1 X102.574 Y30.439 E2.51007
G1 X103.171 Y30.568 E2.52714
G1 X103.721 Y30.713 E2.54302
G1 X104.305 Y30.894 E2.56008
G1 X104.840 Y31.086 E2.57596
G1 X105.406 Y31.317 E2.59303
G1 X105.923 Y31.554 E2.60891
G1 X106.466 Y31.834 E2.62598
G1 X106.960 Y32.115 E2.64186
G1 X107.478 Y32.441 E2.65893
G1 X107.945 Y32.765 E2.67481
G1 X108.433 Y33.134 E2.69187
G1 X109.026 Y33.638 E2.71362
G1 X109.728 Y34.307 E2.74069
G1 X110.144 Y34.755 E2.75776
G1 X110.512 Y35.188 E2.77364
G1 X110.887 Y35.671 E2.79070
G1 X111.217 Y36.134 E2.80658
G1 X111.549 Y36.648 E2.82365
G1 X111.836 Y37.138 E2.83953
G1 X112.122 Y37.678 E2.85660
G1 X112.366 Y38.192 E2.87248
G1 X112.604 Y38.755 E2.88955
G1 X112.802 Y39.288 E2.90543
G1 X112.991 Y39.870 E2.92249
G1 X113.142 Y40.418 E2.93837
G1 X113.279 Y41.014 E2.95544
G1 X113.382 Y41.573 E2.97132
G1 X113.466 Y42.178 E2.98839
G1 X113.520 Y42.745 E3.00427
G1 X113.561 Y43.700 E3.03096
G1 X113.519 Y80.193 E4.04996
G1 X111.056 Y159.095 E6.25418
G1 X111.012 Y159.760 E6.27278
G1 X110.886 Y160.697 E6.29919
G1 X110.680 Y161.620 E6.32559
G1 X110.396 Y162.522 E6.35199
G1 X110.035 Y163.396 E6.37839
G1 X109.602 Y164.236 E6.40480
G1 X109.098 Y165.037 E6.43120
G1 X108.528 Y165.791 E6.45761
G1 X107.895 Y166.494 E6.48401
G1 X107.204 Y167.140 E6.51041
G1 X106.461 Y167.725 E6.53682
G1 X105.671 Y168.244 E6.56321
G1 X104.839 Y168.694 E6.58962
G1 X103.972 Y169.071 E6.61602
G1 X103.076 Y169.372 E6.64243
G1 X102.158 Y169.596 E6.66882
G1 X101.223 Y169.741 E6.69524
G1 X100.279 Y169.805 E6.72164
G1 X99.721 Y169.805 E6.73724
G1 X98.778 Y169.741 E6.76363
G1 X97.843 Y169.596 E6.79005
G1 X97.464 Y169.514 E6.80086
G1 X96.555 Y169.258 E6.82725
G1 X95.669 Y168.925 E6.85366
G1 X94.816 Y168.518 E6.88006
G1 X94.000 Y168.039 E6.90646
G1 X93.229 Y167.493 E6.93286
G1 X92.796 Y167.140 E6.94846
G1 X92.105 Y166.494 E6.97487
G1 X91.473 Y165.791 E7.00127
G1 X90.902 Y165.037 E7.02768
G1 X90.688 Y164.714 E7.03849
G1 X90.212 Y163.897 E7.06489
G1 X89.809 Y163.042 E7.09129
G1 X89.479 Y162.156 E7.11769
G1 X89.227 Y161.245 E7.14410
G1 X89.071 Y160.430 E7.16726
G1 X88.988 Y159.760 E7.18610
G1 X88.944 Y159.095 E7.20470
G1 X86.440 Y78.696 E9.45075
G1 X86.446 Y43.466 E10.43447
G1 X86.472 Y42.855 E10.45154
G1 X86.522 Y42.288 E10.46742
G1 X86.601 Y41.682 E10.48448
G1 X86.700 Y41.122 E10.50036
G1 X86.832 Y40.525 E10.51743
G1 X86.978 Y39.976 E10.53331
G1 X87.162 Y39.393 E10.55038
G1 X87.561 Y38.363 E10.58123
G1 E8.58123 F2400.00000
G92 E0
G1 X101.825 Y156.576 F7800.000
G1 E2.00000 F2400.00000
G1 X102.177 Y156.928 E2.01391 F1800.000
G1 X102.448 Y157.316 E2.02711
G1 X102.579 Y157.567 E2.03504
G1 X102.742 Y158.015 E2.04834
G1 X102.828 Y158.503 E2.06216
G1 X102.828 Y158.979 E2.07547
G1 X102.791 Y159.261 E2.08340
G1 X102.668 Y159.721 E2.09670
G1 X102.459 Y160.169 E2.11052
G1 X102.175 Y160.575 E2.12433
G1 X101.825 Y160.925 E2.13817
G1 X101.416 Y161.210 E2.15208
G1 X100.987 Y161.410 E2.16528
G1 X100.717 Y161.495 E2.17320
G1 X100.248 Y161.578 E2.18651
G1 X99.771 Y161.578 E2.19981
G1 X99.489 Y161.541 E2.20774
G1 X99.029 Y161.418 E2.22105
G1 X98.581 Y161.208 E2.23487
G1 X98.190 Y160.935 E2.24817
G1 X97.981 Y160.743 E2.25610
G1 X97.675 Y160.378 E2.26941
G1 X97.427 Y159.950 E2.28323
G1 X97.258 Y159.485 E2.29704
G1 X97.172 Y158.997 E2.31087
G1 X97.173 Y158.499 E2.32479
G1 X97.255 Y158.033 E2.33799
G1 X97.340 Y157.762 E2.34591
G1 X97.542 Y157.331 E2.35922
G1 X97.825 Y156.925 E2.37303
G1 X98.162 Y156.588 E2.38634
G1 X98.388 Y156.415 E2.39427
G1 X98.800 Y156.177 E2.40757
G1 X99.266 Y156.008 E2.42141
G1 X99.757 Y155.922 E2.43532 F1800.000
G1 X100.229 Y155.922 E2.44852
G1 X100.511 Y155.959 E2.45644
G1 X100.971 Y156.082 E2.46975
G1 X101.420 Y156.291 E2.48357
G1 X101.764 Y156.533 E2.49530
G1 X101.479 Y156.987 F7800.000
G1 X101.765 Y157.274 E2.50660 F1800.000
G1 X101.989 Y157.594 E2.51752
G1 X102.088 Y157.784 E2.52348
G1 X102.223 Y158.154 E2.53450
G1 X102.293 Y158.549 E2.54570
G1 X102.293 Y158.944 E2.55672
G1 X102.265 Y159.156 E2.56269
G1 X102.162 Y159.537 E2.57370
G1 X101.993 Y159.901 E2.58490
G1 X101.763 Y160.229 E2.59610
G1 X101.479 Y160.513 E2.60731
G1 X101.148 Y160.744 E2.61860
G1 X100.793 Y160.910 E2.62952
G1 X100.589 Y160.974 E2.63549
G1 X100.201 Y161.042 E2.64651
G1 X99.806 Y161.042 E2.65752
G1 X99.594 Y161.014 E2.66349
G1 X99.213 Y160.912 E2.67451
G1 X98.850 Y160.743 E2.68571
G1 X98.526 Y160.517 E2.69672
G1 X98.369 Y160.372 E2.70269
G1 X98.115 Y160.070 E2.71371
G1 X97.915 Y159.722 E2.72491
G1 X97.777 Y159.346 E2.73611
G1 X97.708 Y158.950 E2.74732
G1 X97.708 Y158.546 E2.75861
G1 X97.776 Y158.161 E2.76953
G1 X97.841 Y157.957 E2.77550
G1 X98.007 Y157.599 E2.78651
G1 X98.237 Y157.271 E2.79771
G1 X98.516 Y156.992 E2.80873
G1 X98.686 Y156.862 E2.81470
G1 X99.028 Y156.664 E2.82572
G1 X99.405 Y156.527 E2.83692
G1 X99.803 Y156.457 E2.84821 F1800.000
G1 X100.194 Y156.458 E2.85913
G1 X100.406 Y156.485 E2.86510
G1 X100.787 Y156.588 E2.87612
G1 X101.151 Y156.757 E2.88732
G1 X101.418 Y156.944 E2.89643
G1 X101.863 Y156.860 F7800.000
G1 X103.208 Y157.094 F7800.000
G1 X102.966 Y157.150 E2.90336 F1800.000
G1 X102.907 Y157.037 E2.90689
G1 X102.589 Y156.583 E2.92237
G1 X102.171 Y156.164 E2.93891
G1 X101.688 Y155.826 E2.95536
G1 X101.155 Y155.577 E2.97180
G1 X100.615 Y155.433 E2.98739
G1 X100.265 Y155.386 E2.99728
G1 X99.710 Y155.386 E3.01275
G1 X99.127 Y155.488 E3.02929
G1 X98.573 Y155.690 E3.04574
G1 X98.090 Y155.969 E3.06134
G1 X97.808 Y156.185 E3.07123
G1 X97.414 Y156.580 E3.08682
G1 X97.015 Y157.150 E3.10625
G1 X96.792 Y157.083 E3.11272
G1 X96.639 Y152.158 E3.25033
G1 X97.125 Y152.717 E3.27101
G1 X97.672 Y153.163 E3.29072
G1 X98.287 Y153.510 E3.31043
G1 X98.946 Y153.745 E3.32999
G1 X99.527 Y153.850 E3.34646
G1 X99.986 Y153.878 E3.35931
G1 X100.377 Y153.862 E3.37023
G1 X100.930 Y153.771 E3.38588
G1 X101.372 Y153.644 E3.39873
G1 X101.739 Y153.495 E3.40979
G1 X102.329 Y153.163 E3.42868
G1 X102.876 Y152.717 E3.44839
G1 X103.362 Y152.158 E3.46907
G1 X103.210 Y157.019 E3.60489
G1 X101.506 Y153.012 F7800.000
G1 X101.197 Y153.137 E3.61420 F1800.000
G1 X100.812 Y153.247 E3.62540
G1 X100.322 Y153.328 E3.63927
G1 X99.992 Y153.342 E3.64849
G1 X99.592 Y153.317 E3.65969
G1 X99.085 Y153.225 E3.67407
G1 X98.509 Y153.020 E3.69112
G1 X97.975 Y152.719 E3.70827
G1 X97.499 Y152.331 E3.72542
G1 X97.108 Y151.881 E3.74206
G1 X96.918 Y151.595 E3.75164
G1 X96.654 Y151.061 E3.76828
G1 X96.479 Y150.472 E3.78543
G1 X96.412 Y149.898 E3.80157
G1 X94.539 Y89.902 E5.47761
G1 X94.544 Y89.447 E5.49032
G1 X94.591 Y88.977 E5.50353
G1 X94.678 Y88.512 E5.51673
G1 X94.805 Y88.056 E5.52994
G1 X94.971 Y87.613 E5.54315
G1 X95.175 Y87.186 E5.55636
G1 X95.414 Y86.778 E5.56957
G1 X95.605 Y86.511 E5.57874
G1 X95.989 Y86.039 E5.59572
G1 X96.332 Y85.700 E5.60918
G1 X96.696 Y85.398 E5.62239
G1 X97.084 Y85.129 E5.63560
G1 X97.495 Y84.894 E5.64881
G1 X97.924 Y84.695 E5.66202
G1 X98.369 Y84.535 E5.67523
G1 X98.826 Y84.413 E5.68843
G1 X99.292 Y84.332 E5.70164
G1 X99.764 Y84.291 E5.71485
G1 X100.237 Y84.291 E5.72806 F1800.000
G1 X100.708 Y84.332 E5.74127
G1 X101.174 Y84.413 E5.75448
G1 X101.631 Y84.535 E5.76768
G1 X102.076 Y84.695 E5.78089
G1 X102.505 Y84.894 E5.79410
G1 X102.916 Y85.129 E5.80731
G1 X103.305 Y85.398 E5.82052
G1 X103.669 Y85.700 E5.83373
G1 X104.005 Y86.033 E5.84693
G1 X104.312 Y86.393 E5.86014
G1 X104.586 Y86.778 E5.87335
G1 X104.826 Y87.186 E5.88656
G1 X105.029 Y87.613 E5.89977
G1 X105.145 Y87.921 E5.90894
G1 X105.321 Y88.503 E5.92592
G1 X105.409 Y88.977 E5.93938
G1 X105.456 Y89.447 E5.95259
G1 X105.462 Y89.902 E5.96529
G1 X103.588 Y149.898 E7.64134
G1 X103.521 Y150.472 E7.65748
G1 X103.349 Y151.052 E7.67436
G1 X103.172 Y151.431 E7.68606
G1 X102.902 Y151.870 E7.70044
G1 X102.502 Y152.331 E7.71749
G1 X102.026 Y152.719 E7.73464
G1 X101.572 Y152.975 E7.74919
G1 X101.273 Y152.528 F7800.000
G1 X101.022 Y152.630 E7.75675 F1800.000
G1 X100.694 Y152.724 E7.76628
G1 X100.266 Y152.794 E7.77839
G1 X99.997 Y152.806 E7.78592
G1 X99.656 Y152.784 E7.79545
G1 X99.223 Y152.706 E7.80774
G1 X98.732 Y152.531 E7.82229
G1 X98.277 Y152.275 E7.83687
G1 X97.873 Y151.945 E7.85145
G1 X97.534 Y151.555 E7.86585
G1 X97.383 Y151.327 E7.87351
G1 X97.154 Y150.865 E7.88791
G1 X97.006 Y150.364 E7.90249
G1 X96.947 Y149.858 E7.91671
G1 X95.074 Y89.897 E9.59179
G1 X95.079 Y89.477 E9.60352
G1 X95.121 Y89.053 E9.61544
G1 X95.200 Y88.633 E9.62735
G1 X95.315 Y88.222 E9.63926
G1 X95.464 Y87.823 E9.65117
G1 X95.648 Y87.438 E9.66309
G1 X95.864 Y87.070 E9.67500
G1 X96.386 Y86.400 E9.69871
G1 X96.691 Y86.098 E9.71071
G1 X97.020 Y85.825 E9.72263
G1 X97.370 Y85.582 E9.73454
G1 X97.741 Y85.370 E9.74645
G1 X98.128 Y85.191 E9.75836
G1 X98.529 Y85.046 E9.77028
G1 X98.942 Y84.937 E9.78219
G1 X99.362 Y84.863 E9.79410
G1 X99.787 Y84.826 E9.80601
G1 X100.213 Y84.826 E9.81793 F1800.000
G1 X100.638 Y84.863 E9.82984
G1 X101.059 Y84.937 E9.84175
G1 X101.471 Y85.046 E9.85366
G1 X101.872 Y85.191 E9.86558
G1 X102.260 Y85.370 E9.87749
G1 X102.630 Y85.582 E9.88940
G1 X102.981 Y85.825 E9.90131
G1 X103.309 Y86.098 E9.91323
G1 X103.612 Y86.397 E9.92514
G1 X103.889 Y86.722 E9.93705
G1 X104.136 Y87.070 E9.94896
G1 X104.352 Y87.438 E9.96088
G1 X104.536 Y87.823 E9.97279
G1 X104.800 Y88.630 E9.99650
G1 X104.879 Y89.053 E10.00850
G1 X104.921 Y89.477 E10.02042
G1 X104.926 Y89.897 E10.03215
G1 X103.054 Y149.858 E11.70723
G1 X102.994 Y150.364 E11.72145
G1 X102.847 Y150.862 E11.73594
G1 X102.700 Y151.177 E11.74565
G1 X102.469 Y151.551 E11.75794
G1 X102.127 Y151.945 E11.77249
G1 X101.723 Y152.275 E11.78707
G1 X101.339 Y152.491 E11.79938
G1 X101.247 Y152.798 F7800.000
G1 E9.79938 F2400.00000
G92 E0
G1 X99.965 Y82.224 F7800.000
G1 E2.00000 F2400.00000
G1 X99.396 Y82.174 E2.01595 F1800.000
G1 X98.811 Y82.017 E2.03287
G1 X98.262 Y81.761 E2.04979
G1 X97.765 Y81.413 E2.06673
G1 X97.334 Y80.981 E2.08376
G1 X97.007 Y80.513 E2.09972
G1 X96.839 Y80.191 E2.10984
G1 X96.642 Y79.650 E2.12592
G1 X96.537 Y79.053 E2.14285
G1 X96.537 Y78.447 E2.15977
G1 X96.637 Y77.880 E2.17585
G1 X96.746 Y77.534 E2.18598
G1 X96.989 Y77.012 E2.20206
G1 X97.337 Y76.515 E2.21898
G1 X97.744 Y76.108 E2.23506
G1 X98.032 Y75.887 E2.24520
G1 X98.531 Y75.599 E2.26128
G1 X99.101 Y75.392 E2.27822
G1 X99.702 Y75.287 E2.29525 F1800.000
G1 X100.273 Y75.287 E2.31121
G1 X100.633 Y75.334 E2.32133
G1 X101.189 Y75.483 E2.33741
G1 X101.738 Y75.739 E2.35434
G1 X102.235 Y76.087 E2.37126
G1 X102.663 Y76.515 E2.38818
G1 X103.011 Y77.012 E2.40512
G1 X103.268 Y77.565 E2.42215
G1 X103.416 Y78.118 E2.43811
G1 X103.463 Y78.477 E2.44823
G1 X103.463 Y79.054 E2.46434
G1 X103.357 Y79.654 E2.48136
G1 X103.161 Y80.191 E2.49732
G1 X102.994 Y80.513 E2.50745
G1 X102.681 Y80.960 E2.52269
G1 X102.435 Y81.228 E2.53282
G1 X101.994 Y81.598 E2.54890
G1 X101.469 Y81.901 E2.56583
G1 X100.900 Y82.108 E2.58275
G1 X100.332 Y82.208 E2.59886
G1 X100.040 Y82.220 E2.60700
G1 X99.978 Y81.687 F7800.000
G1 X99.490 Y81.644 E2.62068 F1800.000
G1 X98.995 Y81.512 E2.63498
G1 X98.531 Y81.295 E2.64928
G1 X98.111 Y81.001 E2.66360
G1 X97.746 Y80.636 E2.67800
G1 X97.465 Y80.234 E2.69168
G1 X97.330 Y79.975 E2.69985
G1 X97.161 Y79.511 E2.71365
G1 X97.072 Y79.006 E2.72795
G1 X97.072 Y78.494 E2.74225
G1 X97.158 Y78.007 E2.75605
G1 X97.246 Y77.728 E2.76422
G1 X97.455 Y77.281 E2.77801
G1 X97.749 Y76.861 E2.79232
G1 X98.098 Y76.512 E2.80611
G1 X98.330 Y76.333 E2.81428
G1 X98.758 Y76.086 E2.82807
G1 X99.240 Y75.911 E2.84239
G1 X99.748 Y75.822 E2.85679 F1800.000
G1 X100.238 Y75.822 E2.87048
G1 X100.528 Y75.861 E2.87865
G1 X101.005 Y75.988 E2.89244
G1 X101.470 Y76.205 E2.90674
G1 X101.889 Y76.499 E2.92105
G1 X102.251 Y76.861 E2.93535
G1 X102.546 Y77.281 E2.94967
G1 X102.763 Y77.749 E2.96407
G1 X102.890 Y78.222 E2.97775
G1 X102.928 Y78.512 E2.98592
G1 X102.928 Y79.007 E2.99973
G1 X102.838 Y79.515 E3.01413
G1 X102.670 Y79.975 E3.02781
G1 X102.535 Y80.234 E3.03598
G1 X102.262 Y80.624 E3.04926
G1 X102.064 Y80.840 E3.05744
G1 X101.686 Y81.157 E3.07123
G1 X101.242 Y81.413 E3.08553
G1 X100.761 Y81.589 E3.09984
G1 X100.274 Y81.675 E3.11365
G1 X100.053 Y81.684 E3.11983
G1 X99.990 Y81.150 F7800.000
G1 X99.583 Y81.115 E3.13123 F1800.000
G1 X99.179 Y81.006 E3.14291
G1 X98.800 Y80.829 E3.15460
G1 X98.457 Y80.589 E3.16629
G1 X98.158 Y80.290 E3.17808
G1 X97.924 Y79.956 E3.18948
G1 X97.822 Y79.759 E3.19569
G1 X97.681 Y79.371 E3.20719
G1 X97.608 Y78.959 E3.21888
G1 X97.608 Y78.541 E3.23057
G1 X97.680 Y78.135 E3.24207
G1 X97.747 Y77.923 E3.24828
G1 X97.921 Y77.549 E3.25979
G1 X98.161 Y77.207 E3.27147
G1 X98.452 Y76.915 E3.28298
G1 X98.629 Y76.780 E3.28919
G1 X98.985 Y76.574 E3.30069
G1 X99.379 Y76.431 E3.31238
G1 X99.795 Y76.358 E3.32417 F1800.000
G1 X100.203 Y76.358 E3.33557
G1 X100.423 Y76.387 E3.34178
G1 X100.821 Y76.494 E3.35329
G1 X101.201 Y76.671 E3.36497
G1 X101.544 Y76.911 E3.37666
G1 X101.840 Y77.207 E3.38835
G1 X102.080 Y77.550 E3.40004
G1 X102.258 Y77.932 E3.41182
G1 X102.363 Y78.327 E3.42322
G1 X102.392 Y78.547 E3.42944
G1 X102.392 Y78.959 E3.44094
G1 X102.318 Y79.375 E3.45273
G1 X102.179 Y79.759 E3.46413
G1 X102.076 Y79.956 E3.47034
G1 X101.843 Y80.288 E3.48166
G1 X101.693 Y80.452 E3.48787
G1 X101.377 Y80.717 E3.49938
G1 X101.015 Y80.926 E3.51106
G1 X100.622 Y81.069 E3.52275
G1 X100.216 Y81.141 E3.53426
G1 X100.065 Y81.147 E3.53848
G1 X99.770 Y81.495 F7800.000
G1 X94.594 Y86.659 F7800.000
G1 X94.351 Y78.870 E3.75608 F1800.000
G1 X94.350 Y72.022 E3.94728
G1 X94.798 Y72.567 E3.96697
G1 X95.312 Y73.009 E3.98590
G1 X95.726 Y73.267 E3.99952
G1 X96.242 Y73.512 E4.01547
G1 X96.902 Y73.702 E4.03464
G1 X97.590 Y73.776 E4.05397
G1 X98.281 Y73.731 E4.07331
G1 X98.954 Y73.569 E4.09264
G1 X99.590 Y73.293 E4.11198
G1 X100.168 Y72.913 E4.13131
G1 X100.673 Y72.439 E4.15065
G1 X101.072 Y71.910 E4.16915
G1 X101.272 Y71.557 E4.18047
G1 X101.515 Y70.961 E4.19846
G1 X101.992 Y71.974 E4.22974
G1 X102.463 Y72.797 E4.25621
G1 X102.998 Y73.578 E4.28265
G1 X104.022 Y74.846 E4.32815
G1 X104.403 Y75.409 E4.34713
G1 X104.736 Y76.002 E4.36613
G1 X105.018 Y76.621 E4.38513
G1 X105.248 Y77.262 E4.40412
G1 X105.423 Y77.919 E4.42312
G1 X105.544 Y78.589 E4.44212
G1 X105.607 Y79.266 E4.46112
G1 X105.615 Y79.975 E4.48092
G1 X105.406 Y86.659 E4.66763
G1 X105.172 Y86.719 E4.67438
G1 X105.036 Y86.487 E4.68189
G1 X104.735 Y86.064 E4.69639
G1 X104.398 Y85.668 E4.71090
G1 X104.029 Y85.303 E4.72540
G1 X103.629 Y84.971 E4.73991
G1 X103.202 Y84.675 E4.75441
G1 X102.751 Y84.417 E4.76892
G1 X102.280 Y84.199 E4.78342
G1 X101.791 Y84.023 E4.79792
G1 X101.289 Y83.890 E4.81243
G1 X100.777 Y83.800 E4.82693
G1 X100.260 Y83.755 E4.84144
G1 X99.740 Y83.755 E4.85594
G1 X99.223 Y83.800 E4.87045
G1 X98.711 Y83.890 E4.88495
G1 X98.209 Y84.023 E4.89945
G1 X97.721 Y84.199 E4.91396
G1 X97.249 Y84.417 E4.92846
G1 X96.798 Y84.675 E4.94297
