; generated by Slic3r 1.2.9 on 2017-10-22 at 09:19:36

; external perimeters extrusion width = 0.50mm
; perimeters extrusion width = 0.85mm
; infill extrusion width = 1.02mm
; solid infill extrusion width = 0.85mm
; top infill extrusion width = 0.85mm

M107
M190 S60 ; set bed temperature
M104 S200 ; set temperature
G28 ; home all axes
G1 Z5 F5000 ; lift nozzle

M109 S200 ; wait for temperature to be reached
G21 ; set units to millimeters
G90 ; use absolute coordinates
M82 ; use absolute distances for extrusion
G92 E0
G1 Z0.240 F7800.000
G1 E-2.00000 F2400.00000
G92 E0
G1 X67.215 Y89.408 F7800.000
G1 E2.00000 F2400.00000
G1 X69.283 Y88.501 E2.03709 F1800.000
G1 X70.520 Y88.327 E2.05759
G1 X117.453 Y86.342 E2.82882
G1 X118.480 Y86.324 E2.84567
G1 X119.024 Y86.338 E2.85461 F1800.000
G1 X121.057 Y86.724 E2.88858
G1 X127.118 Y88.930 E2.99448
G1 X128.923 Y89.941 E3.02845
G1 X129.366 Y90.294 E3.03775
G1 X130.044 Y90.882 E3.05249
G1 X131.354 Y92.485 E3.08646
G1 X134.579 Y98.070 E3.19236
G1 X135.312 Y100.006 E3.22633
G1 X135.482 Y100.887 E3.24107
G1 X135.566 Y101.447 E3.25037
G1 X135.503 Y103.705 E3.28746
G1 X134.663 Y105.802 E3.32454
G1 X133.707 Y106.992 E3.34961
G1 X133.302 Y107.389 E3.35891
G1 X132.519 Y108.067 E3.37592
G1 X128.016 Y111.756 E3.47149
G1 X127.258 Y112.310 E3.48690
G1 X126.619 Y112.687 E3.49908
G1 X125.801 Y113.069 E3.51390
G1 X125.108 Y113.313 E3.52597
G1 X124.396 Y113.496 E3.53804
G1 X123.671 Y113.616 E3.55011
G1 X123.112 Y113.665 E3.55932
G1 X122.657 Y113.678 E3.56678
G1 X89.224 Y113.672 E4.11568
G1 X87.917 Y113.615 E4.13717
G1 X87.358 Y113.566 E4.14637
G1 X86.061 Y113.396 E4.16786
G1 X85.458 Y113.287 E4.17792
G1 X84.231 Y113.015 E4.19855
G1 X83.689 Y112.870 E4.20775
G1 X82.441 Y112.476 E4.22924
G1 X81.914 Y112.285 E4.23845
G1 X80.705 Y111.784 E4.25993
G1 X80.197 Y111.547 E4.26914
G1 X79.036 Y110.943 E4.29062
G1 X78.551 Y110.662 E4.29983
G1 X77.447 Y109.959 E4.32131
G1 X76.988 Y109.637 E4.33052
G1 X75.950 Y108.841 E4.35200
G1 X75.520 Y108.480 E4.36121
G1 X74.353 Y107.402 E4.38730
G1 X66.246 Y99.296 E4.57552
G1 X64.954 Y97.443 E4.61261
G1 X64.383 Y95.257 E4.64970
G1 X64.603 Y93.009 E4.68678
G1 X65.588 Y90.976 E4.72387
G1 X67.161 Y89.461 E4.75973
G1 E2.75973 F2400.00000
G92 E0
G1 X118.694 Y105.551 F7800.000
G1 E2.00000 F2400.00000
G1 X118.293 Y105.591 E2.00662 F1800.000
G1 X117.967 Y105.562 E2.01200
G1 X117.523 Y105.423 E2.01963
G1 X117.236 Y105.258 E2.02507
G1 X116.990 Y105.052 E2.03034
G1 X116.780 Y104.802 E2.03570
G1 X116.563 Y104.385 E2.04342
G1 X116.479 Y104.070 E2.04877
G1 X116.451 Y103.750 E2.05404
G1 X116.479 Y103.425 E2.05939
G1 X116.618 Y102.982 E2.06703
G1 X116.783 Y102.694 E2.07247
G1 X116.990 Y102.448 E2.07774
G1 X117.236 Y102.242 E2.08301
G1 X117.514 Y102.082 E2.08828
G1 X117.820 Y101.970 E2.09363
G1 X118.281 Y101.909 E2.10126 F1800.000
G1 X118.611 Y101.937 E2.10670
G1 X118.921 Y102.020 E2.11198
G1 X119.217 Y102.158 E2.11733
G1 X119.590 Y102.444 E2.12505
G1 X119.803 Y102.698 E2.13049
G1 X120.020 Y103.115 E2.13821
G1 X120.105 Y103.430 E2.14357
G1 X120.132 Y103.750 E2.14884
G1 X120.104 Y104.075 E2.15419
G1 X119.965 Y104.518 E2.16182
G1 X119.800 Y104.806 E2.16726
G1 X119.590 Y105.056 E2.17262
G1 X119.217 Y105.342 E2.18034
G1 X118.926 Y105.478 E2.18561
G1 X118.766 Y105.528 E2.18837
G1 X118.554 Y105.929 F7800.000
G1 X115.682 Y105.390 F7800.000
G1 X111.902 Y105.390 E2.25043 F1800.000
G1 X111.902 Y102.110 E2.30428
G1 X115.682 Y102.110 E2.36634
G1 X115.682 Y105.315 E2.41896
G1 X115.682 Y105.890 F7800.000
G1 X111.045 Y106.153 F7800.000
G1 X89.529 Y106.153 E2.77220 F1800.000
G1 X88.293 Y106.099 E2.79251
G1 X87.091 Y105.941 E2.81242
G1 X85.907 Y105.678 E2.83233
G1 X84.750 Y105.314 E2.85224
G1 X83.630 Y104.849 E2.87215
G1 X82.554 Y104.289 E2.89207
G1 X81.531 Y103.638 E2.91198
G1 X80.569 Y102.900 E2.93189
G1 X79.657 Y102.064 E2.95219
G1 X73.440 Y95.847 E3.09654
G1 X79.530 Y95.847 E3.19652
G1 X83.761 Y100.078 E3.29476
G1 X84.138 Y100.424 E3.30316
G1 X84.557 Y100.745 E3.31184
G1 X85.006 Y101.031 E3.32057
G1 X85.478 Y101.277 E3.32930
G1 X85.969 Y101.480 E3.33804
G1 X86.477 Y101.640 E3.34677
G1 X86.996 Y101.755 E3.35551
G1 X87.524 Y101.825 E3.36424
G1 X88.031 Y101.847 E3.37258
G1 X109.167 Y101.847 E3.71959
G1 X109.750 Y101.772 E3.72923
G1 X109.933 Y101.778 E3.73225
G1 X110.039 Y101.847 E3.73432
G1 X111.045 Y101.847 E3.75083
G1 X111.045 Y106.078 E3.82029
G1 E1.82029 F2400.00000
G92 E0
G1 X116.539 Y101.253 F7800.000
G1 E2.00000 F2400.00000
G1 X113.478 Y101.253 E2.05025 F1800.000
G1 X113.753 Y100.807 E2.05886
G1 X113.910 Y100.343 E2.06690
G1 X113.957 Y99.965 E2.07315
G1 X113.942 Y99.576 E2.07954
G1 X113.812 Y99.052 E2.08841
G1 X113.550 Y98.546 E2.09777
G1 X113.265 Y98.182 E2.10536
G1 X112.921 Y97.858 E2.11312
G1 X112.671 Y97.670 E2.11826
G1 X112.421 Y97.523 E2.12300
G1 X112.288 Y97.300 E2.12727
G1 X112.101 Y96.835 E2.13550
G1 X111.951 Y96.196 E2.14627
G1 X112.525 Y96.435 E2.15648
G1 X112.750 Y96.561 E2.16071
G1 X113.081 Y96.797 E2.16740
G1 X113.187 Y96.906 E2.16989
G1 X113.309 Y97.226 E2.17551
G1 X113.579 Y97.695 E2.18439
G1 X113.889 Y98.079 E2.19250
G1 X114.364 Y98.475 E2.20265
G1 X114.892 Y98.730 E2.21227
G1 X115.450 Y98.843 E2.22163
G1 X116.004 Y98.812 E2.23074
G1 X116.581 Y98.626 E2.24068
G1 X117.001 Y98.416 E2.24839
G1 X117.408 Y98.067 E2.25720
G1 X117.727 Y97.618 E2.26624
G1 X117.937 Y97.084 E2.27567
G1 X118.022 Y96.499 E2.28537
G1 X118.002 Y96.014 E2.29333
G1 X117.901 Y95.498 E2.30198
G1 X117.797 Y95.207 E2.30704
G1 X117.839 Y94.950 E2.31131
G1 X117.994 Y94.474 E2.31954
G1 X118.289 Y93.888 E2.33031
G1 X118.576 Y94.440 E2.34052
G1 X118.674 Y94.698 E2.34506
G1 X118.771 Y95.067 E2.35132
G1 X118.786 Y95.212 E2.35371
G1 X118.668 Y95.549 E2.35958
G1 X118.574 Y96.082 E2.36847
G1 X118.565 Y96.556 E2.37624
G1 X118.630 Y97.012 E2.38380
G1 X118.817 Y97.544 E2.39306
G1 X119.140 Y98.029 E2.40262
G1 X119.555 Y98.398 E2.41175
G1 X119.982 Y98.619 E2.41963
G1 X120.558 Y98.808 E2.42959
G1 X121.088 Y98.845 E2.43831
G1 X121.626 Y98.751 E2.44728
G1 X122.140 Y98.523 E2.45652
G1 X122.594 Y98.177 E2.46587
G1 X122.903 Y97.833 E2.47347
G1 X123.162 Y97.438 E2.48122
G1 X123.303 Y97.159 E2.48637
G1 X123.401 Y96.897 E2.49096
G1 X123.470 Y96.825 E2.49259
G1 X123.813 Y96.573 E2.49958
G1 X124.007 Y96.462 E2.50326
G1 X124.629 Y96.194 E2.51437
G1 X124.577 Y96.483 E2.51920
G1 X124.403 Y97.062 E2.52912
G1 X124.321 Y97.251 E2.53251
G1 X124.165 Y97.523 E2.53765
G1 X123.869 Y97.700 E2.54332
G1 X123.613 Y97.899 E2.54864
G1 X123.269 Y98.236 E2.55655
G1 X122.982 Y98.625 E2.56448
G1 X122.746 Y99.131 E2.57365
G1 X122.650 Y99.530 E2.58040
G1 X122.624 Y99.914 E2.58671
G1 X122.663 Y100.284 E2.59282
G1 X122.770 Y100.668 E2.59936
G1 X123.089 Y101.253 E2.61031
G1 X120.045 Y101.253 E2.66030
G1 X120.045 Y101.713 E2.66785
G1 X119.664 Y101.421 E2.67572
G1 X119.215 Y101.212 E2.68385
G1 X118.759 Y101.090 E2.69160
G1 X118.261 Y101.047 E2.69982
G1 X117.615 Y101.133 E2.71052
G1 X117.150 Y101.302 E2.71863
G1 X116.742 Y101.537 E2.72636
G1 X116.539 Y101.708 E2.73073
G1 X116.539 Y101.328 E2.73697
G1 X116.110 Y101.682 F7800.000
G1 X111.473 Y101.682 E2.81310 F1800.000
G1 X111.473 Y105.818 E2.88102
G1 X116.110 Y105.818 E2.95715
G1 X116.110 Y104.867 E2.97277
G1 X116.306 Y104.819 E2.97608
G1 X116.422 Y105.041 E2.98020
G1 X116.686 Y105.356 E2.98694
G1 X116.990 Y105.611 E2.99345
G1 X117.350 Y105.818 E3.00028
G1 X117.883 Y105.985 E3.00945
G1 X118.296 Y106.021 E3.01625
G1 X118.781 Y105.973 E3.02426
G1 X119.082 Y105.878 E3.02943
G1 X119.440 Y105.711 E3.03593
G1 X119.888 Y105.367 E3.04520
G1 X120.152 Y105.052 E3.05195
G1 X120.282 Y104.826 E3.05623
G1 X120.473 Y104.877 E3.05947
G1 X120.473 Y105.818 E3.07493
G1 X123.875 Y105.818 E3.13079
G1 X123.675 Y106.104 E3.13652
G1 X123.512 Y106.268 E3.14032
G1 X123.322 Y106.401 E3.14412
G1 X123.112 Y106.499 E3.14793
G1 X122.888 Y106.559 E3.15173
G1 X122.628 Y106.582 E3.15601
G1 X89.519 Y106.582 E3.69959
G1 X88.256 Y106.526 E3.72035
G1 X87.016 Y106.363 E3.74088
G1 X85.796 Y106.093 E3.76141
G1 X84.603 Y105.717 E3.78193
G1 X83.448 Y105.238 E3.80246
G1 X82.339 Y104.661 E3.82298
G1 X81.285 Y103.989 E3.84351
G1 X80.293 Y103.228 E3.86403
G1 X79.361 Y102.374 E3.88480
G1 X72.405 Y95.418 E4.04629
G1 X79.707 Y95.418 E4.16616
G1 X84.057 Y99.769 E4.26717
G1 X84.414 Y100.095 E4.27510
G1 X84.803 Y100.394 E4.28316
G1 X85.220 Y100.660 E4.29128
G1 X85.659 Y100.888 E4.29940
G1 X86.116 Y101.077 E4.30752
G1 X86.588 Y101.226 E4.31564
G1 X87.071 Y101.333 E4.32376
G1 X87.561 Y101.398 E4.33188
G1 X88.040 Y101.418 E4.33976
G1 X109.135 Y101.418 E4.68608
G1 X109.742 Y101.343 E4.69612
G1 X110.068 Y101.354 E4.70148
G1 X110.166 Y101.418 E4.70341
G1 X112.872 Y101.418 E4.74783
G1 X113.363 Y100.624 E4.76317
G1 X113.490 Y100.247 E4.76970
G1 X113.528 Y99.947 E4.77466
G1 X113.515 Y99.637 E4.77975
G1 X113.408 Y99.204 E4.78708
G1 X113.188 Y98.778 E4.79495
G1 X112.948 Y98.471 E4.80134
G1 X112.645 Y98.186 E4.80818
G1 X112.433 Y98.027 E4.81253
G1 X112.122 Y97.844 E4.81844
G1 X111.903 Y97.491 E4.82527
G1 X111.695 Y96.974 E4.83443
G1 X111.609 Y96.668 E4.83964
G1 X111.534 Y96.301 E4.84579
G1 X111.498 Y95.970 E4.85125
G1 X111.813 Y95.706 E4.85800
G1 X112.390 Y95.902 E4.86800
G1 X112.719 Y96.053 E4.87393
G1 X112.979 Y96.198 E4.87882
G1 X113.361 Y96.471 E4.88653
G1 X113.556 Y96.670 E4.89111
G1 X113.697 Y97.041 E4.89763
G1 X113.934 Y97.452 E4.90540
G1 X114.196 Y97.777 E4.91227
G1 X114.598 Y98.112 E4.92086
G1 X115.030 Y98.321 E4.92873
G1 X115.481 Y98.412 E4.93629
G1 X115.925 Y98.388 E4.94359
G1 X116.418 Y98.228 E4.95209
G1 X116.762 Y98.057 E4.95840
G1 X117.089 Y97.776 E4.96548
G1 X117.347 Y97.412 E4.97281
G1 X117.521 Y96.973 E4.98056
G1 X117.592 Y96.477 E4.98878
G1 X117.575 Y96.065 E4.99556
G1 X117.486 Y95.611 E5.00315
G1 X117.362 Y95.261 E5.00926
G1 X117.421 Y94.849 E5.01608
G1 X117.594 Y94.319 E5.02524
G1 X117.725 Y94.029 E5.03046
G1 X117.904 Y93.700 E5.03661
G1 X118.088 Y93.425 E5.04205
G1 X118.499 Y93.424 E5.04880
G1 X118.816 Y93.945 E5.05881
G1 X118.970 Y94.272 E5.06474
G1 X119.153 Y94.808 E5.07404
G1 X119.222 Y95.262 E5.08158
G1 X119.084 Y95.658 E5.08846
G1 X119.002 Y96.124 E5.09624
G1 X118.994 Y96.530 E5.10290
G1 X119.048 Y96.909 E5.10919
G1 X119.204 Y97.351 E5.11688
G1 X119.466 Y97.745 E5.12465
G1 X119.800 Y98.042 E5.13199
G1 X120.148 Y98.222 E5.13842
G1 X120.641 Y98.384 E5.14695
G1 X121.065 Y98.414 E5.15393
G1 X121.500 Y98.338 E5.16118
G1 X121.920 Y98.151 E5.16873
G1 X122.302 Y97.861 E5.17660
G1 X122.562 Y97.571 E5.18299
G1 X122.790 Y97.223 E5.18982
G1 X122.910 Y96.986 E5.19418
G1 X123.030 Y96.664 E5.19982
G1 X123.186 Y96.502 E5.20351
G1 X123.579 Y96.213 E5.21152
G1 X124.106 Y95.939 E5.22127
G1 X124.454 Y95.802 E5.22742
G1 X124.773 Y95.709 E5.23287
G1 X125.088 Y95.973 E5.23962
G1 X124.996 Y96.576 E5.24963
G1 X124.904 Y96.925 E5.25556
G1 X124.704 Y97.444 E5.26468
G1 X124.455 Y97.849 E5.27249
G1 X124.111 Y98.054 E5.27907
G1 X123.895 Y98.222 E5.28356
G1 X123.593 Y98.518 E5.29050
G1 X123.352 Y98.845 E5.29716
G1 X123.152 Y99.273 E5.30492
G1 X123.075 Y99.595 E5.31036
G1 X123.054 Y99.906 E5.31548
G1 X123.085 Y100.204 E5.32039
G1 X123.169 Y100.505 E5.32553
G1 X123.458 Y101.034 E5.33543
G1 X123.635 Y101.253 E5.34005
G1 X123.932 Y101.496 E5.34634
G1 X123.878 Y101.682 E5.34951
G1 X120.473 Y101.682 E5.40541
G1 X120.473 Y102.633 E5.42103
G1 X120.277 Y102.681 E5.42434
G1 X120.161 Y102.459 E5.42846
G1 X119.888 Y102.133 E5.43544
G1 X119.440 Y101.789 E5.44470
G1 X119.068 Y101.616 E5.45144
G1 X118.685 Y101.513 E5.45796
G1 X118.271 Y101.478 E5.46479
G1 X117.717 Y101.551 E5.47395
G1 X117.332 Y101.692 E5.48069
G1 X116.989 Y101.890 E5.48719
G1 X116.686 Y102.144 E5.49368
G1 X116.431 Y102.448 E5.50020
G1 X116.301 Y102.674 E5.50448
G1 X116.110 Y102.623 E5.50772
G1 X116.110 Y101.757 E5.52195
G1 X125.539 Y102.208 F7800.000
G1 X126.100 Y102.039 E5.53158 F1800.000
G1 X126.635 Y101.780 E5.54134
G1 X126.879 Y101.776 E5.54535
G1 X127.375 Y101.846 E5.55357
G1 X128.004 Y102.035 E5.56434
G1 X127.777 Y102.223 E5.56917
G1 X127.272 Y102.555 E5.57909
G1 X127.087 Y102.647 E5.58249
G1 X126.808 Y102.750 E5.58737
G1 X126.172 Y102.688 E5.59787
G1 X125.869 Y102.700 E5.60284
G1 X125.539 Y102.752 E5.60834
G1 X125.539 Y102.283 E5.61604
G1 X125.110 Y101.820 F7800.000
G1 X125.533 Y101.762 E5.62304 F1800.000
G1 X125.946 Y101.638 E5.63013
G1 X126.503 Y101.358 E5.64035
G1 X126.906 Y101.347 E5.64698
G1 X127.458 Y101.425 E5.65614
G1 X127.766 Y101.504 E5.66136
G1 X128.121 Y101.623 E5.66751
G1 X128.425 Y101.757 E5.67296
G1 X128.497 Y102.162 E5.67971
G1 X128.039 Y102.563 E5.68971
G1 X127.744 Y102.772 E5.69564
G1 X127.257 Y103.041 E5.70477
G1 X126.906 Y103.170 E5.71091
G1 X126.819 Y103.189 E5.71238
G1 X126.652 Y103.156 E5.71518
G1 X126.163 Y103.117 E5.72322
G1 X125.911 Y103.127 E5.72736
G1 X125.512 Y103.190 E5.73399
G1 X125.110 Y103.338 E5.74103
G1 X125.110 Y101.895 E5.76472
G1 X124.682 Y102.110 F7800.000
G1 X120.902 Y102.110 E5.82678 F1800.000
G1 X120.902 Y105.390 E5.88063
G1 X124.412 Y105.390 E5.93826
G1 X124.356 Y105.705 E5.94352
G1 X124.250 Y105.998 E5.94864
G1 X124.184 Y106.125 E5.95099
G1 X124.005 Y106.381 E5.95611
G1 X123.788 Y106.598 E5.96114
G1 X123.537 Y106.773 E5.96618
G1 X123.259 Y106.903 E5.97121
G1 X122.963 Y106.982 E5.97625
G1 X122.647 Y107.010 E5.98145
G1 X89.510 Y107.010 E6.52549
G1 X88.218 Y106.954 E6.54671
G1 X86.942 Y106.786 E6.56785
G1 X85.685 Y106.507 E6.58899
G1 X84.457 Y106.120 E6.61013
G1 X83.267 Y105.627 E6.63127
G1 X82.125 Y105.032 E6.65241
G1 X81.039 Y104.340 E6.67355
G1 X80.017 Y103.557 E6.69469
G1 X79.064 Y102.683 E6.71592
G1 X71.371 Y94.990 E6.89454
G1 X79.885 Y94.990 E7.03432
G1 X84.354 Y99.459 E7.13808
G1 X84.689 Y99.766 E7.14556
G1 X85.049 Y100.043 E7.15300
G1 X85.435 Y100.288 E7.16051
G1 X85.840 Y100.499 E7.16801
G1 X86.263 Y100.674 E7.17552
G1 X86.699 Y100.812 E7.18303
G1 X87.145 Y100.911 E7.19053
G1 X87.598 Y100.970 E7.19804
G1 X88.050 Y100.990 E7.20546
G1 X109.102 Y100.990 E7.55109
G1 X109.734 Y100.914 E7.56153
G1 X110.104 Y100.927 E7.56761
G1 X110.228 Y100.947 E7.56968
G1 X110.293 Y100.990 E7.57096
G1 X112.633 Y100.990 E7.60937
G1 X112.973 Y100.440 E7.61999
G1 X113.070 Y100.151 E7.62499
G1 X113.098 Y99.929 E7.62867
G1 X113.089 Y99.698 E7.63247
G1 X113.004 Y99.356 E7.63825
G1 X112.826 Y99.010 E7.64463
G1 X112.631 Y98.761 E7.64983
G1 X112.368 Y98.515 E7.65574
G1 X112.195 Y98.384 E7.65931
G1 X111.838 Y98.175 E7.66609
G1 X111.739 Y98.052 E7.66868
G1 X111.518 Y97.682 E7.67576
G1 X111.289 Y97.112 E7.68584
G1 X111.192 Y96.768 E7.69171
G1 X111.111 Y96.367 E7.69844
G1 X111.048 Y95.796 E7.70785
G1 X111.718 Y95.235 E7.72220
G1 X112.136 Y95.351 E7.72933
G1 X112.554 Y95.506 E7.73665
G1 X112.913 Y95.671 E7.74312
G1 X113.208 Y95.835 E7.74868
G1 X113.641 Y96.144 E7.75740
G1 X113.925 Y96.434 E7.76407
G1 X114.086 Y96.857 E7.77149
G1 X114.288 Y97.209 E7.77816
G1 X114.503 Y97.475 E7.78378
G1 X114.832 Y97.749 E7.79081
G1 X115.168 Y97.912 E7.79693
G1 X115.513 Y97.981 E7.80271
G1 X115.846 Y97.963 E7.80819
G1 X116.255 Y97.831 E7.81525
G1 X116.523 Y97.697 E7.82016
G1 X116.770 Y97.485 E7.82551
G1 X116.968 Y97.207 E7.83111
G1 X117.104 Y96.862 E7.83719
G1 X117.162 Y96.455 E7.84394
G1 X117.148 Y96.115 E7.84953
G1 X117.072 Y95.724 E7.85607
G1 X116.932 Y95.331 E7.86292
G1 X116.935 Y95.173 E7.86551
G1 X117.003 Y94.748 E7.87259
G1 X117.194 Y94.164 E7.88267
G1 X117.341 Y93.838 E7.88854
G1 X117.537 Y93.478 E7.89527
G1 X117.855 Y93.002 E7.90468
G1 X118.729 Y93.001 E7.91903
G1 X118.975 Y93.360 E7.92616
G1 X119.196 Y93.747 E7.93348
G1 X119.364 Y94.103 E7.93995
G1 X119.569 Y94.702 E7.95034
G1 X119.618 Y94.932 E7.95420
G1 X119.652 Y95.329 E7.96074
G1 X119.500 Y95.766 E7.96834
G1 X119.430 Y96.166 E7.97500
G1 X119.423 Y96.503 E7.98055
G1 X119.466 Y96.807 E7.98558
G1 X119.590 Y97.158 E7.99169
G1 X119.792 Y97.462 E7.99768
G1 X120.044 Y97.686 E8.00323
G1 X120.314 Y97.826 E8.00821
G1 X120.724 Y97.960 E8.01530
G1 X121.043 Y97.983 E8.02055
G1 X121.374 Y97.925 E8.02607
G1 X121.701 Y97.780 E8.03193
G1 X122.010 Y97.544 E8.03831
G1 X122.222 Y97.309 E8.04351
G1 X122.419 Y97.008 E8.04942
G1 X122.517 Y96.814 E8.05299
G1 X122.660 Y96.432 E8.05968
G1 X122.902 Y96.178 E8.06544
G1 X123.345 Y95.853 E8.07446
G1 X123.934 Y95.546 E8.08537
