; generated by Slic3r 1.2.9 on 2017-10-21 at 20:16:01

; external perimeters extrusion width = 0.50mm
; perimeters extrusion width = 0.85mm
; infill extrusion width = 1.02mm
; solid infill extrusion width = 0.85mm
; top infill extrusion width = 0.85mm

M107
M190 S60 ; set bed temperature
M104 S200 ; set temperature
G28 ; home all axes
G1 Z5 F5000 ; lift nozzle

M109 S200 ; wait for temperature to be reached
G21 ; set units to millimeters
G90 ; use absolute coordinates
M82 ; use absolute distances for extrusion
G92 E0
G1 Z0.240 F7800.000
G1 E-2.00000 F2400.00000
G92 E0
G1 X42.736 Y85.893 F7800.000
G1 E2.00000 F2400.00000
G1 X44.352 Y85.256 E2.02852 F1800.000
G1 X60.491 Y81.306 E2.30131
G1 X60.971 Y81.206 E2.30936
G1 X61.446 Y81.134 E2.31725
G1 X62.074 Y81.082 E2.32760
G1 X150.000 Y81.072 E3.77115
G1 X152.224 Y81.468 E3.80824
G1 X154.546 Y82.954 E3.85350 F1800.000
G1 X161.546 Y89.954 E4.01603
G1 X162.837 Y91.807 E4.05311
G1 X163.428 Y94.500 E4.09837
G1 X163.428 Y105.500 E4.27897
G1 X163.032 Y107.724 E4.31605
G1 X161.546 Y110.046 E4.36131
G1 X154.546 Y117.046 E4.52384
G1 X152.693 Y118.337 E4.56093
G1 X150.000 Y118.928 E4.60619
G1 X62.074 Y118.918 E6.04974
G1 X61.446 Y118.866 E6.06008
G1 X60.971 Y118.794 E6.06798
G1 X60.491 Y118.694 E6.07603
G1 X44.352 Y114.744 E6.34881
G1 X42.286 Y113.830 E6.38590
G1 X40.664 Y112.258 E6.42299
G1 X39.686 Y110.221 E6.46008
G1 X39.452 Y108.500 E6.48860
G1 X39.452 Y91.500 E6.76770
G1 X39.848 Y89.276 E6.80479
G1 X40.990 Y87.327 E6.84188
G1 X42.678 Y85.941 E6.87773
G1 E4.87773 F2400.00000
G92 E0
G1 X88.168 Y106.918 F7800.000
G1 E2.00000 F2400.00000
G1 X64.713 Y106.918 E2.38509 F1800.000
G1 X64.653 Y107.093 E2.38812
G1 X65.108 Y107.442 E2.39752
G1 X65.458 Y107.897 E2.40696
G1 X65.634 Y108.273 E2.41376
G1 X65.737 Y108.656 E2.42027
G1 X65.771 Y109.050 E2.42677
G1 X65.737 Y109.444 E2.43327
G1 X65.630 Y109.841 E2.44001
G1 X65.370 Y110.341 E2.44927
G1 X65.097 Y110.667 E2.45625
G1 X64.653 Y111.008 E2.46544
G1 X64.277 Y111.184 E2.47225
G1 X63.894 Y111.287 E2.47876
G1 X63.500 Y111.321 E2.48526
G1 X63.106 Y111.287 E2.49176
G1 X62.709 Y111.180 E2.49850
G1 X62.209 Y110.920 E2.50776
G1 X61.883 Y110.647 E2.51474
G1 X61.542 Y110.203 E2.52393
G1 X61.366 Y109.827 E2.53074
G1 X61.263 Y109.444 E2.53724
G1 X61.229 Y109.050 E2.54374
G1 X61.263 Y108.656 E2.55024
G1 X61.366 Y108.273 E2.55674
G1 X61.539 Y107.901 E2.56348
G1 X61.883 Y107.454 E2.57274
G1 X62.197 Y107.190 E2.57949
G1 X62.540 Y106.992 E2.58598
G1 X62.926 Y106.851 E2.59272
G1 X63.481 Y106.778 E2.60191
G1 X63.832 Y106.808 E2.60769
G1 X63.832 Y93.192 E2.83124
G1 X63.486 Y93.222 E2.83694
G1 X62.931 Y93.150 E2.84613
G1 X62.541 Y93.009 E2.85293
G1 X62.197 Y92.810 E2.85944
G1 X61.894 Y92.556 E2.86594
G1 X61.630 Y92.242 E2.87268
G1 X61.371 Y91.745 E2.88187
G1 X61.264 Y91.345 E2.88868
G1 X61.229 Y90.950 E2.89518
G1 X61.263 Y90.556 E2.90168
G1 X61.370 Y90.159 E2.90843
G1 X61.630 Y89.659 E2.91769
G1 X61.894 Y89.344 E2.92443
G1 X62.197 Y89.090 E2.93093
G1 X62.540 Y88.892 E2.93743
G1 X62.926 Y88.751 E2.94416
G1 X63.481 Y88.678 E2.95335
G1 X63.894 Y88.713 E2.96016
G1 X64.277 Y88.816 E2.96667
G1 X64.649 Y88.989 E2.97341
G1 X65.096 Y89.333 E2.98267
G1 X65.370 Y89.658 E2.98965
G1 X65.629 Y90.155 E2.99884
G1 X65.736 Y90.555 E3.00565
G1 X65.771 Y90.950 E3.01216
G1 X65.737 Y91.344 E3.01866
G1 X65.630 Y91.741 E3.02540
G1 X65.370 Y92.241 E3.03466
G1 X65.097 Y92.567 E3.04164
G1 X64.654 Y92.907 E3.05080
G1 X64.713 Y93.082 E3.05383
G1 X88.168 Y93.082 E3.43891
G1 X88.168 Y106.843 E3.66485
G1 X65.329 Y108.916 F7800.000
G1 X65.341 Y109.050 E3.66705 F1800.000
G1 X65.313 Y109.370 E3.67232
G1 X65.229 Y109.685 E3.67768
G1 X65.011 Y110.102 E3.68540
G1 X64.798 Y110.356 E3.69084
G1 X64.429 Y110.640 E3.69849
G1 X64.130 Y110.780 E3.70391
G1 X63.820 Y110.863 E3.70918
G1 X63.500 Y110.891 E3.71445
G1 X63.180 Y110.863 E3.71972
G1 X62.865 Y110.779 E3.72507
G1 X62.448 Y110.561 E3.73279
G1 X62.194 Y110.348 E3.73824
G1 X61.910 Y109.979 E3.74589
G1 X61.770 Y109.680 E3.75131
G1 X61.687 Y109.370 E3.75658
G1 X61.659 Y109.050 E3.76185
G1 X61.687 Y108.730 E3.76712
G1 X61.770 Y108.420 E3.77239
G1 X61.908 Y108.125 E3.77774
G1 X62.194 Y107.752 E3.78546
G1 X62.444 Y107.542 E3.79082
G1 X62.722 Y107.382 E3.79609
G1 X63.028 Y107.270 E3.80144
G1 X63.491 Y107.209 E3.80909 F1800.000
G1 X63.819 Y107.237 E3.81451
G1 X64.130 Y107.320 E3.81978
G1 X64.425 Y107.458 E3.82514
G1 X64.802 Y107.747 E3.83295
G1 X65.090 Y108.121 E3.84069
G1 X65.230 Y108.420 E3.84611
G1 X65.313 Y108.730 E3.85138
G1 X65.323 Y108.842 E3.85321
G1 X65.451 Y108.973 F7800.000
G1 X64.260 Y106.490 F7800.000
G1 X64.260 Y93.510 E4.06632 F1800.000
G1 X87.740 Y93.510 E4.45181
G1 X87.740 Y106.490 E4.66491
G1 X64.335 Y106.490 E5.04917
G1 X63.760 Y106.490 F7800.000
G1 X63.495 Y92.791 F7800.000
G1 X63.032 Y92.731 E5.05683 F1800.000
G1 X62.722 Y92.619 E5.06225
G1 X62.444 Y92.458 E5.06752
G1 X62.198 Y92.252 E5.07279
G1 X61.989 Y92.002 E5.07814
G1 X61.773 Y91.588 E5.08580
G1 X61.687 Y91.270 E5.09121
G1 X61.659 Y90.950 E5.09648
G1 X61.687 Y90.630 E5.10175
G1 X61.771 Y90.315 E5.10711
G1 X61.989 Y89.898 E5.11483
G1 X62.198 Y89.648 E5.12018
G1 X62.444 Y89.442 E5.12545
G1 X62.722 Y89.282 E5.13072
G1 X63.028 Y89.170 E5.13607
G1 X63.491 Y89.109 E5.14373 F1800.000
G1 X63.819 Y89.137 E5.14915
G1 X64.130 Y89.220 E5.15442
G1 X64.425 Y89.358 E5.15977
G1 X64.798 Y89.644 E5.16750
G1 X65.011 Y89.898 E5.17294
G1 X65.227 Y90.312 E5.18059
G1 X65.313 Y90.630 E5.18601
G1 X65.341 Y90.950 E5.19128
G1 X65.313 Y91.270 E5.19655
G1 X65.229 Y91.585 E5.20190
G1 X65.011 Y92.002 E5.20963
G1 X64.798 Y92.256 E5.21507
G1 X64.429 Y92.540 E5.22272
G1 X64.130 Y92.680 E5.22814
G1 X63.820 Y92.763 E5.23341
G1 X63.570 Y92.785 E5.23753
G1 X63.239 Y93.181 F7800.000
G1 X63.403 Y93.644 F7800.000
G1 X63.403 Y99.106 E5.32722 F1800.000
G1 X62.959 Y98.663 E5.33752
G1 X62.507 Y98.402 E5.34609
G1 X62.072 Y98.305 E5.35340
G1 X61.728 Y98.305 E5.35906
G1 X61.340 Y98.391 E5.36558
G1 X61.005 Y98.547 E5.37164
G1 X60.587 Y98.898 E5.38061
G1 X60.302 Y99.393 E5.38998
G1 X60.205 Y99.828 E5.39729
G1 X60.205 Y100.197 E5.40335
G1 X60.340 Y100.701 E5.41192
G1 X60.580 Y101.076 E5.41924
G1 X60.841 Y101.337 E5.42530
G1 X61.293 Y101.598 E5.43386
G1 X61.728 Y101.695 E5.44118
G1 X62.048 Y101.695 E5.44644
G1 X62.364 Y101.639 E5.45171
G1 X62.776 Y101.468 E5.45902
G1 X63.403 Y100.942 E5.47246
G1 X63.403 Y106.356 E5.56135
G1 X62.823 Y106.433 E5.57095
G1 X62.358 Y106.602 E5.57907
G1 X61.951 Y106.837 E5.58680
G1 X61.571 Y107.156 E5.59493
G1 X61.171 Y107.678 E5.60573
G1 X60.962 Y108.126 E5.61386
G1 X60.840 Y108.581 E5.62159
G1 X60.799 Y109.050 E5.62932
G1 X60.840 Y109.519 E5.63705
G1 X60.962 Y109.975 E5.64479
G1 X61.174 Y110.427 E5.65299
G1 X61.356 Y110.664 E5.65790
G1 X61.217 Y110.823 E5.66136
G1 X55.971 Y107.794 E5.76080
G1 X55.548 Y107.596 E5.76848
G1 X55.242 Y107.500 E5.77375
G1 X54.761 Y107.415 E5.78175
G1 X54.489 Y107.403 E5.78623
G1 X46.977 Y107.403 E5.90956
G1 X46.977 Y92.597 E6.15264
G1 X54.526 Y92.597 E6.27658
G1 X55.135 Y92.528 E6.28663
G1 X55.597 Y92.386 E6.29458
G1 X55.977 Y92.203 E6.30151
G1 X61.177 Y89.200 E6.40008
G1 X61.316 Y89.334 E6.40325
G1 X60.968 Y90.003 E6.41563
G1 X60.840 Y90.481 E6.42376
G1 X60.799 Y90.950 E6.43149
G1 X60.840 Y91.420 E6.43924
G1 X60.970 Y91.902 E6.44743
G1 X61.272 Y92.481 E6.45816
G1 X61.590 Y92.860 E6.46628
G1 X61.951 Y93.163 E6.47401
G1 X62.359 Y93.399 E6.48175
G1 X62.829 Y93.568 E6.48995
G1 X63.329 Y93.634 E6.49823
G1 X62.263 Y98.786 F7800.000
G1 X62.350 Y98.806 E6.49970 F1800.000
G1 X62.696 Y99.005 E6.50625
G1 X62.884 Y99.193 E6.51062
G1 X63.063 Y99.474 E6.51608
G1 X63.166 Y99.860 E6.52263
G1 X63.166 Y100.126 E6.52700
G1 X63.094 Y100.450 E6.53246
G1 X62.880 Y100.822 E6.53951
G1 X62.551 Y101.098 E6.54655
G1 X62.243 Y101.225 E6.55202
G1 X62.011 Y101.266 E6.55589
G1 X61.774 Y101.266 E6.55977
G1 X61.450 Y101.194 E6.56524
G1 X61.104 Y100.995 E6.57179
G1 X60.916 Y100.807 E6.57616
G1 X60.737 Y100.526 E6.58162
G1 X60.634 Y100.140 E6.58817
G1 X60.634 Y99.874 E6.59254
G1 X60.706 Y99.550 E6.59800
G1 X60.920 Y99.178 E6.60505
G1 X61.238 Y98.912 E6.61185
G1 X61.479 Y98.799 E6.61621
G1 X61.774 Y98.734 E6.62119
G1 X62.025 Y98.734 E6.62531 F1800.000
G1 X62.190 Y98.770 E6.62807
G1 X61.821 Y99.162 F7800.000
G1 X61.979 Y99.162 E6.63065 F1800.000
G1 X62.193 Y99.210 E6.63426
G1 X62.433 Y99.348 E6.63881
G1 X62.548 Y99.463 E6.64147
G1 X62.666 Y99.649 E6.64508
G1 X62.738 Y99.916 E6.64963
G1 X62.738 Y100.079 E6.65230
G1 X62.690 Y100.293 E6.65591
G1 X62.546 Y100.542 E6.66063
G1 X62.326 Y100.727 E6.66535
G1 X62.123 Y100.811 E6.66896
G1 X61.973 Y100.838 E6.67145
G1 X61.821 Y100.838 E6.67395
G1 X61.607 Y100.790 E6.67756
G1 X61.367 Y100.652 E6.68210
G1 X61.252 Y100.537 E6.68477
G1 X61.134 Y100.351 E6.68838
G1 X61.062 Y100.084 E6.69293
G1 X61.062 Y99.921 E6.69559
G1 X61.110 Y99.707 E6.69920
G1 X61.254 Y99.458 E6.70393
G1 X61.470 Y99.276 E6.70856
G1 X61.617 Y99.208 E6.71123
G1 X61.748 Y99.179 E6.71343
G1 X61.890 Y99.021 F7800.000
G1 E4.71343 F2400.00000
G92 E0
G1 X88.830 Y100.126 F7800.000
G1 E2.00000 F2400.00000
G1 X88.844 Y99.794 E2.00546 F1800.000
G1 X88.913 Y99.537 E2.00983
G1 X89.113 Y99.191 E2.01638
G1 X89.358 Y98.966 E2.02184
G1 X89.588 Y98.833 E2.02621
G1 X89.960 Y98.734 E2.03252
G1 X90.226 Y98.734 E2.03688 F1800.000
G1 X90.550 Y98.806 E2.04235
G1 X90.909 Y99.013 E2.04915
G1 X91.134 Y99.258 E2.05461
G1 X91.267 Y99.488 E2.05897
G1 X91.370 Y99.874 E2.06553
G1 X91.356 Y100.206 E2.07099
G1 X91.287 Y100.463 E2.07535
G1 X91.087 Y100.809 E2.08191
G1 X90.842 Y101.034 E2.08737
G1 X90.612 Y101.167 E2.09174
G1 X90.211 Y101.274 E2.09854
G1 X89.784 Y101.237 E2.10558
G1 X89.477 Y101.109 E2.11105
G1 X89.271 Y100.965 E2.11517
G1 X89.066 Y100.742 E2.12014
G1 X88.933 Y100.512 E2.12451
G1 X88.849 Y100.198 E2.12983
G1 X89.261 Y100.079 F7800.000
G1 X89.270 Y99.859 E2.13344 F1800.000
G1 X89.313 Y99.702 E2.13611
G1 X89.451 Y99.462 E2.14065
G1 X89.613 Y99.314 E2.14426
G1 X89.754 Y99.233 E2.14693
G1 X90.016 Y99.162 E2.15139
G1 X90.179 Y99.162 E2.15406
G1 X90.393 Y99.210 E2.15767
G1 X90.638 Y99.351 E2.16230
G1 X90.786 Y99.513 E2.16591
G1 X90.867 Y99.654 E2.16858
G1 X90.939 Y99.921 E2.17312
G1 X90.930 Y100.141 E2.17673
G1 X90.887 Y100.298 E2.17940
G1 X90.749 Y100.538 E2.18395
G1 X90.587 Y100.686 E2.18756
G1 X90.446 Y100.767 E2.19022
G1 X90.174 Y100.840 E2.19486
G1 X89.887 Y100.815 E2.19958
G1 X89.684 Y100.731 E2.20319
G1 X89.555 Y100.641 E2.20577
G1 X89.414 Y100.487 E2.20921
G1 X89.333 Y100.346 E2.21187
G1 X89.280 Y100.151 E2.21519
G1 X89.064 Y99.980 F7800.000
G1 X88.597 Y92.653 F7800.000
G1 X65.639 Y92.653 E2.59212 F1800.000
G1 X66.032 Y91.897 E2.60611
G1 X66.160 Y91.419 E2.61423
G1 X66.201 Y90.950 E2.62196
G1 X66.160 Y90.480 E2.62971
G1 X66.030 Y89.998 E2.63790
G1 X65.728 Y89.419 E2.64863
G1 X65.394 Y89.021 E2.65715
G1 X65.075 Y88.776 E2.66375
G1 X65.134 Y88.602 E2.66678
G1 X89.546 Y88.597 E3.06756
G1 X95.903 Y94.954 E3.21517
G1 X95.903 Y95.546 E3.22487
G1 X91.763 Y99.685 E3.32099
G1 X91.666 Y99.323 E3.32715
G1 X91.481 Y99.003 E3.33321
G1 X91.180 Y98.675 E3.34053
G1 X90.707 Y98.402 E3.34950
G1 X90.272 Y98.305 E3.35681
G1 X89.903 Y98.305 E3.36287
G1 X89.423 Y98.434 E3.37104
G1 X89.103 Y98.619 E3.37710
G1 X88.597 Y99.083 E3.38837
G1 X88.597 Y92.728 E3.49270
G1 X88.597 Y107.347 F7800.000
G1 X88.597 Y100.864 E3.59913 F1800.000
G1 X88.987 Y101.289 E3.60861
G1 X89.269 Y101.487 E3.61427
G1 X89.681 Y101.658 E3.62158
G1 X90.249 Y101.707 E3.63095
G1 X90.777 Y101.566 E3.63992
G1 X91.097 Y101.381 E3.64598
G1 X91.425 Y101.080 E3.65330
G1 X91.686 Y100.629 E3.66186
G1 X91.769 Y100.320 E3.66710
G1 X95.903 Y104.454 E3.76310
G1 X95.903 Y105.046 E3.77280
G1 X89.546 Y111.403 E3.92041
G1 X65.135 Y111.398 E4.32119
G1 X65.075 Y111.224 E4.32421
G1 X65.395 Y110.978 E4.33082
G1 X65.728 Y110.581 E4.33934
G1 X66.032 Y109.997 E4.35014
G1 X66.160 Y109.519 E4.35827
G1 X66.201 Y109.050 E4.36600
G1 X66.160 Y108.581 E4.37373
G1 X66.038 Y108.125 E4.38147
G1 X65.826 Y107.673 E4.38967
G1 X65.576 Y107.347 E4.39642
G1 X88.522 Y107.347 E4.77315
G1 X92.055 Y100.000 F7800.000
G1 X96.332 Y104.277 E4.87246 F1800.000
G1 X96.332 Y105.223 E4.88799
G1 X89.723 Y111.831 E5.04143
G1 X62.377 Y111.826 E5.49038
G1 X62.073 Y111.768 E5.49547
G1 X61.766 Y111.634 E5.50097
G1 X55.773 Y108.174 E5.61458
G1 X55.392 Y107.997 E5.62149
G1 X55.139 Y107.917 E5.62583
G1 X54.714 Y107.842 E5.63292
G1 X54.479 Y107.832 E5.63679
G1 X46.548 Y107.832 E5.76699
G1 X46.548 Y92.168 E6.02414
G1 X54.502 Y92.168 E6.15472
G1 X55.047 Y92.107 E6.16372
G1 X55.440 Y91.986 E6.17048
G1 X55.777 Y91.823 E6.17661
G1 X61.766 Y88.366 E6.29015
G1 X62.073 Y88.232 E6.29565
G1 X62.377 Y88.174 E6.30074
G1 X89.723 Y88.169 E6.74970
G1 X96.332 Y94.777 E6.90314
G1 X96.332 Y95.723 E6.91867
G1 X92.108 Y99.947 E7.01674
G1 X92.661 Y100.000 F7800.000
G1 X96.760 Y104.099 E7.11192 F1800.000
G1 X96.760 Y105.401 E7.13329
G1 X89.901 Y112.260 E7.29255
G1 X62.337 Y112.254 E7.74508
G1 X61.946 Y112.180 E7.75162
G1 X61.572 Y112.017 E7.75831
G1 X55.575 Y108.555 E7.87201
G1 X55.236 Y108.397 E7.87814
G1 X55.037 Y108.334 E7.88157
G1 X54.667 Y108.269 E7.88774
G1 X54.469 Y108.260 E7.89099
G1 X46.120 Y108.260 E8.02807
G1 X46.120 Y91.740 E8.29929
G1 X54.478 Y91.740 E8.43651
G1 X54.959 Y91.686 E8.44445
G1 X55.283 Y91.586 E8.45003
G1 X55.576 Y91.444 E8.45537
G1 X61.572 Y87.983 E8.56904
G1 X61.946 Y87.820 E8.57573
G1 X62.337 Y87.746 E8.58227
G1 X89.901 Y87.740 E9.03480
G1 X96.760 Y94.599 E9.19407
G1 X96.760 Y95.901 E9.21543
G1 X92.714 Y99.947 E9.30938
G1 X92.307 Y100.354 F7800.000
G1 X88.894 Y99.118 F7800.000
G1 X88.652 Y99.419 E9.31571 F1800.000
G1 X88.522 Y99.631 E9.31980
G1 X88.507 Y99.755 E9.32186
G1 X88.512 Y100.263 E9.33019
G1 X88.698 Y100.604 E9.33657
G1 X88.823 Y100.774 E9.34003
G1 X95.650 Y104.716 F7800.000
G1 X91.802 Y100.868 E9.43035 F1800.000
G1 X91.565 Y101.245 E9.43773
G1 X95.468 Y105.147 E9.52933
G1 X95.162 Y105.454 E9.53652
G1 X91.246 Y101.537 E9.62844
G1 X90.865 Y101.769 E9.63584
G1 X94.856 Y105.760 E9.72951
G1 X94.549 Y106.066 E9.73670
G1 X90.393 Y101.910 E9.83425
G1 X89.801 Y101.931 E9.84408
G1 X94.243 Y106.372 E9.94834
G1 X93.937 Y106.679 E9.95553
G1 X88.850 Y101.592 E10.07491
G1 X88.850 Y102.205 E10.08508
G1 X93.630 Y106.985 E10.19728
G1 X93.324 Y107.291 E10.20447
G1 X88.850 Y102.818 E10.30948
G1 X88.850 Y103.430 E10.31964
G1 X93.018 Y107.598 E10.41746
G1 X92.711 Y107.904 E10.42465
G1 X88.850 Y104.043 E10.51528
G1 X88.850 Y104.655 E10.52545
G1 X92.405 Y108.210 E10.60889
G1 X92.099 Y108.517 E10.61608
G1 X88.850 Y105.268 E10.69233
G1 X88.850 Y105.881 E10.70250
G1 X91.792 Y108.823 E10.77156
G1 X91.486 Y109.129 E10.77875
G1 X88.850 Y106.493 E10.84062
G1 X88.850 Y107.106 E10.85078
G1 X91.180 Y109.435 E10.90546
G1 X90.874 Y109.742 E10.91265
G1 X88.732 Y107.600 E10.96292
G1 X88.119 Y107.600 E10.97309
G1 X90.567 Y110.048 E11.03054
G1 X90.261 Y110.354 E11.03773
G1 X87.507 Y107.600 E11.10238
G1 X86.894 Y107.600 E11.11255
G1 X89.955 Y110.661 E11.18438
G1 X89.648 Y110.967 E11.19157
G1 X86.282 Y107.600 E11.27060
G1 X85.669 Y107.600 E11.28076
G1 X89.218 Y111.150 E11.36407
G1 X88.606 Y111.149 E11.37424
G1 X85.056 Y107.600 E11.45755
G1 X84.444 Y107.600 E11.46771
G1 X87.993 Y111.149 E11.55102
G1 X87.380 Y111.149 E11.56119
G1 X83.831 Y107.600 E11.64449
G1 X83.219 Y107.600 E11.65466
G1 X86.767 Y111.149 E11.73795
G1 X86.155 Y111.149 E11.74812
G1 X82.606 Y107.600 E11.83142
G1 X81.993 Y107.600 E11.84158
G1 X85.542 Y111.149 E11.92488
G1 X84.929 Y111.149 E11.93504
G1 X81.381 Y107.600 E12.01833
G1 X80.768 Y107.600 E12.02850
G1 X84.316 Y111.149 E12.11179
G1 X83.704 Y111.148 E12.12196
G1 X80.156 Y107.600 E12.20524
G1 X79.543 Y107.600 E12.21541
G1 X83.091 Y111.148 E12.29869
G1 X82.478 Y111.148 E12.30886
G1 X78.930 Y107.600 E12.39213
G1 X78.318 Y107.600 E12.40230
G1 X81.865 Y111.148 E12.48557
G1 X81.253 Y111.148 E12.49574
G1 X77.705 Y107.600 E12.57901
G1 X77.092 Y107.600 E12.58918
G1 X80.640 Y111.148 E12.67245
G1 X80.027 Y111.148 E12.68262
G1 X76.480 Y107.600 E12.76589
G1 X75.867 Y107.600 E12.77605
G1 X79.414 Y111.148 E12.85932
G1 X78.802 Y111.147 E12.86949
G1 X75.255 Y107.600 E12.95274
G1 X74.642 Y107.600 E12.96291
G1 X78.189 Y111.147 E13.04617
