; generated by Slic3r 1.2.9 on 2017-08-23 at 09:23:41

; external perimeters extrusion width = 0.50mm
; perimeters extrusion width = 0.72mm
; infill extrusion width = 0.72mm
; solid infill extrusion width = 0.72mm
; top infill extrusion width = 0.72mm

M107
M190 S55 ; set bed temperature
M104 S195 ; set temperature
G28 ; home all axes
G1 Z5 F5000 ; lift nozzle

M109 S195 ; wait for temperature to be reached
G21 ; set units to millimeters
G90 ; use absolute coordinates
M82 ; use absolute distances for extrusion
G92 E0
G1 Z0.300 F7800.000
G1 E-2.00000 F2400.00000
G92 E0
G1 X95.839 Y72.046 F7800.000
G1 E2.00000 F2400.00000
G1 X96.631 Y71.089 E2.03469 F1800.000
G1 X97.909 Y70.065 E2.08041
G1 X97.996 Y70.011 E2.08326
G1 X100.110 Y69.178 E2.14672
G1 X101.500 Y69.029 E2.18574
G1 X103.500 Y69.029 E2.24159
G1 X104.802 Y69.160 E2.27813
G1 X104.890 Y69.178 E2.28064 F1800.000
G1 X107.004 Y70.011 E2.34409
G1 X108.369 Y71.089 E2.39264
G1 X108.454 Y71.177 E2.39606
G1 X109.161 Y72.046 E2.42734
G1 X109.647 Y72.843 E2.45341
G1 X110.083 Y73.902 E2.48538
G1 X110.161 Y74.151 E2.49266
G1 X110.331 Y74.789 E2.51110
G1 X110.502 Y75.825 E2.54042
G1 X110.561 Y76.873 E2.56973
G1 X110.561 Y106.845 E3.40662
G1 X110.515 Y107.840 E3.43445
G1 X110.402 Y108.711 E3.45897
G1 X110.249 Y109.452 E3.48011
G1 X106.264 Y125.480 E3.94126
G1 X106.081 Y126.105 E3.95944
G1 X105.643 Y127.165 E3.99146
G1 X105.157 Y127.960 E4.01749
G1 X104.449 Y128.828 E4.04877
G1 X104.364 Y128.916 E4.05218
G1 X103.085 Y129.939 E4.09792
G1 X102.998 Y129.992 E4.10076
G1 X100.887 Y130.822 E4.16409
G1 X99.500 Y130.970 E4.20305
G1 X96.500 Y130.970 E4.28681
G1 X95.200 Y130.840 E4.32329
G1 X95.113 Y130.822 E4.32578
G1 X93.002 Y129.992 E4.38911
G1 X92.915 Y129.939 E4.39195
G1 X91.636 Y128.916 E4.43769
G1 X91.551 Y128.828 E4.44111
G1 X90.843 Y127.960 E4.47238
G1 X90.358 Y127.167 E4.49835
G1 X89.919 Y126.105 E4.53043
G1 X89.736 Y125.480 E4.54861
G1 X89.670 Y125.216 E4.55622
G1 X89.498 Y124.178 E4.58559
G1 X89.454 Y123.571 E4.60259
G1 X89.439 Y123.128 E4.61496
G1 X89.438 Y111.188 E4.94836
G1 X89.487 Y110.290 E4.97345
G1 X94.544 Y75.427 E5.95712
G1 X94.669 Y74.789 E5.97528
G1 X94.917 Y73.902 E6.00100
G1 X95.353 Y72.843 E6.03296
G1 X95.797 Y72.108 E6.05695
G1 E4.05695 F2400.00000
G92 E0
G1 X98.654 Y123.064 F7800.000
G1 E2.00000 F2400.00000
G1 X97.346 Y123.064 E2.03652 F1800.000
G1 X97.352 Y111.122 E2.36996
G1 X102.358 Y80.315 E3.24145
G1 X102.654 Y80.339 E3.24973
G1 X102.654 Y106.795 E3.98846
G1 X102.617 Y107.308 E4.00281
G1 X102.551 Y107.632 E4.01206
G1 X102.456 Y107.928 E4.02073
G1 X102.321 Y108.228 E4.02991
G1 X102.185 Y108.463 E4.03751
G1 X101.953 Y108.768 E4.04819
G1 X99.392 Y111.719 E4.15730
G1 X99.166 Y112.030 E4.16803
G1 X98.981 Y112.360 E4.17858
G1 X98.784 Y112.884 E4.19424
G1 X98.685 Y113.357 E4.20772
G1 X98.654 Y113.760 E4.21901
G1 X98.654 Y122.989 E4.47669
G1 X99.153 Y123.599 F7800.000
G1 X96.847 Y123.599 E4.54109 F1800.000
G1 X96.810 Y123.097 E4.55516
G1 X96.819 Y111.062 E4.89120
G1 X101.810 Y80.348 E5.76007
G1 X101.810 Y76.903 E5.85626
G1 X101.847 Y76.402 E5.87028
G1 X103.154 Y76.408 E5.90679
G1 X103.190 Y76.903 E5.92064
G1 X103.190 Y106.814 E6.75585
G1 X103.149 Y107.381 E6.77170
G1 X103.070 Y107.768 E6.78273
G1 X102.957 Y108.120 E6.79307
G1 X102.798 Y108.473 E6.80387
G1 X102.631 Y108.761 E6.81316
G1 X102.369 Y109.106 E6.82525
G1 X99.812 Y112.052 E6.93420
G1 X99.618 Y112.319 E6.94341
G1 X99.468 Y112.586 E6.95196
G1 X99.300 Y113.034 E6.96532
G1 X99.217 Y113.433 E6.97669
G1 X99.190 Y113.781 E6.98644
G1 X99.190 Y123.097 E7.24656
G1 X99.159 Y123.524 E7.25853
G1 X99.571 Y124.011 F7800.000
G1 X99.473 Y124.135 E7.26293 F1800.000
G1 X96.527 Y124.135 E7.34519
G1 X96.429 Y124.011 E7.34959
G1 X96.309 Y123.583 E7.36201
G1 X96.275 Y123.116 E7.37509
G1 X96.286 Y111.002 E7.71335
G1 X101.275 Y80.305 E8.58175
G1 X101.275 Y76.884 E8.67727
G1 X101.308 Y76.417 E8.69032
G1 X101.431 Y75.979 E8.70304
G1 X101.508 Y75.865 E8.70687
G1 X103.480 Y75.874 E8.76194
G1 X103.572 Y75.990 E8.76608
G1 X103.692 Y76.417 E8.77847
G1 X103.725 Y76.884 E8.79152
G1 X103.725 Y106.834 E9.62781
G1 X103.680 Y107.453 E9.64516
G1 X103.589 Y107.903 E9.65797
G1 X103.458 Y108.312 E9.66997
G1 X103.276 Y108.718 E9.68239
G1 X103.078 Y109.058 E9.69338
G1 X102.785 Y109.443 E9.70688
G1 X100.232 Y112.386 E9.81567
G1 X100.070 Y112.609 E9.82336
G1 X99.955 Y112.813 E9.82990
G1 X99.816 Y113.184 E9.84096
G1 X99.748 Y113.509 E9.85023
G1 X99.725 Y113.802 E9.85844
G1 X99.725 Y123.116 E10.11851
G1 X99.691 Y123.583 E10.13159
G1 X99.592 Y123.939 E10.14192
G1 X99.414 Y124.009 F7800.000
G1 X98.000 Y122.796 F7800.000
G1 X97.999 Y113.462 E10.69449 F1800.000
G1 X97.940 Y113.140 F7800.000
G1 X97.672 Y112.873 E10.70529 F1800.000
G1 X97.673 Y112.098 E10.72742
G1 X98.474 Y112.899 E10.75979
G1 X98.683 Y112.333 E10.77703
G1 X97.673 Y111.324 E10.81782
G1 X97.743 Y110.618 E10.83809
G1 X98.964 Y111.839 E10.88743
G1 X99.303 Y111.403 E10.90321
G1 X97.851 Y109.951 E10.96188
G1 X97.959 Y109.284 E10.98118
G1 X99.663 Y110.988 E11.05002
G1 X100.023 Y110.573 E11.06572
G1 X98.068 Y108.617 E11.14474
G1 X98.176 Y107.951 E11.16404
G1 X100.383 Y110.158 E11.25323
G1 X100.743 Y109.743 E11.26893
G1 X98.284 Y107.284 E11.36829
G1 X98.393 Y106.617 E11.38760
G1 X101.103 Y109.328 E11.49714
G1 X101.464 Y108.913 E11.51284
G1 X98.501 Y105.950 E11.63255
G1 X98.609 Y105.283 E11.65186
G1 X101.817 Y108.491 E11.78147
G1 X102.108 Y108.007 E11.79761
G1 X98.718 Y104.617 E11.93462
G1 X98.826 Y103.950 E11.95392
G1 X102.288 Y107.412 E12.09382
G1 X102.332 Y106.681 E12.11475
G1 X98.935 Y103.283 E12.25205
G1 X99.043 Y102.616 E12.27136
G1 X102.332 Y105.906 E12.40428
G1 X102.332 Y105.130 E12.42643
G1 X99.151 Y101.949 E12.55497
G1 X99.260 Y101.283 E12.57427
G1 X102.332 Y104.355 E12.69844
G1 X102.332 Y103.580 E12.72059
G1 X99.368 Y100.616 E12.84037
G1 X99.476 Y99.949 E12.85967
G1 X102.332 Y102.805 E12.97508
G1 X102.332 Y102.030 E12.99723
G1 X99.585 Y99.282 E13.10825
G1 X99.693 Y98.615 E13.12756
G1 X102.332 Y101.255 E13.23420
G1 X102.332 Y100.479 E13.25635
G1 X99.802 Y97.949 E13.35862
G1 X99.910 Y97.282 E13.37793
G1 X102.332 Y99.704 E13.47581
G1 X102.332 Y98.929 E13.49796
G1 X100.018 Y96.615 E13.59147
G1 X100.127 Y95.948 E13.61078
G1 X102.332 Y98.154 E13.69991
G1 X102.332 Y97.379 E13.72206
G1 X100.235 Y95.282 E13.80681
G1 X100.343 Y94.615 E13.82611
G1 X102.332 Y96.604 E13.90649
G1 X102.332 Y95.828 E13.92864
G1 X100.452 Y93.948 E14.00463
G1 X100.560 Y93.281 E14.02393
G1 X102.332 Y95.053 E14.09555
G1 X102.332 Y94.278 E14.11770
G1 X100.668 Y92.614 E14.18493
G1 X100.777 Y91.948 E14.20424
G1 X102.332 Y93.503 E14.26709
G1 X102.332 Y92.728 E14.28924
G1 X100.885 Y91.281 E14.34772
G1 X100.994 Y90.614 E14.36702
G1 X102.332 Y91.953 E14.42112
G1 X102.332 Y91.178 E14.44327
G1 X101.102 Y89.947 E14.49299
G1 X101.210 Y89.280 E14.51230
G1 X102.332 Y90.402 E14.55764
G1 X102.332 Y89.627 E14.57979
G1 X101.319 Y88.614 E14.62075
G1 X101.427 Y87.947 E14.64005
G1 X102.332 Y88.852 E14.67663
G1 X102.332 Y88.077 E14.69878
G1 X101.535 Y87.280 E14.73099
G1 X102.063 Y87.033 E14.74764
G1 X102.332 Y87.302 E14.75852
G1 X101.992 Y86.695 F7800.000
G1 X102.221 Y83.864 E14.92663 F1800.000
G1 X102.370 Y82.019 E14.97832 F1800.000
G1 X102.500 Y80.058 F7800.000
G1 X102.500 Y76.673 E15.17871 F1800.000
G1 Z0.600 F7800.000
G1 X98.832 Y123.932 F7800.000
G1 X97.168 Y123.932 E15.23551 F1800.000
G1 X97.127 Y123.518 E15.24972
G1 X97.115 Y123.107 E15.26374
G1 X97.127 Y111.063 E15.67469
G1 X102.115 Y80.372 E16.73559
G1 X102.115 Y76.894 E16.85425
G1 X102.128 Y76.464 E16.86896
G1 X102.168 Y76.065 E16.88261
G1 X102.832 Y76.064 E16.90527
G1 X102.873 Y76.483 E16.91964
G1 X102.885 Y76.893 E16.93363
G1 X102.885 Y106.793 E17.95382
G1 X102.845 Y107.341 E17.97259
G1 X102.778 Y107.673 E17.98412
G1 X102.670 Y108.014 E17.99633
G1 X102.531 Y108.323 E18.00790
G1 X102.377 Y108.590 E18.01842
G1 X102.126 Y108.921 E18.03259
G1 X99.520 Y111.924 E18.16825
G1 X99.196 Y112.433 E18.18883
G1 X98.971 Y113.059 E18.21152
G1 X98.885 Y113.723 E18.23439
G1 X98.885 Y123.107 E18.55456
G1 X98.873 Y123.518 E18.56858
G1 X98.840 Y123.858 E18.58024
G1 X99.326 Y124.587 F7800.000
G1 X96.674 Y124.587 E18.67073 F1800.000
G1 X96.570 Y124.270 E18.68210
G1 X96.515 Y123.984 E18.69205
G1 X96.473 Y123.559 E18.70662
G1 X96.461 Y123.116 E18.72174
G1 X96.461 Y111.214 E19.12782
G1 X96.476 Y110.989 E19.13554
G1 X101.461 Y80.320 E20.19570
G1 X101.461 Y76.885 E20.31290
G1 X101.475 Y76.422 E20.32870
G1 X101.515 Y76.018 E20.34253
G1 X101.594 Y75.629 E20.35608
G1 X101.674 Y75.412 E20.36397
G1 X103.316 Y75.408 E20.42000
G1 X103.383 Y75.564 E20.42578
G1 X103.486 Y76.029 E20.44205
G1 X103.527 Y76.442 E20.45619
G1 X103.539 Y76.884 E20.47128
G1 X103.539 Y106.816 E21.49257
G1 X103.495 Y107.431 E21.51359
G1 X103.412 Y107.837 E21.52773
G1 X103.283 Y108.247 E21.54241
G1 X103.115 Y108.622 E21.55644
G1 X102.922 Y108.954 E21.56951
G1 X102.634 Y109.333 E21.58579
G1 X100.046 Y112.316 E21.72051
G1 X99.788 Y112.723 E21.73697
G1 X99.611 Y113.214 E21.75476
G1 X99.539 Y113.766 E21.77375
G1 X99.539 Y123.116 E22.09279
G1 X99.527 Y123.559 E22.10791
G1 X99.485 Y123.979 E22.12229
G1 X99.402 Y124.383 E22.13639
G1 X99.352 Y124.517 E22.14124
G1 X96.468 Y125.132 F7800.000
G1 X96.376 Y125.089 E22.14471 F3600.000
G1 X96.275 Y124.989 E22.14956
G1 X96.156 Y124.757 E22.15846
G1 X96.050 Y124.439 E22.16991
G1 X95.975 Y124.062 E22.17862 F900.000
G1 X95.929 Y123.593 E22.18932
G1 X95.916 Y123.123 E22.20000
G1 X95.916 Y111.196 E22.47085
G1 X95.934 Y110.927 E22.47699
G1 X100.916 Y80.276 E23.18220
G1 X100.916 Y76.877 E23.25939
G1 X100.930 Y76.386 E23.27052
G1 X100.975 Y75.940 E23.28072
G1 X101.050 Y75.562 E23.28947
G1 X101.156 Y75.242 E23.30095 F3600.000
G1 X101.268 Y75.023 E23.30937
G1 X101.386 Y74.906 E23.31503
G1 X101.468 Y74.868 E23.31813
G1 X103.509 Y74.863 E23.38775
G1 X103.593 Y74.885 E23.39073
G1 X103.725 Y75.012 E23.39696
G1 X103.777 Y75.098 E23.40039
G1 X103.904 Y75.397 E23.41147
G1 X103.938 Y75.549 E23.41679
G1 X104.025 Y75.943 E23.42596 F900.000
G1 X104.071 Y76.407 E23.43656
G1 X104.084 Y76.876 E23.44721
G1 X104.084 Y106.836 E24.12757
G1 X104.036 Y107.505 E24.14281
G1 X103.941 Y107.973 E24.15367
G1 X103.793 Y108.441 E24.16481
G1 X103.600 Y108.871 E24.17552
G1 X103.377 Y109.256 E24.18562
G1 X103.057 Y109.677 E24.19762
G1 X100.485 Y112.643 E24.28678
G1 X100.280 Y112.965 E24.29544
G1 X100.144 Y113.343 E24.30457
G1 X100.084 Y113.801 E24.31506
G1 X100.084 Y123.123 E24.52677
G1 X100.071 Y123.593 E24.53745
G1 X100.025 Y124.061 E24.54812
G1 X99.946 Y124.443 E24.55697
G1 X99.844 Y124.757 E24.56825 F3600.000
G1 X99.725 Y124.989 E24.57714
G1 X99.602 Y125.102 E24.58286
G1 X99.535 Y125.132 E24.58536
G1 X96.543 Y125.132 E24.68744
G1 E22.68744 F2400.00000
G92 E0
G1 X98.162 Y123.535 F7800.000
G1 E2.00000 F2400.00000
G1 X98.480 Y123.217 E2.01557 F1200.000
G1 X98.487 Y122.271 E2.04826
G1 X97.513 Y123.245 E2.09591
G1 X97.514 Y122.307 E2.12838
G1 X98.487 Y121.333 E2.17599
G1 X98.487 Y120.395 E2.20844
G1 X97.515 Y121.367 E2.25601
G1 X97.515 Y120.428 E2.28849
G1 X98.487 Y119.457 E2.33602
G1 X98.487 Y118.518 E2.36847
G1 X97.516 Y119.489 E2.41595
G1 X97.517 Y118.550 E2.44843
G1 X98.487 Y117.580 E2.49587
G1 X98.487 Y116.642 E2.52832
G1 X97.518 Y117.611 E2.57571
G1 X97.519 Y116.672 E2.60819
G1 X98.487 Y115.704 E2.65554
G1 X98.487 Y114.765 E2.68799
G1 X97.520 Y115.733 E2.73530
G1 X97.521 Y114.794 E2.76778
G1 X98.487 Y113.827 E2.81504
G1 X97.522 Y113.854 E2.84845
G1 X98.587 Y112.789 E2.90055
G1 X97.523 Y112.915 E2.93761
G1 X100.889 Y109.549 E3.10227
G1 X102.458 Y107.041 F7800.000
G1 X97.523 Y111.976 E3.34363 F1200.000
G1 X97.564 Y110.997 E3.37753
G1 X102.487 Y106.074 E3.61831
G1 X102.487 Y105.136 E3.65076
G1 X97.747 Y109.876 E3.88263
G1 X97.929 Y108.756 E3.92188
G1 X102.487 Y104.198 E4.14484
G1 X102.487 Y103.259 E4.17729
G1 X98.111 Y107.636 E4.39135
G1 X98.293 Y106.515 E4.43061
G1 X102.487 Y102.321 E4.63575
G1 X102.487 Y101.383 E4.66820
G1 X98.475 Y105.395 E4.86444
G1 X98.657 Y104.275 E4.90370
G1 X102.487 Y100.445 E5.09103
G1 X102.487 Y99.506 E5.12348
G1 X98.839 Y103.154 E5.30191
G1 X99.021 Y102.034 E5.34116
G1 X102.487 Y98.568 E5.51068
G1 X102.487 Y97.630 E5.54313
G1 X99.203 Y100.914 E5.70374
G1 X99.386 Y99.793 E5.74300
G1 X102.487 Y96.692 E5.89470
G1 X102.487 Y95.754 E5.92715
G1 X99.568 Y98.673 E6.06995
G1 X99.750 Y97.553 E6.10920
G1 X102.487 Y94.815 E6.24309
G1 X102.487 Y93.877 E6.27554
G1 X99.932 Y96.432 E6.40052
G1 X100.114 Y95.312 E6.43978
G1 X102.487 Y92.939 E6.55585
G1 X102.487 Y92.001 E6.58830
G1 X100.296 Y94.192 E6.69547
G1 X100.478 Y93.071 E6.73472
G1 X102.487 Y91.062 E6.83298
G1 X102.487 Y90.124 E6.86543
G1 X100.660 Y91.951 E6.95478
G1 X100.842 Y90.830 E6.99404
G1 X102.487 Y89.186 E7.07448
G1 X102.487 Y88.248 E7.10693
G1 X101.025 Y89.710 E7.17847
G1 X101.207 Y88.590 E7.21773
G1 X102.487 Y87.309 E7.28036
G1 X102.487 Y86.371 E7.31281
G1 X101.389 Y87.469 E7.36653
G1 X101.571 Y86.349 E7.40579
G1 X101.891 Y86.029 E7.42146
G1 X102.076 Y85.656 F7800.000
G1 X102.359 Y82.149 E7.67335 F1200.000
G1 X102.359 Y82.149 F7800.000
G1 X102.500 Y80.399 E7.73325 F1200.000
G1 X102.500 Y76.392 E7.86996
G1 Z0.900 F7800.000
G1 X97.078 Y124.567 F7800.000
G1 X97.004 Y123.963 E7.89073 F1800.000
G1 X96.982 Y123.108 E7.91991
G1 X96.982 Y111.237 E8.32494
G1 X96.995 Y111.045 E8.33151
G1 X101.981 Y80.363 E9.39212
G1 X101.987 Y76.464 E9.52514
G1 X102.036 Y75.688 E9.55167
G1 X102.080 Y75.426 E9.56074
G1 X102.921 Y75.429 E9.58944
G1 X102.960 Y75.653 E9.59720
G1 X103.013 Y76.465 E9.62497
G1 X103.018 Y106.792 E10.65974
G1 X102.977 Y107.357 E10.67906
G1 X102.897 Y107.742 E10.69248
G1 X102.795 Y108.060 E10.70389
G1 X102.660 Y108.365 E10.71526
G1 X102.475 Y108.686 E10.72789
G1 X102.202 Y109.045 E10.74328
G1 X99.635 Y112.003 E10.87691
G1 X99.319 Y112.483 E10.89651
G1 X99.095 Y113.109 E10.91921
G1 X99.018 Y113.722 E10.94029
G1 X99.013 Y123.551 E11.27564
G1 X98.994 Y123.989 E11.29060
G1 X98.928 Y124.567 E11.31045
G1 X97.153 Y124.567 E11.37102
G1 X96.600 Y125.221 F7800.000
G1 X96.453 Y124.796 E11.38636 F1800.000
G1 X96.388 Y124.420 E11.39940
G1 X96.351 Y124.000 E11.41377
G1 X96.327 Y123.116 E11.44394
G1 X96.327 Y111.215 E11.85002
G1 X96.344 Y110.970 E11.85839
G1 X101.327 Y80.309 E12.91826
G1 X101.333 Y76.443 E13.05017
G1 X101.385 Y75.613 E13.07855
G1 X101.456 Y75.190 E13.09319
G1 X101.534 Y74.940 E13.10213
G1 X101.616 Y74.770 E13.10857
G1 X103.387 Y74.776 E13.16899
G1 X103.467 Y74.942 E13.17528
G1 X103.540 Y75.172 E13.18353
G1 X103.611 Y75.575 E13.19747
G1 X103.667 Y76.444 E13.22718
G1 X103.673 Y106.816 E14.26349
G1 X103.627 Y107.448 E14.28511
G1 X103.531 Y107.910 E14.30120
G1 X103.407 Y108.294 E14.31497
G1 X103.244 Y108.662 E14.32872
G1 X103.021 Y109.048 E14.34393
G1 X102.711 Y109.458 E14.36147
G1 X100.158 Y112.399 E14.49434
G1 X99.909 Y112.777 E14.50977
G1 X99.736 Y113.262 E14.52736
G1 X99.673 Y113.763 E14.54460
G1 X99.667 Y123.565 E14.87904
G1 X99.647 Y124.040 E14.89526
G1 X99.581 Y124.614 E14.91498
G1 X99.504 Y124.951 E14.92678
G1 X99.401 Y125.221 E14.93664
G1 X96.675 Y125.221 E15.02965
G1 X96.192 Y125.563 F7800.000
G1 X96.086 Y125.405 E15.03397 F900.000
G1 X95.924 Y124.933 E15.04530
G1 X95.847 Y124.491 E15.05549
G1 X95.806 Y124.032 E15.06595
G1 X95.782 Y123.124 E15.08658
G1 X95.782 Y111.197 E15.35744
G1 X95.802 Y110.908 E15.36401
G1 X100.782 Y80.265 E16.06903
G1 X100.787 Y76.426 E16.15621
G1 X100.842 Y75.551 E16.17613
G1 X100.925 Y75.062 E16.18737
G1 X101.026 Y74.739 E16.19506
G1 X101.140 Y74.503 E16.20102
G1 X101.192 Y74.437 E16.20293
G1 X101.255 Y74.357 E16.20641 F3600.000
G1 X101.390 Y74.250 E16.21227
G1 X101.523 Y74.225 E16.21691
G1 X103.528 Y74.231 E16.28529
G1 X103.635 Y74.270 E16.28921
G1 X103.745 Y74.357 E16.29397
G1 X103.808 Y74.437 E16.29745
G1 X103.860 Y74.503 E16.29936 F900.000
G1 X103.974 Y74.740 E16.30534
G1 X104.071 Y75.041 E16.31252
G1 X104.153 Y75.510 E16.32332
G1 X104.213 Y76.426 E16.34417
G1 X104.218 Y106.836 E17.03476
G1 X104.168 Y107.524 E17.05042
G1 X104.059 Y108.049 E17.06261
G1 X103.917 Y108.488 E17.07309
G1 X103.731 Y108.910 E17.08356
G1 X103.476 Y109.350 E17.09512
G1 X103.134 Y109.802 E17.10797
G1 X100.593 Y112.728 E17.19599
