; generated by Slic3r 1.2.9 on 2017-08-23 at 14:29:24

; external perimeters extrusion width = 0.50mm
; perimeters extrusion width = 0.72mm
; infill extrusion width = 0.72mm
; solid infill extrusion width = 0.72mm
; top infill extrusion width = 0.72mm

M107
M190 S55 ; set bed temperature
M104 S195 ; set temperature
G28 ; home all axes
G1 Z5 F5000 ; lift nozzle

M109 S195 ; wait for temperature to be reached
G21 ; set units to millimeters
G90 ; use absolute coordinates
M82 ; use absolute distances for extrusion
G92 E0
G1 Z0.300 F7800.000
G1 E-2.00000 F2400.00000
G92 E0
G1 X69.926 Y69.926 F7800.000
G1 E2.00000 F2400.00000
G1 X72.418 Y67.626 E2.09469 F1800.000
G1 X72.733 Y67.356 E2.10627
G1 X75.317 Y65.366 E2.19735
G1 X75.911 Y64.951 E2.21758
G1 X78.710 Y63.177 E2.31010
G1 X81.646 Y61.638 E2.40266
G1 X82.300 Y61.328 E2.42289
G1 X85.170 Y60.139 E2.50963
G1 X85.852 Y59.895 E2.52985
G1 X89.017 Y58.908 E2.62241
G1 X92.656 Y58.104 E2.72648
G1 X96.198 Y57.636 E2.82624
G1 X99.613 Y57.474 E2.92169
G1 X100.387 Y57.474 E2.94333
G1 X103.802 Y57.636 E3.03878 F1800.000
G1 X107.344 Y58.104 E3.13854
G1 X110.983 Y58.908 E3.24261
G1 X114.393 Y59.976 E3.34237
G1 X114.830 Y60.139 E3.35540
G1 X117.700 Y61.328 E3.44213
G1 X118.124 Y61.521 E3.45516
G1 X121.290 Y63.177 E3.55492
G1 X124.432 Y65.182 E3.65899
G1 X127.268 Y67.356 E3.75876
G1 X129.758 Y69.621 E3.85275
G1 X130.239 Y70.091 E3.87153
G1 X132.644 Y72.733 E3.97129
G1 X134.818 Y75.568 E4.07105
G1 X136.823 Y78.710 E4.17512
G1 X138.478 Y81.876 E4.27487
G1 X138.672 Y82.300 E4.28791
G1 X139.861 Y85.170 E4.37465
G1 X140.024 Y85.607 E4.38767
G1 X141.092 Y89.017 E4.48743
G1 X141.896 Y92.656 E4.59150
G1 X142.364 Y96.198 E4.69125
G1 X142.524 Y99.561 E4.78527
G1 X142.531 Y100.233 E4.80404
G1 X142.364 Y103.802 E4.90381
G1 X141.896 Y107.344 E5.00356
G1 X141.092 Y110.983 E5.10764
G1 X140.024 Y114.393 E5.20739
G1 X139.861 Y114.830 E5.22042
G1 X138.672 Y117.700 E5.30716
G1 X138.479 Y118.124 E5.32019
G1 X136.823 Y121.290 E5.41994
G1 X134.818 Y124.432 E5.52401
G1 X132.644 Y127.268 E5.62378
G1 X130.239 Y129.909 E5.72353
G1 X129.758 Y130.379 E5.74231
G1 X127.268 Y132.644 E5.83631
G1 X124.432 Y134.818 E5.93608
G1 X121.290 Y136.823 E6.04014
G1 X118.124 Y138.479 E6.13990
G1 X117.700 Y138.672 E6.15293
G1 X114.830 Y139.861 E6.23967
G1 X114.148 Y140.105 E6.25989
G1 X110.983 Y141.092 E6.35245
G1 X107.496 Y141.868 E6.45222
G1 X107.037 Y141.944 E6.46521
G1 X103.802 Y142.364 E6.55628
G1 X100.233 Y142.531 E6.65604
G1 X99.561 Y142.524 E6.67482
G1 X96.198 Y142.364 E6.76884
G1 X92.656 Y141.896 E6.86859
G1 X89.017 Y141.092 E6.97266
G1 X85.852 Y140.105 E7.06522
G1 X85.170 Y139.861 E7.08544
G1 X82.300 Y138.672 E7.17218
G1 X81.646 Y138.362 E7.19240
G1 X78.710 Y136.823 E7.28497
G1 X75.911 Y135.049 E7.37749
G1 X75.317 Y134.634 E7.39772
G1 X72.733 Y132.644 E7.48879
G1 X70.242 Y130.379 E7.58280
G1 X69.761 Y129.909 E7.60158
G1 X67.356 Y127.268 E7.70133
G1 X65.366 Y124.683 E7.79242
G1 X64.951 Y124.089 E7.81264
G1 X63.177 Y121.290 E7.90517
G1 X61.521 Y118.124 E8.00493
G1 X61.328 Y117.700 E8.01796
G1 X60.139 Y114.830 E8.10470
G1 X59.976 Y114.393 E8.11772
G1 X58.908 Y110.983 E8.21748
G1 X58.104 Y107.344 E8.32155
G1 X57.636 Y103.802 E8.42131
G1 X57.469 Y100.233 E8.52107
G1 X57.476 Y99.561 E8.53985
G1 X57.636 Y96.198 E8.63385
G1 X58.104 Y92.656 E8.73361
G1 X58.908 Y89.017 E8.83768
G1 X59.976 Y85.607 E8.93744
G1 X60.139 Y85.170 E8.95047
G1 X61.328 Y82.300 E9.03721
G1 X61.521 Y81.876 E9.05023
G1 X63.177 Y78.710 E9.15000
G1 X65.182 Y75.568 E9.25406
G1 X67.356 Y72.733 E9.35382
G1 X67.626 Y72.418 E9.36540
G1 X69.873 Y69.979 E9.45800
G1 E7.45800 F2400.00000
G92 E0
G1 X102.832 Y115.973 F7800.000
G1 E2.00000 F2400.00000
G1 X102.766 Y116.087 E2.00367 F1800.000
G1 X102.405 Y116.516 E2.01933
G1 X102.137 Y116.760 E2.02945
G1 X101.688 Y117.074 E2.04477
G1 X101.155 Y117.323 E2.06118
G1 X100.586 Y117.475 E2.07762
G1 X100.000 Y117.526 E2.09405
G1 X99.414 Y117.475 E2.11049
G1 X98.845 Y117.323 E2.12692
G1 X98.337 Y117.086 E2.14258
G1 X98.032 Y116.890 E2.15270
G1 X97.612 Y116.537 E2.16802
G1 X97.234 Y116.087 E2.18443
G1 X96.940 Y115.577 E2.20087
G1 X96.739 Y115.024 E2.21730
G1 X96.647 Y114.503 E2.23206
G1 X95.609 Y102.640 E2.56458
G1 X95.395 Y102.244 E2.57713
G1 X95.226 Y101.857 E2.58892
G1 X95.089 Y101.456 E2.60078
G1 X94.977 Y101.005 E2.61375
G1 X94.882 Y100.239 E2.63530
G1 X94.882 Y99.789 E2.64787
G1 X94.917 Y99.368 E2.65966
G1 X94.986 Y98.951 E2.67145
G1 X95.089 Y98.542 E2.68324
G1 X95.226 Y98.143 E2.69503
G1 X95.395 Y97.756 E2.70683
G1 X95.609 Y97.360 E2.71939
G1 X96.675 Y85.263 E3.05846
G1 X96.827 Y84.695 E3.07488
G1 X97.076 Y84.162 E3.09132
G1 X97.413 Y83.680 E3.10775
G1 X97.830 Y83.263 E3.12418
G1 X98.312 Y82.926 E3.14062
G1 X98.845 Y82.677 E3.15705
G1 X99.387 Y82.532 E3.17272
G1 X99.746 Y82.486 E3.18283 F1800.000
G1 X100.295 Y82.486 E3.19815
G1 X100.874 Y82.589 E3.21456
G1 X101.427 Y82.790 E3.23100
G1 X101.937 Y83.084 E3.24743
G1 X102.388 Y83.462 E3.26387
G1 X102.766 Y83.913 E3.28030
G1 X103.060 Y84.423 E3.29673
G1 X103.261 Y84.976 E3.31317
G1 X103.353 Y85.497 E3.32793
G1 X104.391 Y97.360 E3.66045
G1 X104.606 Y97.758 E3.67307
G1 X104.790 Y98.184 E3.68603
G1 X105.009 Y98.924 E3.70759
G1 X105.083 Y99.368 E3.72016
G1 X105.118 Y99.789 E3.73195
G1 X105.118 Y100.211 E3.74374
G1 X105.083 Y100.632 E3.75553
G1 X105.014 Y101.049 E3.76732
G1 X104.911 Y101.458 E3.77911
G1 X104.774 Y101.857 E3.79090
G1 X104.605 Y102.244 E3.80269
G1 X104.391 Y102.640 E3.81525
G1 X103.353 Y114.503 E4.14777
G1 X103.261 Y115.024 E4.16253
G1 X103.060 Y115.577 E4.17896
G1 X102.869 Y115.908 E4.18963
G1 X102.368 Y115.705 F7800.000
G1 X102.325 Y115.778 E4.19199 F1800.000
G1 X102.018 Y116.144 E4.20534
G1 X101.802 Y116.341 E4.21349
G1 X101.419 Y116.609 E4.22654
G1 X100.971 Y116.818 E4.24035
G1 X100.493 Y116.946 E4.25417
G1 X100.000 Y116.989 E4.26798
G1 X99.507 Y116.946 E4.28180
G1 X99.029 Y116.818 E4.29562
G1 X98.596 Y116.616 E4.30896
G1 X98.350 Y116.458 E4.31711
G1 X97.992 Y116.157 E4.33017
G1 X97.675 Y115.778 E4.34398
G1 X97.427 Y115.350 E4.35779
G1 X97.258 Y114.885 E4.37161
G1 X97.178 Y114.433 E4.38440
G1 X96.130 Y102.455 E4.72015
G1 X95.877 Y102.010 E4.73446
G1 X95.726 Y101.663 E4.74501
G1 X95.603 Y101.304 E4.75561
G1 X95.504 Y100.907 E4.76703
G1 X95.418 Y100.206 E4.78676
G1 X95.418 Y99.811 E4.79779
G1 X95.449 Y99.434 E4.80835
G1 X95.511 Y99.061 E4.81890
G1 X95.603 Y98.695 E4.82946
G1 X95.726 Y98.337 E4.84002
G1 X95.877 Y97.990 E4.85058
G1 X96.131 Y97.545 E4.86489
G1 X97.204 Y85.357 E5.20653
G1 X97.332 Y84.879 E5.22034
G1 X97.542 Y84.431 E5.23415
G1 X97.825 Y84.025 E5.24797
G1 X98.175 Y83.675 E5.26179
G1 X98.581 Y83.392 E5.27560
G1 X99.029 Y83.182 E5.28942
G1 X99.491 Y83.059 E5.30277
G1 X99.780 Y83.022 E5.31092 F1800.000
G1 X100.248 Y83.022 E5.32397
G1 X100.735 Y83.108 E5.33778
G1 X101.200 Y83.277 E5.35160
G1 X101.628 Y83.525 E5.36541
G1 X102.007 Y83.843 E5.37923
G1 X102.325 Y84.222 E5.39305
G1 X102.573 Y84.650 E5.40686
G1 X102.742 Y85.115 E5.42068
G1 X102.822 Y85.567 E5.43348
G1 X103.870 Y97.545 E5.76922
G1 X104.123 Y97.992 E5.78357
G1 X104.286 Y98.367 E5.79499
G1 X104.486 Y99.045 E5.81472
G1 X104.551 Y99.434 E5.82575
G1 X104.582 Y99.811 E5.83630
G1 X104.582 Y100.189 E5.84686
G1 X104.551 Y100.566 E5.85742
G1 X104.489 Y100.939 E5.86798
G1 X104.397 Y101.305 E5.87853
G1 X104.274 Y101.663 E5.88909
G1 X104.123 Y102.010 E5.89965
G1 X103.870 Y102.455 E5.91396
G1 X102.822 Y114.433 E6.24970
G1 X102.742 Y114.885 E6.26250
G1 X102.573 Y115.350 E6.27631
G1 X102.405 Y115.640 E6.28567
G1 X101.904 Y115.437 F7800.000
G1 X101.631 Y115.773 E6.29774 F1800.000
G1 X101.467 Y115.922 E6.30393
G1 X101.150 Y116.143 E6.31472
G1 X100.787 Y116.312 E6.32591
G1 X100.400 Y116.416 E6.33712
G1 X100.000 Y116.451 E6.34832
G1 X99.600 Y116.416 E6.35952
G1 X99.213 Y116.312 E6.37072
G1 X98.855 Y116.145 E6.38175
G1 X98.669 Y116.026 E6.38793
G1 X98.373 Y115.777 E6.39872
G1 X98.115 Y115.470 E6.40992
G1 X97.914 Y115.123 E6.42112
G1 X97.777 Y114.746 E6.43232
G1 X97.710 Y114.364 E6.44315
G1 X96.652 Y102.275 E6.78198
G1 X96.359 Y101.775 E6.79817
G1 X96.225 Y101.469 E6.80750
G1 X96.117 Y101.152 E6.81684
G1 X96.032 Y100.809 E6.82670
G1 X95.953 Y100.173 E6.84461
G1 X95.953 Y99.833 E6.85410
G1 X95.981 Y99.500 E6.86342
G1 X96.036 Y99.171 E6.87275
G1 X96.117 Y98.847 E6.88207
G1 X96.225 Y98.531 E6.89139
G1 X96.359 Y98.225 E6.90072
G1 X96.652 Y97.725 E6.91691
G1 X97.734 Y85.450 E7.26098
G1 X97.838 Y85.063 E7.27217
G1 X98.007 Y84.699 E7.28337
G1 X98.237 Y84.371 E7.29458
G1 X98.521 Y84.087 E7.30578
G1 X98.849 Y83.857 E7.31698
G1 X99.213 Y83.688 E7.32818
G1 X99.595 Y83.585 E7.33921
G1 X99.814 Y83.557 E7.34539 F1800.000
G1 X100.201 Y83.558 E7.35618
G1 X100.596 Y83.627 E7.36738
G1 X100.973 Y83.764 E7.37858
G1 X101.320 Y83.965 E7.38978
G1 X101.627 Y84.223 E7.40098
G1 X101.885 Y84.530 E7.41218
G1 X102.086 Y84.877 E7.42338
G1 X102.223 Y85.254 E7.43458
G1 X102.290 Y85.636 E7.44541
G1 X103.348 Y97.725 E7.78424
G1 X103.641 Y98.226 E7.80045
G1 X103.782 Y98.550 E7.81032
G1 X103.963 Y99.165 E7.82822
G1 X104.019 Y99.500 E7.83771
G1 X104.047 Y99.833 E7.84704
G1 X104.047 Y100.167 E7.85636
G1 X104.019 Y100.500 E7.86568
G1 X103.964 Y100.829 E7.87501
G1 X103.883 Y101.153 E7.88433
G1 X103.775 Y101.469 E7.89365
G1 X103.641 Y101.775 E7.90298
G1 X103.348 Y102.275 E7.91917
G1 X102.290 Y114.364 E8.25800
G1 X102.223 Y114.746 E8.26883
G1 X102.086 Y115.123 E8.28003
G1 X101.941 Y115.372 E8.28808
G1 X102.079 Y115.832 F7800.000
G1 X109.729 Y102.466 F7800.000
G1 X109.729 Y97.534 E8.42580 F1800.000
G1 X114.000 Y95.068 E8.56351
G1 X118.271 Y97.534 E8.70123
G1 X118.271 Y102.466 E8.83894
G1 X114.000 Y104.932 E8.97666
G1 X109.794 Y102.504 E9.11228
G1 X110.264 Y102.157 F7800.000
G1 X110.264 Y97.843 E9.23272 F1800.000
G1 X114.000 Y95.686 E9.35316
G1 X117.736 Y97.843 E9.47361
G1 X117.736 Y102.157 E9.59405
G1 X114.000 Y104.314 E9.71450
G1 X110.329 Y102.194 E9.83285
G1 X110.800 Y101.848 F7800.000
G1 X110.800 Y98.152 E9.93602 F1800.000
G1 X114.000 Y96.305 E10.03920
G1 X117.200 Y98.152 E10.14237
G1 X117.200 Y101.848 E10.24555
G1 X114.000 Y103.695 E10.34872
G1 X110.865 Y101.885 E10.44980
G1 X110.308 Y101.761 F7800.000
G1 E8.44980 F2400.00000
G92 E0
G1 X90.271 Y102.466 F7800.000
G1 E2.00000 F2400.00000
G1 X86.000 Y104.932 E2.13771 F1800.000
G1 X81.729 Y102.466 E2.27543
G1 X81.729 Y97.534 E2.41314
G1 X86.000 Y95.068 E2.55086
G1 X90.271 Y97.534 E2.68857
G1 X90.271 Y102.391 E2.82419
G1 X89.736 Y102.157 F7800.000
G1 X86.000 Y104.314 E2.94464 F1800.000
G1 X82.264 Y102.157 E3.06508
G1 X82.264 Y97.843 E3.18552
G1 X86.000 Y95.686 E3.30597
G1 X89.736 Y97.843 E3.42641
G1 X89.736 Y102.082 E3.54476
G1 X89.200 Y101.848 F7800.000
G1 X86.000 Y103.695 E3.64794 F1800.000
G1 X82.800 Y101.848 E3.75111
G1 X82.800 Y98.152 E3.85429
G1 X86.000 Y96.305 E3.95746
G1 X89.200 Y98.152 E4.06064
G1 X89.200 Y101.773 E4.16172
G1 X89.371 Y102.317 F7800.000
G1 E2.16172 F2400.00000
G92 E0
G1 X65.752 Y104.906 F7800.000
G1 E2.00000 F2400.00000
G1 X65.502 Y102.985 E2.05411 F1800.000
G1 X65.373 Y100.000 E2.13753
G1 X65.502 Y97.015 E2.22095
G1 X65.888 Y94.054 E2.30435
G1 X66.566 Y90.989 E2.39200
G1 X67.466 Y88.143 E2.47532
G1 X68.678 Y85.246 E2.56303
G1 X69.987 Y82.730 E2.64221
G1 X71.588 Y80.208 E2.72562
G1 X73.496 Y77.715 E2.81328
G1 X75.515 Y75.515 E2.89666
G1 X77.715 Y73.496 E2.98004
G1 X80.208 Y71.588 E3.06769
G1 X82.730 Y69.987 E3.15111
G1 X85.246 Y68.678 E3.23029
G1 X88.143 Y67.466 E3.31800
G1 X90.989 Y66.566 E3.40132
G1 X94.054 Y65.888 E3.48897
G1 X97.013 Y65.502 E3.57229
G1 X100.151 Y65.378 E3.66000
G1 X102.985 Y65.502 E3.73919
G1 X105.947 Y65.888 E3.82262 F1800.000
G1 X108.865 Y66.529 E3.90603
G1 X111.861 Y67.467 E3.99368
G1 X114.619 Y68.610 E4.07705
G1 X117.269 Y69.987 E4.16044
G1 X119.916 Y71.674 E4.24810
G1 X122.283 Y73.495 E4.33149
G1 X124.485 Y75.515 E4.41491
G1 X126.504 Y77.715 E4.49829
G1 X128.412 Y80.208 E4.58595
G1 X130.013 Y82.730 E4.66935
G1 X131.390 Y85.381 E4.75277
G1 X132.575 Y88.264 E4.83979
G1 X133.434 Y90.988 E4.91956
G1 X134.112 Y94.054 E5.00723
G1 X134.498 Y97.015 E5.09062
G1 X134.627 Y100.000 E5.17405
G1 X134.498 Y102.985 E5.25747
G1 X134.112 Y105.946 E5.34086
G1 X133.434 Y109.011 E5.42852
G1 X132.534 Y111.857 E5.51184
G1 X131.322 Y114.754 E5.59954
G1 X130.013 Y117.270 E5.67873
G1 X128.412 Y119.792 E5.76214
G1 X126.504 Y122.285 E5.84980
G1 X124.485 Y124.485 E5.93318
G1 X122.285 Y126.504 E6.01655
G1 X119.792 Y128.412 E6.10421
G1 X117.270 Y130.013 E6.18761
G1 X114.619 Y131.390 E6.27103
G1 X111.736 Y132.575 E6.35805
G1 X109.012 Y133.434 E6.43782
G1 X105.946 Y134.112 E6.52549
G1 X102.985 Y134.498 E6.60888
G1 X100.000 Y134.627 E6.69231
G1 X97.015 Y134.498 E6.77573
G1 X94.054 Y134.112 E6.85912
G1 X90.989 Y133.434 E6.94678
G1 X88.143 Y132.534 E7.03010
G1 X85.246 Y131.322 E7.11781
G1 X82.730 Y130.013 E7.19699
G1 X80.208 Y128.412 E7.28040
G1 X77.715 Y126.504 E7.36806
G1 X75.515 Y124.485 E7.45144
G1 X73.496 Y122.285 E7.53482
G1 X71.588 Y119.792 E7.62247
G1 X69.987 Y117.270 E7.70589
G1 X68.678 Y114.754 E7.78507
G1 X67.466 Y111.857 E7.87277
G1 X66.566 Y109.011 E7.95609
G1 X65.888 Y105.946 E8.04375
G1 X65.762 Y104.981 E8.07094
G1 X65.221 Y104.976 F7800.000
G1 X64.968 Y103.031 E8.12570 F1800.000
G1 X64.836 Y100.000 E8.21041
G1 X64.968 Y96.969 E8.29513
G1 X65.360 Y93.961 E8.37983
G1 X66.048 Y90.850 E8.46881
G1 X66.962 Y87.959 E8.55346
G1 X68.192 Y85.018 E8.64247
G1 X69.523 Y82.462 E8.72292
G1 X71.149 Y79.901 E8.80763
G1 X73.086 Y77.371 E8.89661
G1 X75.136 Y75.136 E8.98130
G1 X77.371 Y73.086 E9.06599
G1 X79.901 Y71.149 E9.15496
G1 X82.462 Y69.523 E9.23968
G1 X85.018 Y68.192 E9.32013
G1 X87.959 Y66.962 E9.40913
G1 X90.850 Y66.048 E9.49379
G1 X93.961 Y65.360 E9.58276
G1 X96.967 Y64.968 E9.66742
G1 X100.152 Y64.842 E9.75643
G1 X103.031 Y64.968 E9.83688
G1 X106.040 Y65.360 E9.92160 F1800.000
G1 X109.003 Y66.011 E10.00631
G1 X112.043 Y66.963 E10.09528
G1 X114.846 Y68.124 E10.17997
G1 X117.537 Y69.522 E10.26467
G1 X120.224 Y71.236 E10.35364
G1 X122.628 Y73.085 E10.43834
G1 X124.864 Y75.136 E10.52306
G1 X126.914 Y77.371 E10.60775
G1 X128.851 Y79.901 E10.69673
G1 X130.477 Y82.462 E10.78143
G1 X131.876 Y85.154 E10.86615
G1 X133.081 Y88.089 E10.95473
G1 X133.951 Y90.849 E11.03554
G1 X134.640 Y93.961 E11.12453
G1 X135.032 Y96.969 E11.20923
G1 X135.164 Y100.000 E11.29394
G1 X135.032 Y103.031 E11.37866
G1 X134.640 Y106.039 E11.46336
G1 X133.952 Y109.150 E11.55234
G1 X133.038 Y112.041 E11.63699
G1 X131.808 Y114.982 E11.72600
G1 X130.477 Y117.538 E11.80645
G1 X128.851 Y120.099 E11.89116
G1 X126.914 Y122.629 E11.98014
G1 X124.864 Y124.864 E12.06483
G1 X122.629 Y126.914 E12.14952
G1 X120.099 Y128.851 E12.23850
G1 X117.538 Y130.477 E12.32320
G1 X114.846 Y131.876 E12.40791
G1 X111.911 Y133.081 E12.49650
G1 X109.151 Y133.951 E12.57731
G1 X106.039 Y134.640 E12.66630
G1 X103.031 Y135.032 E12.75099
G1 X100.000 Y135.164 E12.83571
G1 X96.969 Y135.032 E12.92043
G1 X93.961 Y134.640 E13.00513
G1 X90.850 Y133.952 E13.09411
G1 X87.959 Y133.038 E13.17876
G1 X85.018 Y131.808 E13.26777
G1 X82.462 Y130.477 E13.34822
G1 X79.901 Y128.851 E13.43293
G1 X77.371 Y126.914 E13.52191
G1 X75.136 Y124.864 E13.60660
G1 X73.086 Y122.629 E13.69129
G1 X71.149 Y120.099 E13.78026
G1 X69.523 Y117.538 E13.86497
G1 X68.192 Y114.982 E13.94543
G1 X66.962 Y112.041 E14.03443
G1 X66.048 Y109.150 E14.11909
G1 X65.360 Y106.039 E14.20806
G1 X65.231 Y105.050 E14.23591
G1 X64.690 Y105.045 F7800.000
G1 X64.433 Y103.078 E14.29131 F1800.000
G1 X64.300 Y100.000 E14.37733
G1 X64.433 Y96.922 E14.46334
G1 X64.832 Y93.868 E14.54934
G1 X65.531 Y90.711 E14.63964
G1 X66.459 Y87.774 E14.72563
G1 X67.707 Y84.791 E14.81593
G1 X69.058 Y82.195 E14.89766
G1 X70.709 Y79.594 E14.98366
G1 X72.675 Y77.027 E15.07396
G1 X74.756 Y74.756 E15.15996
G1 X77.027 Y72.675 E15.24597
G1 X79.594 Y70.709 E15.33626
G1 X82.195 Y69.058 E15.42227
G1 X84.791 Y67.707 E15.50399
G1 X87.774 Y66.459 E15.59430
G1 X90.711 Y65.531 E15.68029
G1 X93.868 Y64.832 E15.77058
G1 X96.922 Y64.434 E15.85657
G1 X100.153 Y64.306 E15.94688
G1 X103.077 Y64.433 E16.02860
G1 X106.132 Y64.832 E16.11461 F1800.000
G1 X109.140 Y65.493 E16.20062
G1 X112.226 Y66.459 E16.29091
G1 X115.072 Y67.638 E16.37692
