; generated by Slic3r 1.3.0 on 2020-08-16 at 14:38:11

; external perimeters extrusion width = 0.44mm (3.38mm^3/s)
; perimeters extrusion width = 0.48mm (7.54mm^3/s)
; infill extrusion width = 0.48mm (10.05mm^3/s)
; solid infill extrusion width = 0.48mm (2.51mm^3/s)
; top infill extrusion width = 0.48mm (1.88mm^3/s)

M107
M104 S200 ; set temperature
G28 ; home all axes
G1 Z5 F5000 ; lift nozzle

; Filament gcode

M109 S200 ; set temperature and wait for it to be reached
G21 ; set units to millimeters
G90 ; use absolute coordinates
M82 ; use absolute distances for extrusion
G92 E0
G1 E-1.00000 F1800.00000
G92 E0
G1 Z0.350 F7800.000
G1 X63.827 Y92.652 F7800.000
G1 E1.00000 F1800.00000
G1 F1800
G1 X65.000 Y92.375 E1.11503
G1 X135.000 Y92.375 E7.79836
G1 X136.381 Y92.767 E7.93539
G1 X137.348 Y93.827 E8.07242
G1 X137.625 Y95.000 E8.18745
G1 X137.625 Y105.000 E9.14221
G1 X137.233 Y106.381 E9.27924
G1 X136.173 Y107.348 E9.41627
G1 X135.000 Y107.625 E9.53131
G1 X65.000 Y107.625 E16.21463
G1 X63.619 Y107.233 E16.35166
G1 X62.652 Y106.173 E16.48869
G1 X62.375 Y105.000 E16.60373
G1 X62.375 Y95.000 E17.55849
G1 X62.767 Y93.619 E17.69552
G1 X63.783 Y92.692 E17.82682
G1 E16.82682 F1800.00000
G92 E0
G1 X133.400 Y103.400 F7800.000
G1 E1.00000 F1800.00000
G1 F1800
G1 X66.600 Y103.400 E7.37784
G1 X66.600 Y96.600 E8.02712
G1 X133.400 Y96.600 E14.40497
G1 X133.400 Y103.340 E15.04852
G1 X134.025 Y104.025 F7800.000
G1 F1800
G1 X65.975 Y104.025 E21.54568
G1 X65.975 Y95.975 E22.31429
G1 X134.025 Y95.975 E28.81146
G1 X134.025 Y103.965 E29.57433
G1 X134.650 Y104.650 F7800.000
G1 F1800
G1 X65.350 Y104.650 E36.19082
G1 X65.350 Y95.350 E37.07875
G1 X134.650 Y95.350 E43.69524
G1 X134.650 Y104.590 E44.57744
G1 X134.250 Y104.632 F7800.000
G1 E43.57744 F1800.00000
G92 E0
G1 X132.709 Y102.842 F7800.000
G1 E1.00000 F1800.00000
G1 F1800
G1 X132.842 Y102.709 E1.01802
G1 X132.842 Y101.820 E1.10336
G1 X131.820 Y102.842 E1.24207
G1 X130.931 Y102.842 E1.32741
G1 X132.842 Y100.931 E1.58680
G1 X132.842 Y100.043 E1.67214
G1 X130.043 Y102.842 E2.05222
G1 X129.154 Y102.842 E2.13756
G1 X132.842 Y99.154 E2.63834
G1 X132.842 Y98.265 E2.72367
G1 X128.265 Y102.842 E3.34513
G1 X127.376 Y102.842 E3.43047
G1 X132.842 Y97.376 E4.17262
G1 X132.842 Y97.158 E4.19355
G1 X132.171 Y97.158 E4.25796
G1 X126.488 Y102.842 E5.02971
G1 X125.599 Y102.842 E5.11505
G1 X131.282 Y97.158 E5.88680
G1 X130.393 Y97.158 E5.97214
G1 X124.710 Y102.842 E6.74389
G1 X123.821 Y102.842 E6.82922
G1 X129.505 Y97.158 E7.60097
G1 X128.616 Y97.158 E7.68631
G1 X122.933 Y102.842 E8.45806
G1 X122.044 Y102.842 E8.54340
G1 X127.727 Y97.158 E9.31515
G1 X126.838 Y97.158 E9.40049
G1 X121.155 Y102.842 E10.17224
G1 X120.266 Y102.842 E10.25758
G1 X125.950 Y97.158 E11.02933
G1 X125.061 Y97.158 E11.11467
G1 X119.377 Y102.842 E11.88641
G1 X118.489 Y102.842 E11.97175
G1 X124.172 Y97.158 E12.74350
G1 X123.283 Y97.158 E12.82884
G1 X117.600 Y102.842 E13.60059
G1 X116.711 Y102.842 E13.68593
G1 X122.394 Y97.158 E14.45768
G1 X121.506 Y97.158 E14.54302
G1 X115.822 Y102.842 E15.31477
G1 X114.934 Y102.842 E15.40011
G1 X120.617 Y97.158 E16.17186
G1 X119.728 Y97.158 E16.25720
G1 X114.045 Y102.842 E17.02894
G1 X113.156 Y102.842 E17.11428
G1 X118.839 Y97.158 E17.88603
G1 X117.951 Y97.158 E17.97137
G1 X112.267 Y102.842 E18.74312
G1 X111.379 Y102.842 E18.82846
G1 X117.062 Y97.158 E19.60021
G1 X116.173 Y97.158 E19.68555
G1 X110.490 Y102.842 E20.45730
G1 X109.601 Y102.842 E20.54264
G1 X115.284 Y97.158 E21.31438
G1 X114.396 Y97.158 E21.39972
G1 X108.712 Y102.842 E22.17147
G1 X107.824 Y102.842 E22.25681
G1 X113.507 Y97.158 E23.02856
G1 X112.618 Y97.158 E23.11390
G1 X106.935 Y102.842 E23.88565
G1 X106.046 Y102.842 E23.97099
G1 X111.729 Y97.158 E24.74274
G1 X110.841 Y97.158 E24.82808
G1 X105.157 Y102.842 E25.59983
G1 X104.268 Y102.842 E25.68517
G1 X109.952 Y97.158 E26.45691
G1 X109.063 Y97.158 E26.54225
G1 X103.380 Y102.842 E27.31400
G1 X102.491 Y102.842 E27.39934
G1 X108.174 Y97.158 E28.17109
G1 X107.285 Y97.158 E28.25643
G1 X101.602 Y102.842 E29.02818
G1 X100.713 Y102.842 E29.11352
G1 X106.397 Y97.158 E29.88527
G1 X105.508 Y97.158 E29.97061
G1 X99.825 Y102.842 E30.74236
G1 X98.936 Y102.842 E30.82770
G1 X104.619 Y97.158 E31.59944
G1 X103.730 Y97.158 E31.68478
G1 X98.047 Y102.842 E32.45653
G1 X97.158 Y102.842 E32.54187
G1 X102.842 Y97.158 E33.31362
G1 X101.953 Y97.158 E33.39896
G1 X96.270 Y102.842 E34.17071
G1 X95.381 Y102.842 E34.25605
G1 X101.064 Y97.158 E35.02780
G1 X100.175 Y97.158 E35.11314
G1 X94.492 Y102.842 E35.88489
G1 X93.603 Y102.842 E35.97023
G1 X99.287 Y97.158 E36.74197
G1 X98.398 Y97.158 E36.82731
G1 X92.715 Y102.842 E37.59906
G1 X91.826 Y102.842 E37.68440
G1 X97.509 Y97.158 E38.45615
G1 X96.620 Y97.158 E38.54149
G1 X90.937 Y102.842 E39.31324
G1 X90.048 Y102.842 E39.39858
G1 X95.732 Y97.158 E40.17033
G1 X94.843 Y97.158 E40.25567
G1 X89.159 Y102.842 E41.02741
G1 X88.271 Y102.842 E41.11275
G1 X93.954 Y97.158 E41.88450
G1 X93.065 Y97.158 E41.96984
G1 X87.382 Y102.842 E42.74159
G1 X86.493 Y102.842 E42.82693
G1 X92.176 Y97.158 E43.59868
G1 X91.288 Y97.158 E43.68402
G1 X85.604 Y102.842 E44.45577
G1 X84.716 Y102.842 E44.54111
G1 X90.399 Y97.158 E45.31286
G1 X89.510 Y97.158 E45.39820
G1 X83.827 Y102.842 E46.16994
G1 X82.938 Y102.842 E46.25528
G1 X88.621 Y97.158 E47.02703
G1 X87.733 Y97.158 E47.11237
G1 X82.049 Y102.842 E47.88412
G1 X81.161 Y102.842 E47.96946
G1 X86.844 Y97.158 E48.74121
G1 X85.955 Y97.158 E48.82655
G1 X80.272 Y102.842 E49.59830
G1 X79.383 Y102.842 E49.68364
G1 X85.066 Y97.158 E50.45539
G1 X84.178 Y97.158 E50.54073
G1 X78.494 Y102.842 E51.31247
G1 X77.606 Y102.842 E51.39781
G1 X83.289 Y97.158 E52.16956
G1 X82.400 Y97.158 E52.25490
G1 X76.717 Y102.842 E53.02665
G1 X75.828 Y102.842 E53.11199
G1 X81.511 Y97.158 E53.88374
G1 X80.623 Y97.158 E53.96908
G1 X74.939 Y102.842 E54.74083
G1 X74.051 Y102.842 E54.82617
G1 X79.734 Y97.158 E55.59792
G1 X78.845 Y97.158 E55.68326
G1 X73.162 Y102.842 E56.45500
G1 X72.273 Y102.842 E56.54034
G1 X77.956 Y97.158 E57.31209
G1 X77.067 Y97.158 E57.39743
G1 X71.384 Y102.842 E58.16918
G1 X70.495 Y102.842 E58.25452
G1 X76.179 Y97.158 E59.02627
G1 X75.290 Y97.158 E59.11161
G1 X69.607 Y102.842 E59.88336
G1 X68.718 Y102.842 E59.96870
G1 X74.401 Y97.158 E60.74044
G1 X73.512 Y97.158 E60.82578
G1 X67.829 Y102.842 E61.59753
G1 X67.158 Y102.842 E61.66194
G1 X67.158 Y102.624 E61.68287
G1 X72.624 Y97.158 E62.42502
G1 X71.735 Y97.158 E62.51036
G1 X67.158 Y101.735 E63.13182
G1 X67.158 Y100.846 E63.21716
G1 X70.846 Y97.158 E63.71793
G1 X69.957 Y97.158 E63.80327
G1 X67.158 Y99.957 E64.18336
G1 X67.158 Y99.069 E64.26870
G1 X69.069 Y97.158 E64.52810
G1 X68.180 Y97.158 E64.61344
G1 X67.158 Y98.180 E64.75215
G1 X67.158 Y97.291 E64.83748
G1 X67.291 Y97.158 E64.85551
G1 E63.85551 F1800.00000
G92 E0
G1 Z0.650 F7800.000
G1 X133.964 Y103.964 F7800.000
G1 E1.00000 F1800.00000
G1 F3600
G1 X66.036 Y103.964 E4.72632
G1 X66.036 Y96.036 E5.16122
G1 X133.964 Y96.036 E8.88754
G1 X133.964 Y103.904 E9.31914
G1 X134.383 Y104.383 F7800.000
G1 F3600
G1 X65.617 Y104.383 E13.09142
G1 X65.617 Y95.617 E13.57227
G1 X134.383 Y95.617 E17.34455
G1 X134.383 Y104.323 E17.82211
G1 X134.780 Y104.780 F7800.000
G1 F1800
G1 X65.220 Y104.780 E21.24389
G1 X65.220 Y95.220 E21.71416
G1 X134.780 Y95.220 E25.13594
G1 X134.780 Y104.720 E25.60327
G1 X134.380 Y104.762 F7800.000
G1 X133.589 Y96.500 F7800.000
G1 F1200
G1 X133.500 Y96.411 E25.61018
G1 X132.907 Y96.411 E25.64280
G1 X133.589 Y97.093 E25.69583
G1 X133.589 Y97.686 E25.72845
G1 X132.314 Y96.411 E25.82760
G1 X131.720 Y96.411 E25.86022
G1 X133.589 Y98.280 E26.00549
G1 X133.589 Y98.873 E26.03811
G1 X131.127 Y96.411 E26.22951
G1 X130.533 Y96.411 E26.26212
G1 X133.589 Y99.467 E26.49964
G1 X133.589 Y100.060 E26.53225
G1 X129.940 Y96.411 E26.81589
G1 X129.346 Y96.411 E26.84850
G1 X133.589 Y100.654 E27.17826
G1 X133.589 Y101.247 E27.21088
G1 X128.753 Y96.411 E27.58676
G1 X128.160 Y96.411 E27.61937
G1 X133.589 Y101.840 E28.04137
G1 X133.589 Y102.434 E28.07399
G1 X127.566 Y96.411 E28.54211
G1 X126.973 Y96.411 E28.57472
G1 X133.589 Y103.027 E29.08896
G1 X133.589 Y103.589 E29.11985
G1 X133.558 Y103.589 E29.12158
G1 X126.379 Y96.411 E29.67950
G1 X125.786 Y96.411 E29.71212
G1 X132.965 Y103.589 E30.27004
G1 X132.371 Y103.589 E30.30265
G1 X125.192 Y96.411 E30.86058
G1 X124.599 Y96.411 E30.89319
G1 X131.778 Y103.589 E31.45112
G1 X131.184 Y103.589 E31.48373
G1 X124.005 Y96.411 E32.04166
G1 X123.412 Y96.411 E32.07427
G1 X130.591 Y103.589 E32.63220
G1 X129.997 Y103.589 E32.66481
G1 X122.819 Y96.411 E33.22274
G1 X122.225 Y96.411 E33.25535
G1 X129.404 Y103.589 E33.81328
G1 X128.811 Y103.589 E33.84589
G1 X121.632 Y96.411 E34.40381
G1 X121.038 Y96.411 E34.43643
G1 X128.217 Y103.589 E34.99435
G1 X127.624 Y103.589 E35.02696
G1 X120.445 Y96.411 E35.58489
G1 X119.851 Y96.411 E35.61750
G1 X127.030 Y103.589 E36.17543
G1 X126.437 Y103.589 E36.20804
G1 X119.258 Y96.411 E36.76597
G1 X118.664 Y96.411 E36.79858
G1 X125.843 Y103.589 E37.35651
G1 X125.250 Y103.589 E37.38912
G1 X118.071 Y96.411 E37.94705
G1 X117.478 Y96.411 E37.97966
G1 X124.657 Y103.589 E38.53759
G1 X124.063 Y103.589 E38.57020
G1 X116.884 Y96.411 E39.12812
G1 X116.291 Y96.411 E39.16074
G1 X123.470 Y103.589 E39.71866
G1 X122.876 Y103.589 E39.75128
G1 X115.697 Y96.411 E40.30920
G1 X115.104 Y96.411 E40.34181
G1 X122.283 Y103.589 E40.89974
G1 X121.689 Y103.589 E40.93235
G1 X114.510 Y96.411 E41.49028
G1 X113.917 Y96.411 E41.52289
G1 X121.096 Y103.589 E42.08082
G1 X120.502 Y103.589 E42.11343
G1 X113.324 Y96.411 E42.67136
G1 X112.730 Y96.411 E42.70397
G1 X119.909 Y103.589 E43.26190
G1 X119.316 Y103.589 E43.29451
G1 X112.137 Y96.411 E43.85243
G1 X111.543 Y96.411 E43.88505
G1 X118.722 Y103.589 E44.44297
G1 X118.129 Y103.589 E44.47559
G1 X110.950 Y96.411 E45.03351
G1 X110.356 Y96.411 E45.06612
G1 X117.535 Y103.589 E45.62405
G1 X116.942 Y103.589 E45.65666
G1 X109.763 Y96.411 E46.21459
G1 X109.169 Y96.411 E46.24720
G1 X116.348 Y103.589 E46.80513
G1 X115.755 Y103.589 E46.83774
G1 X108.576 Y96.411 E47.39567
G1 X107.983 Y96.411 E47.42828
G1 X115.162 Y103.589 E47.98621
G1 X114.568 Y103.589 E48.01882
G1 X107.389 Y96.411 E48.57675
G1 X106.796 Y96.411 E48.60936
G1 X113.975 Y103.589 E49.16728
G1 X113.381 Y103.589 E49.19990
G1 X106.202 Y96.411 E49.75782
G1 X105.609 Y96.411 E49.79044
G1 X112.788 Y103.589 E50.34836
G1 X112.194 Y103.589 E50.38097
G1 X105.015 Y96.411 E50.93890
G1 X104.422 Y96.411 E50.97151
G1 X111.601 Y103.589 E51.52944
G1 X111.007 Y103.589 E51.56205
G1 X103.829 Y96.411 E52.11998
G1 X103.235 Y96.411 E52.15259
G1 X110.414 Y103.589 E52.71052
G1 X109.821 Y103.589 E52.74313
G1 X102.642 Y96.411 E53.30106
G1 X102.048 Y96.411 E53.33367
G1 X109.227 Y103.589 E53.89160
G1 X108.634 Y103.589 E53.92421
G1 X101.455 Y96.411 E54.48213
G1 X100.861 Y96.411 E54.51475
G1 X108.040 Y103.589 E55.07267
G1 X107.447 Y103.589 E55.10529
G1 X100.268 Y96.411 E55.66321
G1 X99.674 Y96.411 E55.69582
G1 X106.853 Y103.589 E56.25375
G1 X106.260 Y103.589 E56.28636
G1 X99.081 Y96.411 E56.84429
G1 X98.488 Y96.411 E56.87690
G1 X105.666 Y103.589 E57.43483
G1 X105.073 Y103.589 E57.46744
G1 X97.894 Y96.411 E58.02537
G1 X97.301 Y96.411 E58.05798
G1 X104.480 Y103.589 E58.61591
G1 X103.886 Y103.589 E58.64852
G1 X96.707 Y96.411 E59.20645
G1 X96.114 Y96.411 E59.23906
G1 X103.293 Y103.589 E59.79699
G1 X102.699 Y103.589 E59.82960
G1 X95.520 Y96.411 E60.38752
G1 X94.927 Y96.411 E60.42014
G1 X102.106 Y103.589 E60.97806
G1 X101.512 Y103.589 E61.01068
G1 X94.334 Y96.411 E61.56860
G1 X93.740 Y96.411 E61.60121
G1 X100.919 Y103.589 E62.15914
G1 X100.326 Y103.589 E62.19175
G1 X93.147 Y96.411 E62.74968
G1 X92.553 Y96.411 E62.78229
G1 X99.732 Y103.589 E63.34022
G1 X99.139 Y103.589 E63.37283
G1 X91.960 Y96.411 E63.93076
G1 X91.366 Y96.411 E63.96337
G1 X98.545 Y103.589 E64.52130
G1 X97.952 Y103.589 E64.55391
G1 X90.773 Y96.411 E65.11184
G1 X90.179 Y96.411 E65.14445
G1 X97.358 Y103.589 E65.70237
G1 X96.765 Y103.589 E65.73499
G1 X89.586 Y96.411 E66.29291
G1 X88.993 Y96.411 E66.32553
G1 X96.171 Y103.589 E66.88345
G1 X95.578 Y103.589 E66.91606
G1 X88.399 Y96.411 E67.47399
G1 X87.806 Y96.411 E67.50660
G1 X94.985 Y103.589 E68.06453
G1 X94.391 Y103.589 E68.09714
G1 X87.212 Y96.411 E68.65507
G1 X86.619 Y96.411 E68.68768
G1 X93.798 Y103.589 E69.24561
G1 X93.204 Y103.589 E69.27822
G1 X86.025 Y96.411 E69.83615
G1 X85.432 Y96.411 E69.86876
G1 X92.611 Y103.589 E70.42669
G1 X92.017 Y103.589 E70.45930
G1 X84.839 Y96.411 E71.01722
G1 X84.245 Y96.411 E71.04984
G1 X91.424 Y103.589 E71.60776
G1 X90.831 Y103.589 E71.64038
G1 X83.652 Y96.411 E72.19830
G1 X83.058 Y96.411 E72.23091
G1 X90.237 Y103.589 E72.78884
G1 X89.644 Y103.589 E72.82145
G1 X82.465 Y96.411 E73.37938
G1 X81.871 Y96.411 E73.41199
G1 X89.050 Y103.589 E73.96992
G1 X88.457 Y103.589 E74.00253
G1 X81.278 Y96.411 E74.56046
G1 X80.684 Y96.411 E74.59307
G1 X87.863 Y103.589 E75.15100
G1 X87.270 Y103.589 E75.18361
G1 X80.091 Y96.411 E75.74154
G1 X79.498 Y96.411 E75.77415
G1 X86.676 Y103.589 E76.33207
G1 X86.083 Y103.589 E76.36469
G1 X78.904 Y96.411 E76.92261
G1 X78.311 Y96.411 E76.95523
G1 X85.490 Y103.589 E77.51315
G1 X84.896 Y103.589 E77.54576
G1 X77.717 Y96.411 E78.10369
G1 X77.124 Y96.411 E78.13630
G1 X84.303 Y103.589 E78.69423
G1 X83.709 Y103.589 E78.72684
G1 X76.530 Y96.411 E79.28477
G1 X75.937 Y96.411 E79.31738
G1 X83.116 Y103.589 E79.87531
G1 X82.522 Y103.589 E79.90792
G1 X75.344 Y96.411 E80.46585
G1 X74.750 Y96.411 E80.49846
G1 X81.929 Y103.589 E81.05639
G1 X81.336 Y103.589 E81.08900
G1 X74.157 Y96.411 E81.64692
G1 X73.563 Y96.411 E81.67954
G1 X80.742 Y103.589 E82.23746
G1 X80.149 Y103.589 E82.27008
G1 X72.970 Y96.411 E82.82800
G1 X72.376 Y96.411 E82.86061
G1 X79.555 Y103.589 E83.41854
G1 X78.962 Y103.589 E83.45115
G1 X71.783 Y96.411 E84.00908
G1 X71.189 Y96.411 E84.04169
G1 X78.368 Y103.589 E84.59962
G1 X77.775 Y103.589 E84.63223
G1 X70.596 Y96.411 E85.19016
G1 X70.003 Y96.411 E85.22277
G1 X77.181 Y103.589 E85.78070
G1 X76.588 Y103.589 E85.81331
G1 X69.409 Y96.411 E86.37124
G1 X68.816 Y96.411 E86.40385
G1 X75.995 Y103.589 E86.96177
G1 X75.401 Y103.589 E86.99439
G1 X68.222 Y96.411 E87.55231
G1 X67.629 Y96.411 E87.58493
G1 X74.808 Y103.589 E88.14285
G1 X74.214 Y103.589 E88.17546
G1 X67.035 Y96.411 E88.73339
G1 X66.442 Y96.411 E88.76600
G1 X73.621 Y103.589 E89.32393
G1 X73.027 Y103.589 E89.35654
G1 X66.411 Y96.973 E89.87079
G1 X66.411 Y97.566 E89.90340
G1 X72.434 Y103.589 E90.37153
G1 X71.841 Y103.589 E90.40414
G1 X66.411 Y98.159 E90.82614
G1 X66.411 Y98.753 E90.85876
G1 X71.247 Y103.589 E91.23464
G1 X70.654 Y103.589 E91.26725
G1 X66.411 Y99.346 E91.59702
G1 X66.411 Y99.940 E91.62963
G1 X70.060 Y103.589 E91.91327
G1 X69.467 Y103.589 E91.94588
G1 X66.411 Y100.533 E92.18341
G1 X66.411 Y101.127 E92.21602
G1 X68.873 Y103.589 E92.40742
G1 X68.280 Y103.589 E92.44003
G1 X66.411 Y101.720 E92.58531
G1 X66.411 Y102.314 E92.61793
G1 X67.686 Y103.589 E92.71709
G1 X67.093 Y103.589 E92.74970
G1 X66.411 Y102.907 E92.80274
G1 X66.411 Y103.500 E92.83535
G1 X66.499 Y103.589 E92.84226
G1 E91.84226 F1800.00000
G92 E0
G1 Z0.950 F7800.000
G1 X133.964 Y103.964 F7800.000
G1 E1.00000 F1800.00000
G1 F3600
G1 X66.036 Y103.964 E4.72632
G1 X66.036 Y96.036 E5.16122
G1 X133.964 Y96.036 E8.88754
G1 X133.964 Y103.904 E9.31914
G1 X134.383 Y104.383 F7800.000
G1 F3600
G1 X65.617 Y104.383 E13.09142
G1 X65.617 Y95.617 E13.57227
G1 X134.383 Y95.617 E17.34455
G1 X134.383 Y104.323 E17.82211
G1 X134.780 Y104.780 F7800.000
G1 F1800
G1 X65.220 Y104.780 E21.24389
G1 X65.220 Y95.220 E21.71416
G1 X134.780 Y95.220 E25.13594
G1 X134.780 Y104.720 E25.60327
G1 X134.380 Y104.762 F7800.000
