; generated by Slic3r 1.3.0 on 2020-08-15 at 14:02:49

; external perimeters extrusion width = 0.44mm (3.38mm^3/s)
; perimeters extrusion width = 0.48mm (7.54mm^3/s)
; infill extrusion width = 0.48mm (10.05mm^3/s)
; solid infill extrusion width = 0.48mm (2.51mm^3/s)
; top infill extrusion width = 0.48mm (1.88mm^3/s)

M107
M104 S200 ; set temperature
G28 ; home all axes
G1 Z5 F5000 ; lift nozzle

; Filament gcode

M109 S200 ; set temperature and wait for it to be reached
G21 ; set units to millimeters
G90 ; use absolute coordinates
M82 ; use absolute distances for extrusion
G92 E0
G1 E-1.00000 F1800.00000
G92 E0
G1 Z0.350 F7800.000
G1 X47.767 Y18.619 F7800.000
G1 E1.00000 F1800.00000
G1 F1800
G1 X48.827 Y17.652 E1.13703
G1 X50.000 Y17.375 E1.25206
G1 X150.000 Y17.375 E10.79967
G1 X151.381 Y17.767 E10.93670
G1 X152.348 Y18.827 E11.07373
G1 X152.625 Y20.000 E11.18876
G1 X152.625 Y170.000 E25.51017
G1 X152.233 Y171.381 E25.64720
G1 X150.601 Y172.555 E25.83913
G1 X108.101 Y182.555 E30.00767
G1 X107.500 Y182.625 E30.06546
G1 X92.500 Y182.625 E31.49760
G1 X91.899 Y182.555 E31.55538
G1 X49.399 Y172.555 E35.72393
G1 X48.145 Y171.857 E35.86096
G1 X47.375 Y170.000 E36.05288
G1 X47.375 Y20.000 E50.37429
G1 X47.751 Y18.677 E50.50559
G1 E49.50559 F1800.00000
G92 E0
G1 X99.970 Y172.321 F7800.000
G1 E1.00000 F1800.00000
G1 F1800
G1 X100.437 Y172.356 E1.04462
G1 X101.008 Y172.517 E1.10128
G1 X101.416 Y172.725 E1.14508
G1 X101.881 Y173.092 E1.20157
G1 X102.179 Y173.441 E1.24537
G1 X102.468 Y173.957 E1.30185
G1 X102.610 Y174.393 E1.34566
G1 X102.682 Y175.000 E1.40400
G1 X102.610 Y175.607 E1.46235
G1 X102.468 Y176.043 E1.50616
G1 X102.179 Y176.559 E1.56263
G1 X101.881 Y176.908 E1.60644
G1 X101.416 Y177.275 E1.66293
G1 X101.008 Y177.483 E1.70673
G1 X100.438 Y177.643 E1.76323
G1 X100.000 Y177.678 E1.80519
G1 X99.562 Y177.643 E1.84715
G1 X98.991 Y177.482 E1.90380
G1 X98.575 Y177.269 E1.94841
G1 X98.118 Y176.908 E2.00401
G1 X97.821 Y176.559 E2.04774
G1 X97.532 Y176.043 E2.10422
G1 X97.390 Y175.607 E2.14803
G1 X97.318 Y175.000 E2.20637
G1 X97.390 Y174.393 E2.26471
G1 X97.532 Y173.957 E2.30852
G1 X97.821 Y173.441 E2.36500
G1 X98.118 Y173.092 E2.40873
G1 X98.575 Y172.731 E2.46432
G1 X98.974 Y172.526 E2.50711
G1 X99.393 Y172.390 E2.54915
G1 X99.911 Y172.328 E2.59900
G1 X99.984 Y172.949 F7800.000
G1 F1800
G1 X100.327 Y172.975 E2.63181
G1 X100.779 Y173.102 E2.67661
G1 X101.078 Y173.254 E2.70866
G1 X101.446 Y173.544 E2.75340
G1 X101.664 Y173.800 E2.78545
G1 X101.893 Y174.208 E2.83018
G1 X101.997 Y174.528 E2.86224
G1 X102.052 Y175.000 E2.90764
G1 X101.997 Y175.472 E2.95305
G1 X101.893 Y175.792 E2.98510
G1 X101.664 Y176.200 E3.02983
G1 X101.446 Y176.456 E3.06188
G1 X101.078 Y176.746 E3.10662
G1 X100.779 Y176.898 E3.13867
G1 X100.328 Y177.025 E3.18341
G1 X100.000 Y177.051 E3.21480
G1 X99.672 Y177.025 E3.24619
G1 X99.221 Y176.898 E3.29099
G1 X98.915 Y176.741 E3.32380
G1 X98.554 Y176.455 E3.36774
G1 X98.336 Y176.200 E3.39977
G1 X98.107 Y175.792 E3.44450
G1 X98.003 Y175.472 E3.47655
G1 X97.948 Y175.000 E3.52196
G1 X98.003 Y174.528 E3.56736
G1 X98.107 Y174.208 E3.59942
G1 X98.336 Y173.800 E3.64415
G1 X98.554 Y173.545 E3.67617
G1 X98.915 Y173.259 E3.72011
G1 X99.215 Y173.105 E3.75227
G1 X99.528 Y173.004 E3.78369
G1 X99.925 Y172.956 E3.82190
G1 X99.984 Y172.949 F7800.000
G1 E2.82190 F1800.00000
G92 E0
G1 X148.113 Y23.852 F7800.000
G1 E1.00000 F1800.00000
G1 F1800
G1 X147.803 Y23.245 E1.06507
G1 X147.341 Y22.659 E1.13635
G1 X146.755 Y22.197 E1.20763
G1 X146.148 Y21.887 E1.27270
G1 X146.217 Y21.600 E1.30092
G1 X148.400 Y21.600 E1.50939
G1 X148.400 Y23.783 E1.71787
G1 X148.171 Y23.838 E1.74036
G1 X147.493 Y24.027 F7800.000
G1 F1800
G1 X147.643 Y24.562 E1.79340
G1 X147.678 Y25.002 E1.83551
G1 X147.641 Y25.448 E1.87827
G1 X147.482 Y26.008 E1.93388
G1 X147.275 Y26.416 E1.97760
G1 X146.896 Y26.896 E2.03594
G1 X146.416 Y27.275 E2.09429
G1 X146.008 Y27.483 E2.13808
G1 X145.438 Y27.643 E2.19459
G1 X145.000 Y27.678 E2.23654
G1 X144.562 Y27.643 E2.27849
G1 X143.992 Y27.483 E2.33500
G1 X143.584 Y27.275 E2.37879
G1 X143.104 Y26.896 E2.43714
G1 X142.725 Y26.416 E2.49548
G1 X142.517 Y26.008 E2.53927
G1 X142.357 Y25.438 E2.59578
G1 X142.322 Y25.000 E2.63773
G1 X142.357 Y24.562 E2.67968
G1 X142.517 Y23.992 E2.73619
G1 X142.725 Y23.584 E2.77998
G1 X143.104 Y23.104 E2.83833
G1 X143.584 Y22.725 E2.89667
G1 X143.975 Y22.526 E2.93862
G1 X144.392 Y22.390 E2.98052
G1 X144.971 Y22.321 E3.03610
G1 X145.436 Y22.356 E3.08072
G1 X146.008 Y22.517 E3.13738
G1 X146.416 Y22.725 E3.18117
G1 X146.896 Y23.104 E3.23951
G1 X147.275 Y23.584 E3.29786
G1 X147.472 Y23.971 E3.33939
G1 X146.898 Y24.221 F7800.000
G1 F1800
G1 X147.025 Y24.672 E3.38414
G1 X147.051 Y25.001 E3.41558
G1 X147.024 Y25.336 E3.44773
G1 X146.898 Y25.779 E3.49168
G1 X146.746 Y26.078 E3.52369
G1 X146.451 Y26.451 E3.56910
G1 X146.078 Y26.746 E3.61451
G1 X145.779 Y26.898 E3.64655
G1 X145.328 Y27.025 E3.69130
G1 X145.000 Y27.051 E3.72268
G1 X144.672 Y27.025 E3.75407
G1 X144.221 Y26.898 E3.79882
G1 X143.922 Y26.746 E3.83086
G1 X143.549 Y26.451 E3.87626
G1 X143.254 Y26.078 E3.92167
G1 X143.102 Y25.779 E3.95371
G1 X142.975 Y25.328 E3.99846
G1 X142.949 Y25.000 E4.02985
G1 X142.975 Y24.672 E4.06123
G1 X143.102 Y24.221 E4.10598
G1 X143.254 Y23.922 E4.13802
G1 X143.549 Y23.549 E4.18343
G1 X143.922 Y23.254 E4.22883
G1 X144.215 Y23.105 E4.26022
G1 X144.527 Y23.004 E4.29158
G1 X144.984 Y22.949 E4.33552
G1 X145.327 Y22.975 E4.36833
G1 X145.779 Y23.102 E4.41314
G1 X146.078 Y23.254 E4.44518
G1 X146.451 Y23.549 E4.49059
G1 X146.746 Y23.922 E4.53599
G1 X146.871 Y24.168 E4.56231
G1 X146.898 Y24.221 F7800.000
G1 E3.56231 F1800.00000
G92 E0
G1 X105.900 Y168.400 F7800.000
G1 E1.00000 F1800.00000
G1 F1800
G1 X105.900 Y178.400 E1.95476
G1 X101.217 Y178.400 E2.40193
G1 X101.148 Y178.113 E2.43015
G1 X101.755 Y177.803 E2.49523
G1 X102.316 Y177.361 E2.56348
G1 X102.694 Y176.918 E2.61903
G1 X103.043 Y176.295 E2.68726
G1 X103.223 Y175.741 E2.74282
G1 X103.311 Y175.000 E2.81410
G1 X103.223 Y174.259 E2.88538
G1 X103.043 Y173.705 E2.94095
G1 X102.694 Y173.082 E3.00917
G1 X102.316 Y172.639 E3.06473
G1 X101.755 Y172.197 E3.13297
G1 X101.237 Y171.932 E3.18852
G1 X100.546 Y171.738 E3.25704
G1 X99.957 Y171.693 E3.31346
G1 X99.258 Y171.777 E3.38069
G1 X98.733 Y171.948 E3.43335
G1 X98.235 Y172.203 E3.48675
G1 X97.683 Y172.640 E3.55400
G1 X97.306 Y173.082 E3.60944
G1 X96.957 Y173.705 E3.67766
G1 X96.777 Y174.259 E3.73323
G1 X96.689 Y175.000 E3.80451
G1 X96.777 Y175.741 E3.87579
G1 X96.957 Y176.295 E3.93135
G1 X97.306 Y176.918 E3.99958
G1 X97.683 Y177.360 E4.05501
G1 X98.235 Y177.797 E4.12226
G1 X98.852 Y178.113 E4.18842
G1 X98.782 Y178.400 E4.21659
G1 X94.100 Y178.400 E4.66366
G1 X94.100 Y168.400 E5.61842
G1 X51.600 Y168.400 E9.67615
G1 X51.600 Y26.217 E23.25127
G1 X51.887 Y26.148 E23.27949
G1 X52.197 Y26.755 E23.34456
G1 X52.659 Y27.341 E23.41584
G1 X53.245 Y27.803 E23.48712
G1 X53.707 Y28.039 E23.53664
G1 X54.097 Y28.183 E23.57632
G1 X54.513 Y28.266 E23.61678
G1 X55.000 Y28.305 E23.66346
G1 X55.548 Y28.262 E23.71598
G1 X56.237 Y28.068 E23.78425
G1 X56.755 Y27.803 E23.83979
G1 X57.341 Y27.341 E23.91107
G1 X57.803 Y26.755 E23.98235
G1 X58.068 Y26.237 E24.03789
G1 X58.262 Y25.548 E24.10616
G1 X58.305 Y25.000 E24.15868
G1 X58.262 Y24.452 E24.21121
G1 X58.068 Y23.763 E24.27947
G1 X57.803 Y23.245 E24.33501
G1 X57.341 Y22.659 E24.40629
G1 X56.755 Y22.197 E24.47757
G1 X56.148 Y21.887 E24.54264
G1 X56.217 Y21.600 E24.57086
G1 X143.783 Y21.600 E32.93137
G1 X143.852 Y21.887 E32.95959
G1 X143.245 Y22.197 E33.02466
G1 X142.659 Y22.659 E33.09594
G1 X142.197 Y23.245 E33.16722
G1 X141.932 Y23.763 E33.22276
G1 X141.738 Y24.452 E33.29103
G1 X141.695 Y25.000 E33.34355
G1 X141.738 Y25.548 E33.39607
G1 X141.932 Y26.237 E33.46434
G1 X142.197 Y26.755 E33.51988
G1 X142.659 Y27.341 E33.59116
G1 X143.245 Y27.803 E33.66244
G1 X143.763 Y28.068 E33.71798
G1 X144.452 Y28.262 E33.78625
G1 X145.000 Y28.305 E33.83877
G1 X145.548 Y28.262 E33.89129
G1 X146.237 Y28.068 E33.95956
G1 X146.755 Y27.803 E34.01510
G1 X147.341 Y27.341 E34.08638
G1 X147.803 Y26.755 E34.15766
G1 X148.113 Y26.148 E34.22273
G1 X148.400 Y26.217 E34.25095
G1 X148.400 Y168.400 E47.82608
G1 X105.960 Y168.400 E51.87808
G1 E50.87808 F1800.00000
G92 E0
G1 X56.008 Y27.483 F7800.000
G1 E1.00000 F1800.00000
G1 F1800
G1 X55.438 Y27.643 E1.05651
G1 X55.000 Y27.678 E1.09846
G1 X54.599 Y27.646 E1.13686
G1 X54.268 Y27.580 E1.16910
G1 X53.958 Y27.465 E1.20064
G1 X53.584 Y27.275 E1.24076
G1 X53.104 Y26.896 E1.29911
G1 X52.725 Y26.416 E1.35745
G1 X52.517 Y26.008 E1.40124
G1 X52.357 Y25.438 E1.45775
G1 X52.321 Y24.981 E1.50155
G1 X52.390 Y24.391 E1.55821
G1 X52.544 Y23.925 E1.60512
G1 X52.825 Y23.436 E1.65889
G1 X53.119 Y23.092 E1.70216
G1 X53.584 Y22.725 E1.75866
G1 X53.975 Y22.526 E1.80061
G1 X54.392 Y22.390 E1.84251
G1 X54.971 Y22.321 E1.89809
G1 X55.436 Y22.356 E1.94271
G1 X56.008 Y22.517 E1.99937
G1 X56.416 Y22.725 E2.04316
G1 X56.896 Y23.104 E2.10150
G1 X57.275 Y23.584 E2.15985
G1 X57.483 Y23.992 E2.20364
G1 X57.643 Y24.562 E2.26015
G1 X57.678 Y25.000 E2.30210
G1 X57.643 Y25.438 E2.34405
G1 X57.483 Y26.008 E2.40056
G1 X57.275 Y26.416 E2.44435
G1 X56.896 Y26.896 E2.50270
G1 X56.416 Y27.275 E2.56104
G1 X56.061 Y27.456 E2.59910
G1 X55.779 Y26.898 F7800.000
G1 F1800
G1 X55.328 Y27.025 E2.64385
G1 X55.000 Y27.051 E2.67523
G1 X54.686 Y27.026 E2.70534
G1 X54.439 Y26.977 E2.72938
G1 X54.209 Y26.892 E2.75278
G1 X53.922 Y26.746 E2.78350
G1 X53.549 Y26.451 E2.82891
G1 X53.254 Y26.078 E2.87431
G1 X53.102 Y25.779 E2.90636
G1 X52.975 Y25.328 E2.95110
G1 X52.948 Y24.993 E2.98315
G1 X53.004 Y24.527 E3.02795
G1 X53.117 Y24.181 E3.06277
G1 X53.337 Y23.798 E3.10490
G1 X53.554 Y23.544 E3.13676
G1 X53.922 Y23.254 E3.18150
G1 X54.215 Y23.105 E3.21289
G1 X54.527 Y23.004 E3.24425
G1 X54.984 Y22.949 E3.28819
G1 X55.327 Y22.975 E3.32100
G1 X55.779 Y23.102 E3.36581
G1 X56.078 Y23.254 E3.39785
G1 X56.451 Y23.549 E3.44326
G1 X56.746 Y23.922 E3.48866
G1 X56.898 Y24.221 E3.52070
G1 X57.025 Y24.672 E3.56545
G1 X57.051 Y25.000 E3.59684
G1 X57.025 Y25.328 E3.62822
G1 X56.898 Y25.779 E3.67297
G1 X56.746 Y26.078 E3.70501
G1 X56.451 Y26.451 E3.75042
G1 X56.078 Y26.746 E3.79582
G1 X55.832 Y26.871 E3.82214
G1 X55.779 Y26.898 F7800.000
G1 E2.82214 F1800.00000
G92 E0
G1 X51.915 Y23.835 F7800.000
G1 E1.00000 F1800.00000
G1 F1800
G1 X51.600 Y23.785 E1.03052
G1 X51.600 Y21.600 E1.23913
G1 X53.783 Y21.600 E1.44761
G1 X53.852 Y21.887 E1.47583
G1 X53.245 Y22.197 E1.54089
G1 X52.684 Y22.639 E1.60915
G1 X52.312 Y23.075 E1.66383
G1 X51.970 Y23.669 E1.72924
G1 X51.934 Y23.778 E1.74027
G1 E0.74027 F1800.00000
G92 E0
G1 X93.475 Y169.025 F7800.000
G1 E1.00000 F1800.00000
G1 F1800
G1 X50.975 Y169.025 E5.05773
G1 X50.975 Y20.975 E19.19298
G1 X149.025 Y20.975 E28.55443
G1 X149.025 Y169.025 E42.68968
G1 X106.525 Y169.025 E46.74742
G1 X106.525 Y179.025 E47.70218
G1 X93.475 Y179.025 E48.94816
G1 X93.475 Y169.085 E49.89719
G1 X92.850 Y169.650 F7800.000
G1 F1800
G1 X50.350 Y169.650 E53.95493
G1 X50.350 Y20.350 E68.20950
G1 X149.650 Y20.350 E77.69027
G1 X149.650 Y169.650 E91.94485
G1 X107.150 Y169.650 E96.00258
G1 X107.150 Y179.650 E96.95734
G1 X92.850 Y179.650 E98.32265
G1 X92.850 Y169.710 E99.27168
G1 X92.724 Y169.270 F7800.000
G1 E98.27168 F1800.00000
G92 E0
G1 X97.746 Y177.856 F7800.000
G1 E1.00000 F1800.00000
G1 F1800
G1 X97.922 Y178.026 E1.00181
G1 X98.018 Y178.060 E1.00256
G1 X99.224 Y177.902 F7800.000
G1 F1800
G1 X99.310 Y178.032 E1.01490
G1 F1800
G1 X99.480 Y178.292 E1.04364
G1 F1800
G1 X99.510 Y178.333 E1.04901
G1 X99.972 Y178.351 E1.09724
G1 X100.489 Y178.333 E1.15131
G1 X100.505 Y178.312 E1.15404
G1 F1800
G1 X100.605 Y178.161 E1.17077
G1 F1800
G1 X100.776 Y177.902 E1.19536
G1 X101.980 Y178.060 F7800.000
G1 F1800
G1 X102.078 Y178.026 E1.19614
G1 X102.255 Y177.855 E1.19798
G1 E0.19798 F1800.00000
G92 E0
G1 X105.005 Y177.842 F7800.000
G1 E1.00000 F1800.00000
G1 F1800
G1 X105.342 Y177.505 E1.04542
G1 X105.342 Y176.621 E1.12982
G1 X104.121 Y177.842 E1.29460
G1 X103.238 Y177.842 E1.37901
G1 X105.342 Y175.738 E1.66315
G1 X105.342 Y174.854 E1.74756
G1 X103.514 Y176.681 E1.99439
G1 X103.552 Y176.613 E2.00190
G1 X103.770 Y175.942 E2.06923
G1 X103.824 Y175.487 E2.11297
G1 X105.342 Y173.970 E2.31791
G1 X105.342 Y173.086 E2.40232
G1 X103.820 Y174.608 E2.60786
G1 X103.770 Y174.190 E2.64802
G1 X103.668 Y173.876 E2.67961
G1 X105.342 Y172.202 E2.90563
G1 X105.342 Y171.318 E2.99003
G1 X103.404 Y173.255 E3.25166
G1 X103.143 Y172.789 E3.30273
G1 X103.071 Y172.705 E3.31329
G1 X105.342 Y170.434 E3.61992
G1 X105.342 Y169.550 E3.70432
G1 X102.659 Y172.233 E4.06654
G1 X102.165 Y171.843 E4.12663
G1 X105.342 Y168.667 E4.55560
G1 X105.342 Y167.783 E4.64000
G1 X101.605 Y171.519 E5.14460
G1 X101.399 Y171.414 E5.16668
G1 X100.952 Y171.288 E5.21101
G1 E4.21101 F1800.00000
G92 E0
G1 X94.658 Y174.047 F7800.000
G1 E1.00000 F1800.00000
G1 F1800
G1 X94.658 Y174.930 E1.08440
G1 X96.761 Y172.828 E1.36836
G1 X96.448 Y173.387 E1.42959
G1 X96.230 Y174.058 E1.49693
G1 X96.205 Y174.268 E1.51712
G1 X94.658 Y175.814 E1.72597
G1 X94.658 Y176.698 E1.81038
G1 X96.158 Y175.199 E2.01283
G1 X96.230 Y175.810 E2.07155
G1 X96.279 Y175.961 E2.08678
G1 X94.658 Y177.582 E2.30565
G1 X94.658 Y177.842 E2.33044
G1 X95.283 Y177.842 E2.39005
G1 X96.518 Y176.606 E2.55691
G1 X96.836 Y177.173 E2.61892
G1 X96.167 Y177.842 E2.70926
G1 E1.70926 F1800.00000
G92 E0
G1 X147.709 Y167.842 F7800.000
G1 E1.00000 F1800.00000
G1 F1800
G1 X147.842 Y167.709 E1.01792
G1 X147.842 Y166.825 E1.10232
G1 X146.825 Y167.842 E1.23961
G1 X145.941 Y167.842 E1.32401
G1 X147.842 Y165.941 E1.58067
G1 X147.842 Y165.057 E1.66507
G1 X145.057 Y167.842 E2.04109
G1 X144.173 Y167.842 E2.12549
G1 X147.842 Y164.173 E2.62087
G1 X147.842 Y163.290 E2.70528
G1 X143.290 Y167.842 E3.32003
G1 X142.406 Y167.842 E3.40443
G1 X147.842 Y162.406 E4.13854
G1 X147.842 Y161.522 E4.22295
G1 X141.522 Y167.842 E5.07643
G1 X140.638 Y167.842 E5.16083
G1 X147.842 Y160.638 E6.13367
G1 X147.842 Y159.754 E6.21808
G1 X139.754 Y167.842 E7.31029
G1 X138.870 Y167.842 E7.39469
G1 X147.842 Y158.870 E8.60627
G1 X147.842 Y157.986 E8.69067
G1 X137.986 Y167.842 E10.02161
G1 X137.102 Y167.842 E10.10602
G1 X147.842 Y157.102 E11.55632
G1 X147.842 Y156.218 E11.64073
G1 X136.218 Y167.842 E13.21040
G1 X135.335 Y167.842 E13.29480
G1 X147.842 Y155.335 E14.98384
G1 X147.842 Y154.451 E15.06824
G1 X134.451 Y167.842 E16.87664
G1 X133.567 Y167.842 E16.96105
G1 X147.842 Y153.567 E18.88882
G1 X147.842 Y152.683 E18.97322
G1 X132.683 Y167.842 E21.02035
G1 X131.799 Y167.842 E21.10476
G1 X147.842 Y151.799 E23.27126
G1 X147.842 Y150.915 E23.35566
G1 X130.915 Y167.842 E25.64152
G1 X130.031 Y167.842 E25.72593
G1 X147.842 Y150.031 E28.13116
G1 X147.842 Y149.147 E28.21556
G1 X129.147 Y167.842 E30.74016
G1 X128.264 Y167.842 E30.82456
G1 X147.842 Y148.264 E33.46852
G1 X147.842 Y147.380 E33.55292
G1 X127.380 Y167.842 E36.31625
G1 X126.496 Y167.842 E36.40065
G1 X147.842 Y146.496 E39.28335
G1 X147.842 Y145.612 E39.36775
G1 X125.612 Y167.842 E42.36981
G1 X124.728 Y167.842 E42.45421
G1 X147.842 Y144.728 E45.57563
G1 X147.842 Y143.844 E45.66004
G1 X123.844 Y167.842 E48.90082
G1 X122.960 Y167.842 E48.98523
G1 X147.842 Y142.960 E52.34538
G1 X147.842 Y142.076 E52.42979
G1 X122.076 Y167.842 E55.90930
G1 X121.193 Y167.842 E55.99371
G1 X147.842 Y141.193 E59.59259
G1 X147.842 Y140.309 E59.67700
G1 X120.309 Y167.842 E63.39524
G1 X119.425 Y167.842 E63.47965
G1 X147.842 Y139.425 E67.31726
G1 X147.842 Y138.541 E67.40167
G1 X118.541 Y167.842 E71.35865
G1 X117.657 Y167.842 E71.44305
