; generated by Slic3r 1.2.9 on 2017-05-30 at 15:33:17

; external perimeters extrusion width = 0.50mm
; perimeters extrusion width = 0.72mm
; infill extrusion width = 0.72mm
; solid infill extrusion width = 0.72mm
; top infill extrusion width = 0.72mm

M107
M190 S55 ; set bed temperature
M104 S195 ; set temperature
G28 ; home all axes
G1 Z5 F5000 ; lift nozzle

M109 S195 ; wait for temperature to be reached
G21 ; set units to millimeters
G90 ; use absolute coordinates
M82 ; use absolute distances for extrusion
G92 E0
G1 Z0.300 F7800.000
G1 E-2.00000 F2400.00000
G92 E0
G1 X75.004 Y74.537 F7800.000
G1 E2.00000 F2400.00000
G1 X76.753 Y73.078 E2.06360 F1800.000
G1 X80.000 Y72.214 E2.15741
G1 X120.000 Y72.214 E3.27431
G1 X122.243 Y72.611 E3.33791
G1 X124.213 Y73.754 E3.40152 F1800.000
G1 X125.672 Y75.503 E3.46512
G1 X126.536 Y78.750 E3.55892
G1 X126.536 Y81.750 E3.64269
G1 X126.380 Y83.168 E3.68252
G1 X118.380 Y119.168 E4.71225
G1 X117.506 Y121.271 E4.77585
G1 X116.621 Y122.371 E4.81527
G1 X113.121 Y125.871 E4.95348
G1 X111.255 Y127.177 E5.01708
G1 X108.500 Y127.786 E5.09586
G1 X91.500 Y127.786 E5.57054
G1 X89.257 Y127.389 E5.63414
G1 X86.879 Y125.871 E5.71292
G1 X83.379 Y122.371 E5.85113
G1 X82.073 Y120.505 E5.91473
G1 X81.620 Y119.168 E5.95415
G1 X73.620 Y83.168 E6.98388
G1 X73.464 Y81.750 E7.02371
G1 X73.464 Y78.750 E7.10747
G1 X73.861 Y76.507 E7.17108
G1 X74.966 Y74.601 E7.23259
G1 E5.23259 F2400.00000
G92 E0
G1 X106.167 Y114.927 F7800.000
G1 E2.00000 F2400.00000
G1 X104.584 Y116.267 E2.05790 F1800.000
G1 X102.722 Y117.178 E2.11580
G1 X100.692 Y117.603 E2.17370
G1 X98.620 Y117.518 E2.23160
G1 X96.633 Y116.926 E2.28949
G1 X94.852 Y115.864 E2.34739
G1 X93.386 Y114.398 E2.40529
G1 X92.324 Y112.617 E2.46319
G1 X91.732 Y110.630 E2.52109
G1 X91.647 Y108.558 E2.57899
G1 X92.072 Y106.528 E2.63689
G1 X92.983 Y104.666 E2.69478
G1 X94.323 Y103.083 E2.75268
G1 X96.011 Y101.878 E2.81058
G1 X97.942 Y101.125 E2.86848
G1 X100.005 Y100.868 E2.92651 F1800.000
G1 X102.170 Y101.153 E2.98749
G1 X104.192 Y101.990 E3.04859
G1 X105.928 Y103.322 E3.10970
G1 X107.260 Y105.058 E3.17081
G1 X108.097 Y107.080 E3.23191
G1 X108.382 Y109.245 E3.29288
G1 X108.125 Y111.308 E3.35092
G1 X107.372 Y113.239 E3.40882
G1 X106.210 Y114.866 E3.46462
G1 X105.770 Y114.561 F7800.000
G1 X104.289 Y115.815 E3.51879 F1800.000
G1 X102.546 Y116.667 E3.57296
G1 X100.648 Y117.065 E3.62713
G1 X98.709 Y116.985 E3.68130
G1 X96.850 Y116.432 E3.73547
G1 X95.183 Y115.439 E3.78964
G1 X93.811 Y114.067 E3.84381
G1 X92.818 Y112.400 E3.89798
G1 X92.265 Y110.541 E3.95215
G1 X92.185 Y108.602 E4.00632
G1 X92.583 Y106.704 E4.06049
G1 X93.435 Y104.961 E4.11466
G1 X94.689 Y103.480 E4.16883
G1 X96.268 Y102.353 E4.22300
G1 X98.075 Y101.648 E4.27717
G1 X100.003 Y101.408 E4.33143 F1800.000
G1 X102.030 Y101.674 E4.38851
G1 X103.921 Y102.458 E4.44568
G1 X105.546 Y103.704 E4.50285
G1 X106.792 Y105.329 E4.56002
G1 X107.576 Y107.220 E4.61719
G1 X107.842 Y109.247 E4.67427
G1 X107.602 Y111.175 E4.72852
G1 X106.897 Y112.982 E4.78269
G1 X105.813 Y114.500 E4.83477
G1 X105.372 Y114.196 F7800.000
G1 X103.994 Y115.363 E4.88521 F1800.000
G1 X102.371 Y116.157 E4.93565
G1 X100.603 Y116.527 E4.98610
G1 X98.798 Y116.453 E5.03654
G1 X97.067 Y115.937 E5.08698
G1 X95.515 Y115.013 E5.13742
G1 X94.237 Y113.735 E5.18786
G1 X93.313 Y112.183 E5.23830
G1 X92.797 Y110.452 E5.28875
G1 X92.723 Y108.647 E5.33919
G1 X93.093 Y106.879 E5.38963
G1 X93.887 Y105.256 E5.44007
G1 X95.054 Y103.878 E5.49051
G1 X96.524 Y102.828 E5.54096
G1 X98.207 Y102.171 E5.59140
G1 X100.001 Y101.948 E5.64187 F1800.000
G1 X101.890 Y102.196 E5.69507
G1 X103.651 Y102.926 E5.74830
G1 X105.164 Y104.086 E5.80153
G1 X106.324 Y105.599 E5.85476
G1 X107.054 Y107.360 E5.90799
G1 X107.302 Y109.249 E5.96119
G1 X107.079 Y111.043 E6.01166
G1 X106.422 Y112.726 E6.06210
G1 X105.416 Y114.135 E6.11045
G1 X105.502 Y114.679 F7800.000
G1 E4.11045 F2400.00000
G92 E0
G1 X110.629 Y80.121 F7800.000
G1 E2.00000 F2400.00000
G1 X110.629 Y117.182 E3.03483 F1800.000
G1 X107.932 Y119.879 E3.14132
G1 X92.068 Y119.879 E3.58429
G1 X89.371 Y117.182 E3.69078
G1 X89.371 Y80.121 E4.72561
G1 X110.554 Y80.121 E5.31708
G1 X111.164 Y80.914 F7800.000
G1 X111.164 Y117.404 E6.33596 F1800.000
G1 X108.154 Y120.414 E6.45484
G1 X91.846 Y120.414 E6.91020
G1 X88.836 Y117.404 E7.02908
G1 X88.836 Y80.914 E8.04796
G1 X80.836 Y80.914 E8.27134
G1 X80.836 Y79.586 E8.30844
G1 X119.164 Y79.586 E9.37868
G1 X119.164 Y80.914 E9.41578
G1 X111.239 Y80.914 E9.63707
G1 X111.700 Y81.450 F7800.000
G1 X111.700 Y117.626 E10.64719 F1800.000
G1 X108.376 Y120.950 E10.77846
G1 X91.624 Y120.950 E11.24620
G1 X88.300 Y117.626 E11.37747
G1 X88.300 Y81.450 E12.38759
G1 X80.300 Y81.450 E12.61097
G1 X80.300 Y79.050 E12.67798
G1 X119.700 Y79.050 E13.77813
G1 X119.700 Y81.450 E13.84515
G1 X111.775 Y81.450 E14.06643
G1 X111.200 Y81.450 F7800.000
G1 X110.897 Y80.250 F7800.000
G1 X118.897 Y80.250 E14.54005 F1800.000
G1 X110.307 Y80.710 F7800.000
G1 X110.040 Y80.443 E14.55073 F1800.000
G1 X109.273 Y80.443 E14.57242
G1 X110.307 Y81.477 E14.61378
G1 X110.307 Y82.244 E14.63547
G1 X108.506 Y80.443 E14.70751
G1 X107.739 Y80.443 E14.72920
G1 X110.307 Y83.011 E14.83191
G1 X110.307 Y83.778 E14.85360
G1 X106.972 Y80.443 E14.98699
G1 X106.204 Y80.443 E15.00868
G1 X110.307 Y84.546 E15.17274
G1 X110.307 Y85.313 E15.19443
G1 X105.437 Y80.443 E15.38917
G1 X104.670 Y80.443 E15.41086
G1 X110.307 Y86.080 E15.63627
G1 X110.307 Y86.847 E15.65796
G1 X103.903 Y80.443 E15.91404
G1 X103.136 Y80.443 E15.93573
G1 X110.307 Y87.614 E16.22249
G1 X110.307 Y88.381 E16.24418
G1 X102.369 Y80.443 E16.56162
G1 X101.602 Y80.443 E16.58331
G1 X110.307 Y89.148 E16.93142
G1 X110.307 Y89.915 E16.95311
G1 X100.835 Y80.443 E17.33189
G1 X100.068 Y80.443 E17.35358
G1 X110.307 Y90.682 E17.76304
G1 X110.307 Y91.449 E17.78473
G1 X99.301 Y80.443 E18.22487
G1 X98.534 Y80.443 E18.24656
G1 X110.307 Y92.216 E18.71737
G1 X110.307 Y92.983 E18.73906
G1 X97.767 Y80.443 E19.24054
G1 X97.000 Y80.443 E19.26223
G1 X110.307 Y93.750 E19.79439
G1 X110.307 Y94.518 E19.81608
G1 X96.232 Y80.443 E20.37891
G1 X95.465 Y80.443 E20.40060
G1 X110.307 Y95.285 E20.99411
G1 X110.307 Y96.052 E21.01580
G1 X94.698 Y80.443 E21.63998
G1 X93.931 Y80.443 E21.66168
G1 X110.307 Y96.819 E22.31653
G1 X110.307 Y97.586 E22.33822
G1 X93.164 Y80.443 E23.02376
G1 X92.397 Y80.443 E23.04545
G1 X110.307 Y98.353 E23.76165
G1 X110.307 Y99.120 E23.78334
G1 X91.630 Y80.443 E24.53023
G1 X90.863 Y80.443 E24.55192
G1 X110.307 Y99.887 E25.32947
G1 X110.307 Y100.654 E25.35116
G1 X90.096 Y80.443 E26.15940
G1 X89.693 Y80.807 E26.17475
G1 X110.307 Y101.421 E26.99910
G1 X110.307 Y102.188 E27.02079
G1 X89.693 Y81.574 E27.84513
G1 X89.693 Y82.341 E27.86682
G1 X110.307 Y102.955 E28.69116
G1 X110.307 Y103.723 E28.71285
G1 X89.693 Y83.108 E29.53720
G1 X89.693 Y83.875 E29.55889
G1 X110.307 Y104.490 E30.38323
G1 X110.307 Y105.257 E30.40492
G1 X89.693 Y84.642 E31.22926
G1 X89.693 Y85.410 E31.25095
G1 X110.307 Y106.024 E32.07530
G1 X110.307 Y106.791 E32.09699
G1 X89.693 Y86.177 E32.92133
G1 X89.693 Y86.944 E32.94302
G1 X104.436 Y101.687 E33.53258
G1 X103.126 Y101.144 F7800.000
G1 X89.693 Y87.711 E34.06977 F1800.000
G1 X89.693 Y88.478 E34.09146
G1 X102.006 Y100.791 E34.58384
G1 X101.122 Y100.674 E34.60903
G1 X89.693 Y89.245 E35.06608
G1 X89.693 Y90.012 E35.08777
G1 X100.239 Y100.558 E35.50949
G1 X99.530 Y100.616 E35.52961
G1 X89.693 Y90.779 E35.92298
G1 X89.693 Y91.546 E35.94467
G1 X98.848 Y100.701 E36.31076
G1 X98.166 Y100.786 E36.33019
G1 X89.693 Y92.313 E36.66901
G1 X89.693 Y93.080 E36.69070
G1 X97.572 Y100.960 E37.00579
G1 X97.021 Y101.175 E37.02254
G1 X89.693 Y93.847 E37.31556
G1 X89.693 Y94.615 E37.33725
G1 X96.469 Y101.390 E37.60821
G1 X95.917 Y101.606 E37.62496
G1 X89.693 Y95.382 E37.87386
G1 X89.693 Y96.149 E37.89555
G1 X95.469 Y101.925 E38.12653
G1 X95.022 Y102.244 E38.14208
G1 X89.693 Y96.916 E38.35517
G1 X89.693 Y97.683 E38.37686
G1 X94.574 Y102.564 E38.57206
G1 X94.129 Y102.886 E38.58759
G1 X89.693 Y98.450 E38.76500
G1 X89.693 Y99.217 E38.78669
G1 X93.778 Y103.302 E38.95003
G1 X93.426 Y103.717 E38.96542
G1 X89.693 Y99.984 E39.11470
G1 X89.693 Y100.751 E39.13639
G1 X93.074 Y104.132 E39.27160
G1 X92.724 Y104.550 E39.28700
G1 X89.693 Y101.518 E39.40822
G1 X89.693 Y102.285 E39.42991
G1 X92.472 Y105.065 E39.54106
G1 X92.221 Y105.580 E39.55728
G1 X89.693 Y103.052 E39.65836
G1 X89.693 Y103.819 E39.68005
G1 X91.969 Y106.095 E39.77106
G1 X91.742 Y106.636 E39.78764
G1 X89.693 Y104.587 E39.86960
G1 X89.693 Y105.354 E39.89129
G1 X91.609 Y107.270 E39.96793
G1 X91.477 Y107.904 E39.98625
G1 X89.693 Y106.121 E40.05758
G1 X89.693 Y106.888 E40.07927
G1 X91.344 Y108.538 E40.14528
G1 X91.351 Y109.313 E40.16719
G1 X89.693 Y107.655 E40.23351
G1 X89.693 Y108.422 E40.25520
G1 X91.384 Y110.114 E40.32284
G1 X91.453 Y110.950 E40.34656
G1 X89.693 Y109.189 E40.41696
G1 X89.693 Y109.956 E40.43865
G1 X91.779 Y112.042 E40.52206
G1 X92.271 Y113.302 F7800.000
G1 X89.693 Y110.723 E40.62517 F1800.000
G1 X89.693 Y111.490 E40.64686
G1 X97.760 Y119.557 E40.96945
G1 X98.527 Y119.557 E40.99114
G1 X95.948 Y116.979 E41.09425
G1 X97.208 Y117.471 F7800.000
G1 X99.294 Y119.557 E41.17766 F1800.000
G1 X100.061 Y119.557 E41.19935
G1 X98.300 Y117.797 E41.26975
G1 X99.136 Y117.866 E41.29347
G1 X100.828 Y119.557 E41.36111
G1 X101.595 Y119.557 E41.38280
G1 X99.937 Y117.899 E41.44912
G1 X100.711 Y117.906 E41.47103
G1 X102.362 Y119.557 E41.53704
G1 X103.129 Y119.557 E41.55873
G1 X101.346 Y117.773 E41.63006
G1 X101.980 Y117.641 E41.64838
G1 X103.896 Y119.557 E41.72502
G1 X104.663 Y119.557 E41.74671
G1 X102.614 Y117.508 E41.82867
G1 X103.155 Y117.281 E41.84525
G1 X105.431 Y119.557 E41.93626
G1 X106.198 Y119.557 E41.95795
G1 X103.670 Y117.029 E42.05903
G1 X104.185 Y116.778 E42.07525
G1 X106.965 Y119.557 E42.18640
G1 X107.732 Y119.557 E42.20809
G1 X104.700 Y116.526 E42.32931
G1 X105.118 Y116.176 E42.34471
G1 X108.168 Y119.226 E42.46669
G1 X108.551 Y118.843 E42.48203
G1 X105.533 Y115.824 E42.60273
G1 X105.948 Y115.472 E42.61812
G1 X108.935 Y118.459 E42.73756
G1 X109.319 Y118.076 E42.75290
G1 X106.364 Y115.121 E42.87106
G1 X106.686 Y114.676 E42.88660
G1 X109.702 Y117.692 E43.00721
G1 X110.086 Y117.309 E43.02255
G1 X107.005 Y114.228 E43.14572
G1 X107.325 Y113.781 E43.16127
G1 X110.307 Y116.763 E43.28052
G1 X110.307 Y115.996 E43.30221
G1 X107.644 Y113.333 E43.40869
G1 X107.860 Y112.781 E43.42544
G1 X110.307 Y115.229 E43.52331
G1 X110.307 Y114.462 E43.54500
G1 X108.075 Y112.229 E43.63427
G1 X108.290 Y111.678 E43.65102
G1 X110.307 Y113.695 E43.73167
G1 X110.307 Y112.928 E43.75336
G1 X108.464 Y111.084 E43.82706
G1 X108.549 Y110.402 E43.84650
G1 X110.307 Y112.160 E43.91680
G1 X110.307 Y111.393 E43.93849
G1 X108.634 Y109.720 E44.00540
G1 X108.692 Y109.011 E44.02552
G1 X110.307 Y110.626 E44.09011
G1 X110.307 Y109.859 E44.11180
G1 X108.576 Y108.128 E44.18104
G1 X108.459 Y107.244 E44.20623
G1 X110.307 Y109.092 E44.28012
G1 X110.307 Y108.325 E44.30181
G1 X108.106 Y106.124 E44.38984
G1 X107.563 Y104.814 F7800.000
G1 X110.307 Y107.558 E44.49957 F1800.000
G1 E42.49957 F2400.00000
G92 E0
G1 X96.993 Y119.557 F7800.000
G1 E2.00000 F2400.00000
G1 X89.693 Y112.257 E2.29191 F1800.000
G1 X89.693 Y113.024 E2.31360
G1 X96.226 Y119.557 E2.57483
G1 X95.458 Y119.557 E2.59652
G1 X89.693 Y113.792 E2.82708
G1 X89.693 Y114.559 E2.84877
G1 X94.691 Y119.557 E3.04866
G1 X93.924 Y119.557 E3.07035
G1 X89.693 Y115.326 E3.23956
G1 X89.693 Y116.093 E3.26125
G1 X93.157 Y119.557 E3.39979
G1 X92.390 Y119.557 E3.42148
G1 X89.693 Y116.860 E3.52934
G1 X89.103 Y80.250 F7800.000
G1 X81.103 Y80.250 E4.00295 F1800.000
G1 Z0.600 F7800.000
G1 E2.00295 F2400.00000
G92 E0
G1 X103.368 Y101.564 F7800.000
G1 E2.00000 F2400.00000
G1 X104.231 Y101.922 E2.03186 F1800.000
G1 X105.984 Y103.266 E2.10723
G1 X107.328 Y105.019 E2.18260
G1 X108.174 Y107.060 E2.25797
G1 X108.461 Y109.245 E2.33317
G1 X108.202 Y111.327 E2.40476
G1 X107.441 Y113.277 E2.47618
G1 X106.225 Y114.980 E2.54759
G1 X104.628 Y116.333 E2.61901
G1 X102.747 Y117.252 E2.69042
G1 X100.699 Y117.682 E2.76184
G1 X98.607 Y117.595 E2.83325
G1 X96.601 Y116.998 E2.90467
G1 X94.803 Y115.927 E2.97609
G1 X93.323 Y114.447 E3.04750
G1 X92.252 Y112.649 E3.11892
G1 X91.655 Y110.643 E3.19033
G1 X91.568 Y108.551 E3.26175
G1 X91.998 Y106.503 E3.33316
G1 X92.917 Y104.622 E3.40458
G1 X94.270 Y103.025 E3.47599
G1 X95.973 Y101.809 E3.54741
G1 X97.923 Y101.048 E3.61882
G1 X100.005 Y100.789 E3.69041 F1800.000
G1 X102.190 Y101.076 E3.76561
G1 X103.299 Y101.536 E3.80657
G1 X103.118 Y102.169 F7800.000
G1 X103.901 Y102.493 E3.83548 F1800.000
G1 X105.517 Y103.733 E3.90498
G1 X106.757 Y105.349 E3.97447
G1 X107.536 Y107.231 E4.04396
G1 X107.802 Y109.247 E4.11336
G1 X107.562 Y111.165 E4.17930
G1 X106.861 Y112.963 E4.24515
G1 X105.740 Y114.534 E4.31100
G1 X104.267 Y115.781 E4.37685
G1 X102.533 Y116.629 E4.44269
G1 X100.644 Y117.025 E4.50854
G1 X98.716 Y116.945 E4.57439
G1 X96.866 Y116.394 E4.64024
G1 X95.208 Y115.406 E4.70609
G1 X93.844 Y114.042 E4.77194
G1 X92.856 Y112.384 E4.83778
G1 X92.305 Y110.534 E4.90363
G1 X92.225 Y108.606 E4.96948
G1 X92.621 Y106.717 E5.03533
G1 X93.469 Y104.983 E5.10118
G1 X94.716 Y103.510 E5.16702
G1 X96.287 Y102.389 E5.23287
G1 X98.085 Y101.688 E5.29872
G1 X100.003 Y101.448 E5.36466 F1800.000
G1 X102.019 Y101.714 E5.43406
G1 X103.049 Y102.140 E5.47208
G1 X102.909 Y102.673 F7800.000
G1 X103.626 Y102.969 E5.48969 F900.000
G1 X105.128 Y104.122 E5.53269
G1 X106.281 Y105.624 E5.57568
G1 X107.005 Y107.373 E5.61867
G1 X107.252 Y109.249 E5.66165
G1 X107.030 Y111.030 E5.70241
G1 X106.378 Y112.702 E5.74315
G1 X105.335 Y114.162 E5.78389
G1 X103.966 Y115.321 E5.82463
G1 X102.355 Y116.109 E5.86537
G1 X100.599 Y116.477 E5.90611
G1 X98.806 Y116.403 E5.94686
G1 X97.087 Y115.891 E5.98760
G1 X95.546 Y114.973 E6.02834
G1 X94.277 Y113.704 E6.06908
G1 X93.359 Y112.163 E6.10982
G1 X92.847 Y110.444 E6.15056
G1 X92.773 Y108.651 E6.19130
G1 X93.141 Y106.895 E6.23204
G1 X93.929 Y105.284 E6.27279
G1 X95.088 Y103.915 E6.31353
G1 X96.548 Y102.872 E6.35427
G1 X98.220 Y102.220 E6.39501
G1 X100.001 Y101.998 E6.43577 F900.000
G1 X101.877 Y102.245 E6.47874
G1 X102.840 Y102.644 E6.50242
G1 X103.306 Y102.368 F7800.000
G1 X110.550 Y80.200 F7800.000
G1 X110.550 Y117.150 E7.76315 F1800.000
G1 X107.900 Y119.800 E7.89106
G1 X92.100 Y119.800 E8.43012
G1 X89.450 Y117.150 E8.55804
G1 X89.450 Y80.200 E9.81877
G1 X110.475 Y80.200 E10.53617
G1 X111.205 Y80.955 F7800.000
G1 X111.205 Y117.421 E11.78038 F1800.000
G1 X108.171 Y120.455 E11.92679
G1 X91.829 Y120.455 E12.48435
G1 X88.795 Y117.421 E12.63076
G1 X88.795 Y80.955 E13.87497
G1 X80.795 Y80.955 E14.14793
G1 X80.795 Y79.545 E14.19604
G1 X119.205 Y79.545 E15.50658
G1 X119.205 Y80.955 E15.55468
G1 X111.280 Y80.955 E15.82508
G1 X111.750 Y81.500 F7800.000
G1 X111.750 Y117.646 E16.64595 F900.000
G1 X108.396 Y121.000 E16.75365
G1 X91.604 Y121.000 E17.13501
G1 X88.250 Y117.646 E17.24271
G1 X88.250 Y81.500 E18.06358
G1 X80.250 Y81.500 E18.24525
G1 X80.250 Y79.000 E18.30202
G1 X119.750 Y79.000 E19.19905
G1 X119.750 Y81.500 E19.25582
G1 X111.825 Y81.500 E19.43579
G1 X111.250 Y81.500 F7800.000
G1 X110.878 Y80.250 F7800.000
G1 X118.878 Y80.250 E20.00856 F1200.000
G1 X90.165 Y80.597 F7800.000
G1 X89.847 Y80.915 E20.02406 F1200.000
G1 X89.847 Y81.851 E20.05634
G1 X91.101 Y80.597 E20.11750
G1 X92.036 Y80.597 E20.14978
G1 X89.847 Y82.786 E20.25660
G1 X89.847 Y83.722 E20.28888
G1 X92.972 Y80.597 E20.44135
G1 X93.908 Y80.597 E20.47364
G1 X89.847 Y84.658 E20.67177
G1 X89.847 Y85.594 E20.70406
G1 X94.844 Y80.597 E20.94784
G1 X95.780 Y80.597 E20.98013
G1 X89.847 Y86.530 E21.26958
G1 X89.847 Y87.466 E21.30186
G1 X96.716 Y80.597 E21.63697
G1 X97.652 Y80.597 E21.66925
G1 X89.847 Y88.402 E22.05002
G1 X89.847 Y89.337 E22.08230
G1 X98.587 Y80.597 E22.50873
G1 X99.523 Y80.597 E22.54101
G1 X89.847 Y90.273 E23.01309
G1 X89.847 Y91.209 E23.04538
G1 X100.459 Y80.597 E23.56312
G1 X101.395 Y80.597 E23.59540
G1 X89.847 Y92.145 E24.15880
G1 X89.847 Y93.081 E24.19109
G1 X102.331 Y80.597 E24.80014
G1 X103.267 Y80.597 E24.83243
G1 X89.847 Y94.017 E25.48714
G1 X89.847 Y94.953 E25.51943
