; generated by Slic3r 1.3.0 on 2020-08-13 at 13:33:30

; external perimeters extrusion width = 0.44mm (3.38mm^3/s)
; perimeters extrusion width = 0.48mm (7.54mm^3/s)
; infill extrusion width = 0.48mm (10.05mm^3/s)
; solid infill extrusion width = 0.48mm (2.51mm^3/s)
; top infill extrusion width = 0.48mm (1.88mm^3/s)

M107
M104 S200 ; set temperature
G28 ; home all axes
G1 Z5 F5000 ; lift nozzle

; Filament gcode

M109 S200 ; set temperature and wait for it to be reached
G21 ; set units to millimeters
G90 ; use absolute coordinates
M82 ; use absolute distances for extrusion
G92 E0
G1 E-1.00000 F1800.00000
G92 E0
G1 Z0.350 F7800.000
G1 X28.827 Y47.652 F7800.000
G1 E1.00000 F1800.00000
G1 F1800
G1 X30.000 Y47.375 E1.11503
G1 X170.000 Y47.375 E14.48168
G1 X171.381 Y47.767 E14.61871
G1 X172.348 Y48.827 E14.75574
G1 X172.625 Y50.000 E14.87078
G1 X172.625 Y150.000 E24.41838
G1 X172.233 Y151.381 E24.55541
G1 X171.173 Y152.348 E24.69244
G1 X170.000 Y152.625 E24.80748
G1 X30.000 Y152.625 E38.17412
G1 X28.619 Y152.233 E38.31116
G1 X27.652 Y151.173 E38.44819
G1 X27.375 Y150.000 E38.56322
G1 X27.375 Y50.000 E48.11083
G1 X27.767 Y48.619 E48.24786
G1 X28.783 Y47.692 E48.37916
G1 E47.37916 F1800.00000
G92 E0
G1 X162.621 Y142.766 F7800.000
G1 E1.00000 F1800.00000
G1 F1800
G1 X162.950 Y142.274 E1.05649
G1 X163.274 Y141.950 E1.10030
G1 X163.783 Y141.611 E1.15864
G1 X164.358 Y141.398 E1.21715
G1 X164.821 Y141.327 E1.26193
G1 X165.401 Y141.351 E1.31736
G1 X165.829 Y141.454 E1.35942
G1 X166.244 Y141.627 E1.40235
G1 X166.726 Y141.951 E1.45777
G1 X167.050 Y142.274 E1.50148
G1 X167.379 Y142.766 E1.55798
G1 X167.554 Y143.190 E1.60178
G1 X167.673 Y143.789 E1.66002
G1 X167.651 Y144.388 E1.71730
G1 X167.548 Y144.826 E1.76023
G1 X167.379 Y145.234 E1.80237
G1 X167.050 Y145.726 E1.85886
G1 X166.726 Y146.050 E1.90267
G1 X166.234 Y146.379 E1.95916
G1 X165.810 Y146.554 E2.00296
G1 X165.229 Y146.670 E2.05945
G1 X164.771 Y146.670 E2.10326
G1 X164.190 Y146.554 E2.15975
G1 X163.766 Y146.379 E2.20355
G1 X163.274 Y146.050 E2.26004
G1 X162.950 Y145.726 E2.30385
G1 X162.621 Y145.234 E2.36034
G1 X162.446 Y144.810 E2.40414
G1 X162.330 Y144.228 E2.46081
G1 X162.332 Y143.758 E2.50560
G1 X162.446 Y143.189 E2.56101
G1 X162.598 Y142.822 E2.59899
G1 X163.175 Y143.062 F7800.000
G1 F1800
G1 X163.435 Y142.673 E2.64373
G1 X163.673 Y142.435 E2.67578
G1 X164.068 Y142.171 E2.72119
G1 X164.515 Y142.006 E2.76665
G1 X164.856 Y141.954 E2.79962
G1 X165.314 Y141.973 E2.84340
G1 X165.634 Y142.049 E2.87483
G1 X165.947 Y142.180 E2.90714
G1 X166.327 Y142.436 E2.95092
G1 X166.565 Y142.673 E2.98294
G1 X166.825 Y143.062 E3.02768
G1 X166.953 Y143.373 E3.05973
G1 X167.046 Y143.839 E3.10510
G1 X167.029 Y144.304 E3.14955
G1 X166.951 Y144.633 E3.18185
G1 X166.825 Y144.938 E3.21331
G1 X166.565 Y145.327 E3.25805
G1 X166.327 Y145.565 E3.29010
G1 X165.938 Y145.825 E3.33484
G1 X165.627 Y145.953 E3.36689
G1 X165.168 Y146.045 E3.41163
G1 X164.832 Y146.045 E3.44368
G1 X164.373 Y145.953 E3.48842
G1 X164.062 Y145.825 E3.52047
G1 X163.673 Y145.565 E3.56521
G1 X163.435 Y145.327 E3.59726
G1 X163.175 Y144.938 E3.64200
G1 X163.047 Y144.627 E3.67405
G1 X162.955 Y144.167 E3.71885
G1 X162.956 Y143.822 E3.75183
G1 X163.047 Y143.372 E3.79560
G1 X163.152 Y143.118 E3.82190
G1 X163.175 Y143.062 F7800.000
G1 E2.82190 F1800.00000
G92 E0
G1 X48.295 Y143.709 F7800.000
G1 E1.00000 F1800.00000
G1 F1800
G1 X48.295 Y144.291 E1.05558
G1 X48.155 Y144.992 E1.12381
G1 X47.932 Y145.530 E1.17936
G1 X47.535 Y146.124 E1.24761
G1 X47.124 Y146.535 E1.30317
G1 X46.530 Y146.932 E1.37141
G1 X45.992 Y147.155 E1.42696
G1 X45.291 Y147.295 E1.49520
G1 X44.709 Y147.295 E1.55078
G1 X44.008 Y147.155 E1.61901
G1 X43.470 Y146.932 E1.67456
G1 X42.876 Y146.535 E1.74280
G1 X42.465 Y146.124 E1.79837
G1 X42.068 Y145.530 E1.86661
G1 X41.845 Y144.992 E1.92216
G1 X41.705 Y144.288 E1.99070
G1 X41.707 Y143.695 E2.04731
G1 X41.846 Y143.007 E2.11435
G1 X42.068 Y142.470 E2.16975
G1 X42.465 Y141.876 E2.23800
G1 X42.876 Y141.465 E2.29356
G1 X43.497 Y141.050 E2.36484
G1 X44.200 Y140.791 E2.43640
G1 X44.786 Y140.700 E2.49299
G1 X45.488 Y140.729 E2.56006
G1 X46.024 Y140.858 E2.61275
G1 X46.542 Y141.074 E2.66630
G1 X47.125 Y141.466 E2.73336
G1 X47.535 Y141.876 E2.78877
G1 X47.932 Y142.470 E2.85702
G1 X48.155 Y143.008 E2.91256
G1 X48.283 Y143.650 E2.97507
G1 X47.670 Y143.771 F7800.000
G1 F1800
G1 X47.670 Y144.229 E3.01889
G1 X47.554 Y144.810 E3.07537
G1 X47.379 Y145.234 E3.11918
G1 X47.050 Y145.726 E3.17567
G1 X46.726 Y146.050 E3.21947
G1 X46.234 Y146.379 E3.27597
G1 X45.810 Y146.554 E3.31977
G1 X45.229 Y146.670 E3.37625
G1 X44.771 Y146.670 E3.42007
G1 X44.190 Y146.554 E3.47655
G1 X43.766 Y146.379 E3.52035
G1 X43.274 Y146.050 E3.57684
G1 X42.950 Y145.726 E3.62065
G1 X42.621 Y145.234 E3.67714
G1 X42.446 Y144.810 E3.72094
G1 X42.330 Y144.228 E3.77761
G1 X42.332 Y143.758 E3.82241
G1 X42.446 Y143.189 E3.87782
G1 X42.621 Y142.766 E3.92153
G1 X42.950 Y142.274 E3.97802
G1 X43.274 Y141.950 E4.02183
G1 X43.783 Y141.611 E4.08017
G1 X44.358 Y141.398 E4.13868
G1 X44.821 Y141.327 E4.18346
G1 X45.401 Y141.351 E4.23888
G1 X45.829 Y141.454 E4.28094
G1 X46.244 Y141.627 E4.32388
G1 X46.726 Y141.951 E4.37929
G1 X47.050 Y142.274 E4.42301
G1 X47.379 Y142.766 E4.47950
G1 X47.554 Y143.190 E4.52330
G1 X47.658 Y143.712 E4.57406
G1 X47.045 Y143.832 F7800.000
G1 F1800
G1 X47.045 Y144.168 E4.60612
G1 X46.953 Y144.627 E4.65085
G1 X46.825 Y144.938 E4.68290
G1 X46.565 Y145.327 E4.72764
G1 X46.327 Y145.565 E4.75969
G1 X45.938 Y145.825 E4.80443
G1 X45.627 Y145.953 E4.83648
G1 X45.168 Y146.045 E4.88122
G1 X44.832 Y146.045 E4.91328
G1 X44.373 Y145.953 E4.95801
G1 X44.062 Y145.825 E4.99006
G1 X43.673 Y145.565 E5.03480
G1 X43.435 Y145.327 E5.06685
G1 X43.175 Y144.938 E5.11159
G1 X43.047 Y144.627 E5.14364
G1 X42.955 Y144.167 E5.18844
G1 X42.956 Y143.822 E5.22142
G1 X43.047 Y143.372 E5.26520
G1 X43.175 Y143.062 E5.29722
G1 X43.435 Y142.673 E5.34196
G1 X43.673 Y142.435 E5.37401
G1 X44.068 Y142.171 E5.41941
G1 X44.515 Y142.006 E5.46487
G1 X44.856 Y141.954 E5.49784
G1 X45.314 Y141.973 E5.54163
G1 X45.634 Y142.049 E5.57305
G1 X45.947 Y142.180 E5.60536
G1 X46.327 Y142.436 E5.64915
G1 X46.565 Y142.673 E5.68116
G1 X46.825 Y143.062 E5.72590
G1 X46.953 Y143.373 E5.75796
G1 X47.033 Y143.773 E5.79696
G1 X47.045 Y143.832 F7800.000
G1 E4.79696 F1800.00000
G92 E0
G1 X57.320 Y140.837 F7800.000
G1 E1.00000 F1800.00000
G1 F1800
G1 X57.204 Y140.252 E1.05702
G1 X57.204 Y139.748 E1.10509
G1 X57.327 Y139.131 E1.16513
G1 X57.590 Y138.560 E1.22521
G1 X57.867 Y138.178 E1.27025
G1 X58.201 Y137.845 E1.31528
G1 X58.724 Y137.495 E1.37535
G1 X59.315 Y137.277 E1.43548
G1 X59.815 Y137.199 E1.48377
G1 X60.408 Y137.223 E1.54050
G1 X60.897 Y137.340 E1.58851
G1 X61.440 Y137.590 E1.64557
G1 X61.822 Y137.868 E1.69072
G1 X62.157 Y138.204 E1.73598
G1 X62.487 Y138.698 E1.79270
G1 X62.680 Y139.162 E1.84073
G1 X62.796 Y139.748 E1.89775
G1 X62.796 Y140.252 E1.94582
G1 X62.674 Y140.868 E2.00582
G1 X62.412 Y141.437 E2.06560
G1 X62.133 Y141.821 E2.11089
G1 X61.799 Y142.155 E2.15601
G1 X61.303 Y142.487 E2.21302
G1 X60.837 Y142.680 E2.26109
G1 X60.252 Y142.796 E2.31812
G1 X59.748 Y142.796 E2.36619
G1 X59.131 Y142.673 E2.42623
G1 X58.560 Y142.410 E2.48631
G1 X58.178 Y142.133 E2.53135
G1 X57.845 Y141.799 E2.57638
G1 X57.513 Y141.303 E2.63338
G1 X57.343 Y140.893 E2.67573
G1 X57.921 Y140.655 F7800.000
G1 F1800
G1 X57.829 Y140.190 E2.72100
G1 X57.829 Y139.810 E2.75732
G1 X57.925 Y139.326 E2.80442
G1 X58.132 Y138.878 E2.85156
G1 X58.344 Y138.586 E2.88603
G1 X58.599 Y138.330 E2.92049
G1 X59.010 Y138.056 E2.96761
G1 X59.473 Y137.885 E3.01478
G1 X59.851 Y137.826 E3.05131
G1 X60.322 Y137.845 E3.09632
G1 X60.692 Y137.933 E3.13260
G1 X61.122 Y138.132 E3.17789
G1 X61.415 Y138.344 E3.21242
G1 X61.672 Y138.602 E3.24711
G1 X61.933 Y138.994 E3.29211
G1 X62.079 Y139.345 E3.32841
G1 X62.171 Y139.810 E3.37367
G1 X62.171 Y140.190 E3.40999
G1 X62.075 Y140.674 E3.45707
G1 X61.870 Y141.120 E3.50395
G1 X61.656 Y141.414 E3.53864
G1 X61.401 Y141.670 E3.57316
G1 X61.007 Y141.933 E3.61842
G1 X60.655 Y142.079 E3.65474
G1 X60.190 Y142.171 E3.70001
G1 X59.810 Y142.171 E3.73633
G1 X59.326 Y142.075 E3.78344
G1 X58.878 Y141.868 E3.83057
G1 X58.586 Y141.656 E3.86504
G1 X58.330 Y141.401 E3.89950
G1 X58.067 Y141.007 E3.94476
G1 X57.944 Y140.711 E3.97535
G1 X58.522 Y140.473 F7800.000
G1 F1800
G1 X58.454 Y140.129 E4.00887
G1 X58.454 Y139.871 E4.03343
G1 X58.523 Y139.520 E4.06760
G1 X58.673 Y139.195 E4.10179
G1 X58.821 Y138.993 E4.12569
G1 X58.998 Y138.816 E4.14959
G1 X59.295 Y138.617 E4.18377
G1 X59.631 Y138.493 E4.21797
G1 X59.887 Y138.453 E4.24272
G1 X60.236 Y138.466 E4.27602
G1 X60.486 Y138.526 E4.30057
G1 X60.805 Y138.673 E4.33410
G1 X61.008 Y138.821 E4.35802
G1 X61.186 Y138.999 E4.38212
G1 X61.379 Y139.289 E4.41541
G1 X61.478 Y139.527 E4.43997
G1 X61.546 Y139.871 E4.47348
G1 X61.546 Y140.129 E4.49805
G1 X61.477 Y140.480 E4.53221
G1 X61.328 Y140.803 E4.56618
G1 X61.180 Y141.007 E4.59028
G1 X61.002 Y141.184 E4.61421
G1 X60.711 Y141.379 E4.64771
G1 X60.473 Y141.478 E4.67228
G1 X60.129 Y141.546 E4.70579
G1 X59.871 Y141.546 E4.73036
G1 X59.520 Y141.476 E4.76453
G1 X59.195 Y141.327 E4.79872
G1 X58.993 Y141.179 E4.82262
G1 X58.816 Y141.002 E4.84652
G1 X58.621 Y140.711 E4.88002
G1 X58.545 Y140.528 E4.89886
G1 X58.522 Y140.473 F7800.000
G1 E3.89886 F1800.00000
G92 E0
G1 X43.893 Y112.665 F7800.000
G1 E1.00000 F1800.00000
G1 F1800
G1 X43.399 Y112.870 E1.05107
G1 X42.736 Y113.002 E1.11561
G1 X42.061 Y112.975 E1.18015
G1 X41.541 Y112.850 E1.23122
G1 X40.956 Y112.581 E1.29272
G1 X40.549 Y112.285 E1.34076
G1 X40.193 Y111.929 E1.38881
G1 X39.835 Y111.393 E1.45031
G1 X39.630 Y110.899 E1.50137
G1 X39.498 Y110.236 E1.56592
G1 X39.525 Y109.561 E1.63046
G1 X39.650 Y109.041 E1.68153
G1 X39.919 Y108.456 E1.74303
G1 X40.234 Y108.023 E1.79409
G1 X40.707 Y107.586 E1.85561
G1 X41.163 Y107.306 E1.90666
G1 X41.768 Y107.083 E1.96828
G1 X42.299 Y106.999 E2.01961
G1 X42.940 Y107.025 E2.08079
G1 X43.429 Y107.143 E2.12887
G1 X43.897 Y107.337 E2.17719
G1 X44.429 Y107.693 E2.23836
G1 X44.807 Y108.071 E2.28939
G1 X45.165 Y108.607 E2.35090
G1 X45.370 Y109.101 E2.40196
G1 X45.502 Y109.764 E2.46650
G1 X45.475 Y110.439 E2.53105
G1 X45.350 Y110.959 E2.58212
G1 X45.081 Y111.544 E2.64362
G1 X44.785 Y111.951 E2.69166
G1 X44.429 Y112.307 E2.73971
G1 X43.943 Y112.632 E2.79548
G1 X43.597 Y112.111 F7800.000
G1 F1800
G1 X43.217 Y112.269 E2.83479
G1 X42.687 Y112.374 E2.88640
G1 X42.147 Y112.353 E2.93800
G1 X41.746 Y112.257 E2.97731
G1 X41.273 Y112.039 E3.02707
G1 X40.956 Y111.808 E3.06453
G1 X40.678 Y111.531 E3.10201
G1 X40.389 Y111.097 E3.15176
G1 X40.231 Y110.717 E3.19107
G1 X40.126 Y110.187 E3.24268
G1 X40.147 Y109.647 E3.29428
G1 X40.243 Y109.246 E3.33360
G1 X40.461 Y108.773 E3.38335
G1 X40.703 Y108.440 E3.42265
G1 X41.086 Y108.086 E3.47242
G1 X41.437 Y107.871 E3.51172
G1 X41.926 Y107.691 E3.56155
G1 X42.336 Y107.626 E3.60111
G1 X42.853 Y107.647 E3.65057
G1 X43.235 Y107.739 E3.68807
G1 X43.600 Y107.890 E3.72579
G1 X44.031 Y108.178 E3.77525
G1 X44.322 Y108.469 E3.81454
G1 X44.611 Y108.903 E3.86430
G1 X44.769 Y109.283 E3.90361
G1 X44.874 Y109.813 E3.95522
G1 X44.853 Y110.353 E4.00682
G1 X44.757 Y110.754 E4.04614
G1 X44.539 Y111.227 E4.09589
G1 X44.308 Y111.544 E4.13335
G1 X44.031 Y111.822 E4.17083
G1 X43.647 Y112.078 E4.21485
G1 X43.301 Y111.558 F7800.000
G1 F1800
G1 X43.035 Y111.668 E4.24241
G1 X42.637 Y111.747 E4.28108
G1 X42.233 Y111.731 E4.31975
G1 X41.952 Y111.664 E4.34730
G1 X41.591 Y111.497 E4.38531
G1 X41.363 Y111.332 E4.41220
G1 X41.164 Y111.132 E4.43911
G1 X40.942 Y110.801 E4.47710
G1 X40.832 Y110.535 E4.50466
G1 X40.753 Y110.137 E4.54333
G1 X40.769 Y109.733 E4.58200
G1 X40.836 Y109.452 E4.60956
G1 X41.003 Y109.091 E4.64756
G1 X41.172 Y108.857 E4.67512
G1 X41.465 Y108.587 E4.71312
G1 X41.711 Y108.436 E4.74068
G1 X42.085 Y108.298 E4.77871
G1 X42.372 Y108.253 E4.80650
G1 X42.767 Y108.269 E4.84425
G1 X43.041 Y108.335 E4.87116
G1 X43.304 Y108.444 E4.89829
G1 X43.632 Y108.664 E4.93604
G1 X43.836 Y108.868 E4.96360
G1 X44.058 Y109.199 E5.00160
G1 X44.168 Y109.465 E5.02916
G1 X44.247 Y109.862 E5.06783
G1 X44.231 Y110.267 E5.10649
G1 X44.164 Y110.548 E5.13405
G1 X43.997 Y110.909 E5.17206
G1 X43.832 Y111.137 E5.19895
G1 X43.632 Y111.336 E5.22585
G1 X43.351 Y111.524 E5.25812
G1 X43.301 Y111.558 F7800.000
G1 E4.25812 F1800.00000
G92 E0
G1 X42.704 Y93.000 F7800.000
G1 E1.00000 F1800.00000
G1 F1800
G1 X42.061 Y92.975 E1.06150
G1 X41.572 Y92.858 E1.10953
G1 X41.107 Y92.665 E1.15758
G1 X40.571 Y92.307 E1.21908
G1 X40.193 Y91.929 E1.27015
G1 X39.835 Y91.393 E1.33166
G1 X39.630 Y90.899 E1.38271
G1 X39.498 Y90.236 E1.44726
G1 X39.525 Y89.561 E1.51181
G1 X39.650 Y89.041 E1.56288
G1 X39.919 Y88.456 E1.62438
G1 X40.216 Y88.048 E1.67251
G1 X40.574 Y87.690 E1.72083
G1 X41.134 Y87.317 E1.78505
G1 X41.768 Y87.083 E1.84964
G1 X42.299 Y86.999 E1.90096
G1 X42.940 Y87.025 E1.96216
G1 X43.459 Y87.150 E2.01318
G1 X44.044 Y87.419 E2.07468
G1 X44.451 Y87.715 E2.12272
G1 X44.807 Y88.071 E2.17077
G1 X45.166 Y88.607 E2.23237
G1 X45.371 Y89.104 E2.28370
G1 X45.502 Y89.764 E2.34792
G1 X45.475 Y90.439 E2.41242
G1 X45.350 Y90.959 E2.46349
G1 X45.081 Y91.544 E2.52499
G1 X44.766 Y91.977 E2.57605
G1 X44.293 Y92.414 E2.63757
G1 X43.837 Y92.694 E2.68862
G1 X43.233 Y92.917 E2.75014
G1 X42.764 Y92.991 E2.79548
G1 X42.667 Y92.374 F7800.000
G1 F1800
G1 X42.147 Y92.353 E2.84522
G1 X41.765 Y92.262 E2.88269
G1 X41.403 Y92.111 E2.92016
G1 X40.969 Y91.822 E2.96991
G1 X40.678 Y91.531 E3.00922
G1 X40.389 Y91.097 E3.05898
G1 X40.231 Y90.717 E3.09829
G1 X40.126 Y90.187 E3.14990
G1 X40.147 Y89.647 E3.20150
G1 X40.243 Y89.246 E3.24082
G1 X40.461 Y88.773 E3.29057
G1 X40.692 Y88.455 E3.32809
G1 X40.972 Y88.176 E3.36583
G1 X41.419 Y87.878 E3.41714
G1 X41.926 Y87.691 E3.46877
G1 X42.336 Y87.626 E3.50833
G1 X42.854 Y87.647 E3.55781
G1 X43.254 Y87.743 E3.59709
G1 X43.727 Y87.961 E3.64685
G1 X44.044 Y88.192 E3.68431
G1 X44.322 Y88.469 E3.72179
G1 X44.612 Y88.903 E3.77160
G1 X44.770 Y89.286 E3.81116
G1 X44.874 Y89.813 E3.86248
G1 X44.853 Y90.353 E3.91406
G1 X44.757 Y90.754 E3.95338
G1 X44.539 Y91.227 E4.00312
G1 X44.297 Y91.560 E4.04243
G1 X43.914 Y91.914 E4.09220
G1 X43.563 Y92.129 E4.13150
G1 X43.074 Y92.309 E4.18127
G1 X42.727 Y92.364 E4.21485
G1 X42.630 Y91.747 F7800.000
G1 F1800
G1 X42.233 Y91.731 E4.25285
G1 X41.959 Y91.665 E4.27974
G1 X41.699 Y91.558 E4.30664
G1 X41.368 Y91.336 E4.34464
G1 X41.164 Y91.132 E4.37220
G1 X40.942 Y90.801 E4.41020
G1 X40.832 Y90.535 E4.43776
G1 X40.753 Y90.137 E4.47643
G1 X40.769 Y89.733 E4.51510
G1 X40.836 Y89.452 E4.54265
G1 X41.003 Y89.091 E4.58066
G1 X41.169 Y88.863 E4.60757
G1 X41.370 Y88.662 E4.63471
G1 X41.705 Y88.439 E4.67313
G1 X42.085 Y88.298 E4.71181
G1 X42.372 Y88.253 E4.73960
G1 X42.767 Y88.269 E4.77736
G1 X43.048 Y88.336 E4.80490
G1 X43.409 Y88.503 E4.84291
G1 X43.637 Y88.668 E4.86980
G1 X43.836 Y88.868 E4.89671
G1 X44.058 Y89.199 E4.93472
G1 X44.169 Y89.468 E4.96252
G1 X44.247 Y89.863 E5.00094
G1 X44.231 Y90.267 E5.03960
G1 X44.164 Y90.548 E5.06716
G1 X43.997 Y90.909 E5.10516
G1 X43.827 Y91.143 E5.13271
G1 X43.535 Y91.413 E5.17072
G1 X43.289 Y91.564 E5.19828
G1 X42.916 Y91.702 E5.23629
G1 X42.690 Y91.737 E5.25812
G1 X42.630 Y91.747 F7800.000
G1 E4.25812 F1800.00000
G92 E0
G1 X57.513 Y83.303 F7800.000
G1 E1.00000 F1800.00000
G1 F1800
G1 X57.320 Y82.837 E1.04808
G1 X57.204 Y82.252 E1.10510
G1 X57.204 Y81.748 E1.15317
G1 X57.327 Y81.131 E1.21321
G1 X57.590 Y80.560 E1.27329
G1 X57.868 Y80.178 E1.31843
G1 X58.204 Y79.843 E1.36370
G1 X58.724 Y79.495 E1.42347
