; generated by Slic3r 1.3.0 on 2020-08-14 at 13:52:04

; external perimeters extrusion width = 0.44mm (3.38mm^3/s)
; perimeters extrusion width = 0.48mm (7.54mm^3/s)
; infill extrusion width = 0.48mm (10.05mm^3/s)
; solid infill extrusion width = 0.48mm (2.51mm^3/s)
; top infill extrusion width = 0.48mm (1.88mm^3/s)

M107
M104 S200 ; set temperature
G28 ; home all axes
G1 Z5 F5000 ; lift nozzle

; Filament gcode

M109 S200 ; set temperature and wait for it to be reached
G21 ; set units to millimeters
G90 ; use absolute coordinates
M82 ; use absolute distances for extrusion
G92 E0
G1 E-1.00000 F1800.00000
G92 E0
G1 Z0.350 F7800.000
G1 X72.767 Y48.119 F7800.000
G1 E1.00000 F1800.00000
G1 F1800
G1 X73.827 Y47.152 E1.13703
G1 X75.000 Y46.875 E1.25206
G1 X115.000 Y46.875 E5.07111
G1 X116.381 Y47.267 E5.20814
G1 X117.245 Y48.140 E5.32536
G1 X127.245 Y64.640 E7.16745
G1 X127.625 Y66.000 E7.30232
G1 X127.625 Y134.000 E13.79469
G1 X127.245 Y135.360 E13.92956
G1 X117.245 Y151.860 E15.77165
G1 X116.194 Y152.838 E15.90868
G1 X115.000 Y153.125 E16.02590
G1 X75.000 Y153.125 E19.84494
G1 X73.619 Y152.733 E19.98198
G1 X72.652 Y151.673 E20.11901
G1 X72.375 Y150.500 E20.23404
G1 X72.375 Y49.500 E29.87712
G1 X72.751 Y48.177 E30.00842
G1 E29.00842 F1800.00000
G92 E0
G1 X121.896 Y123.104 F7800.000
G1 E1.00000 F1800.00000
G1 F1800
G1 X122.275 Y123.584 E1.05834
G1 X122.483 Y123.992 E1.10213
G1 X122.643 Y124.562 E1.15864
G1 X122.678 Y125.000 E1.20060
G1 X122.643 Y125.438 E1.24255
G1 X122.483 Y126.008 E1.29906
G1 X122.275 Y126.416 E1.34285
G1 X121.896 Y126.896 E1.40119
G1 X121.416 Y127.275 E1.45954
G1 X121.008 Y127.483 E1.50333
G1 X120.438 Y127.643 E1.55983
G1 X120.000 Y127.678 E1.60179
G1 X119.562 Y127.643 E1.64374
G1 X118.992 Y127.483 E1.70025
G1 X118.584 Y127.275 E1.74404
G1 X118.104 Y126.896 E1.80238
G1 X117.725 Y126.416 E1.86073
G1 X117.517 Y126.008 E1.90452
G1 X117.357 Y125.438 E1.96103
G1 X117.322 Y125.000 E2.00298
G1 X117.357 Y124.562 E2.04493
G1 X117.517 Y123.992 E2.10144
G1 X117.725 Y123.584 E2.14523
G1 X118.104 Y123.104 E2.20357
G1 X118.584 Y122.725 E2.26192
G1 X118.975 Y122.526 E2.30387
G1 X119.392 Y122.390 E2.34576
G1 X119.971 Y122.321 E2.40135
G1 X120.436 Y122.356 E2.44596
G1 X121.008 Y122.517 E2.50263
G1 X121.416 Y122.725 E2.54642
G1 X121.849 Y123.067 E2.59903
G1 X121.451 Y123.549 F7800.000
G1 F1800
G1 X121.746 Y123.922 E2.64444
G1 X121.898 Y124.221 E2.67648
G1 X122.025 Y124.672 E2.72123
G1 X122.051 Y125.000 E2.75262
G1 X122.025 Y125.328 E2.78400
G1 X121.898 Y125.779 E2.82875
G1 X121.746 Y126.078 E2.86079
G1 X121.451 Y126.451 E2.90620
G1 X121.078 Y126.746 E2.95160
G1 X120.779 Y126.898 E2.98365
G1 X120.328 Y127.025 E3.02839
G1 X120.000 Y127.051 E3.05978
G1 X119.672 Y127.025 E3.09116
G1 X119.221 Y126.898 E3.13591
G1 X118.922 Y126.746 E3.16795
G1 X118.549 Y126.451 E3.21336
G1 X118.254 Y126.078 E3.25877
G1 X118.102 Y125.779 E3.29081
G1 X117.975 Y125.328 E3.33556
G1 X117.949 Y125.000 E3.36694
G1 X117.975 Y124.672 E3.39833
G1 X118.102 Y124.221 E3.44308
G1 X118.254 Y123.922 E3.47512
G1 X118.549 Y123.549 E3.52052
G1 X118.922 Y123.254 E3.56593
G1 X119.215 Y123.105 E3.59731
G1 X119.527 Y123.004 E3.62868
G1 X119.984 Y122.949 E3.67262
G1 X120.327 Y122.975 E3.70543
G1 X120.779 Y123.102 E3.75024
G1 X121.078 Y123.254 E3.78228
G1 X121.404 Y123.512 E3.82196
G1 X121.451 Y123.549 F7800.000
G1 E2.82196 F1800.00000
G92 E0
G1 X120.000 Y77.678 F7800.000
G1 E1.00000 F1800.00000
G1 F1800
G1 X119.562 Y77.643 E1.04195
G1 X118.992 Y77.483 E1.09846
G1 X118.584 Y77.275 E1.14225
G1 X118.104 Y76.896 E1.20060
G1 X117.725 Y76.416 E1.25894
G1 X117.517 Y76.008 E1.30273
G1 X117.357 Y75.438 E1.35924
G1 X117.322 Y75.000 E1.40119
G1 X117.357 Y74.562 E1.44314
G1 X117.517 Y73.992 E1.49965
G1 X117.725 Y73.584 E1.54344
G1 X118.104 Y73.104 E1.60179
G1 X118.584 Y72.725 E1.66013
G1 X118.975 Y72.526 E1.70208
G1 X119.392 Y72.390 E1.74398
G1 X119.971 Y72.321 E1.79956
G1 X120.436 Y72.356 E1.84418
G1 X121.008 Y72.517 E1.90084
G1 X121.416 Y72.725 E1.94463
G1 X121.896 Y73.104 E2.00298
G1 X122.275 Y73.584 E2.06132
G1 X122.483 Y73.992 E2.10511
G1 X122.643 Y74.562 E2.16162
G1 X122.678 Y75.000 E2.20357
G1 X122.643 Y75.438 E2.24552
G1 X122.483 Y76.008 E2.30203
G1 X122.275 Y76.416 E2.34582
G1 X121.896 Y76.896 E2.40417
G1 X121.416 Y77.275 E2.46251
G1 X121.008 Y77.483 E2.50630
G1 X120.438 Y77.643 E2.56281
G1 X120.060 Y77.673 E2.59903
G1 X120.000 Y77.051 F7800.000
G1 F1800
G1 X119.672 Y77.025 E2.63042
G1 X119.221 Y76.898 E2.67517
G1 X118.922 Y76.746 E2.70721
G1 X118.549 Y76.451 E2.75262
G1 X118.254 Y76.078 E2.79802
G1 X118.102 Y75.779 E2.83006
G1 X117.975 Y75.328 E2.87481
G1 X117.949 Y75.000 E2.90620
G1 X117.975 Y74.672 E2.93758
G1 X118.102 Y74.221 E2.98233
G1 X118.254 Y73.922 E3.01437
G1 X118.549 Y73.549 E3.05978
G1 X118.922 Y73.254 E3.10518
G1 X119.215 Y73.105 E3.13657
G1 X119.527 Y73.004 E3.16793
G1 X119.984 Y72.949 E3.21187
G1 X120.327 Y72.975 E3.24469
G1 X120.779 Y73.102 E3.28949
G1 X121.078 Y73.254 E3.32153
G1 X121.451 Y73.549 E3.36694
G1 X121.746 Y73.922 E3.41234
G1 X121.898 Y74.221 E3.44439
G1 X122.025 Y74.672 E3.48913
G1 X122.051 Y75.000 E3.52052
G1 X122.025 Y75.328 E3.55190
G1 X121.898 Y75.779 E3.59665
G1 X121.746 Y76.078 E3.62870
G1 X121.451 Y76.451 E3.67410
G1 X121.078 Y76.746 E3.71951
G1 X120.779 Y76.898 E3.75155
G1 X120.328 Y77.025 E3.79630
G1 X120.060 Y77.046 E3.82195
G1 X120.000 Y77.051 F7800.000
G1 E2.82195 F1800.00000
G92 E0
G1 X113.400 Y82.400 F7800.000
G1 E1.00000 F1800.00000
G1 F1800
G1 X113.400 Y117.600 E4.36071
G1 X123.400 Y117.600 E5.31548
G1 X123.400 Y123.783 E5.90585
G1 X123.113 Y123.852 E5.93407
G1 X122.803 Y123.245 E5.99914
G1 X122.341 Y122.659 E6.07042
G1 X121.755 Y122.197 E6.14170
G1 X121.237 Y121.932 E6.19724
G1 X120.546 Y121.738 E6.26576
G1 X119.957 Y121.693 E6.32218
G1 X119.257 Y121.777 E6.38941
G1 X118.735 Y121.947 E6.44183
G1 X118.245 Y122.197 E6.49435
G1 X117.659 Y122.659 E6.56564
G1 X117.197 Y123.245 E6.63692
G1 X116.932 Y123.763 E6.69246
G1 X116.738 Y124.452 E6.76073
G1 X116.695 Y125.000 E6.81325
G1 X116.738 Y125.548 E6.86577
G1 X116.932 Y126.237 E6.93404
G1 X117.197 Y126.755 E6.98958
G1 X117.659 Y127.341 E7.06086
G1 X118.245 Y127.803 E7.13214
G1 X118.763 Y128.068 E7.18768
G1 X119.452 Y128.262 E7.25594
G1 X120.000 Y128.305 E7.30847
G1 X120.548 Y128.262 E7.36099
G1 X121.237 Y128.068 E7.42926
G1 X121.755 Y127.803 E7.48479
G1 X122.341 Y127.341 E7.55608
G1 X122.803 Y126.755 E7.62736
G1 X123.113 Y126.148 E7.69243
G1 X123.400 Y126.217 E7.72064
G1 X123.400 Y132.400 E8.31102
G1 X113.400 Y132.400 E9.26578
G1 X113.400 Y148.900 E10.84114
G1 X76.600 Y148.900 E14.35470
G1 X76.600 Y51.100 E23.69230
G1 X113.400 Y51.100 E27.20586
G1 X113.400 Y67.600 E28.78122
G1 X123.400 Y67.600 E29.73598
G1 X123.400 Y73.783 E30.32636
G1 X123.113 Y73.852 E30.35458
G1 X122.803 Y73.245 E30.41965
G1 X122.341 Y72.659 E30.49092
G1 X121.755 Y72.197 E30.56221
G1 X121.237 Y71.932 E30.61774
G1 X120.546 Y71.738 E30.68627
G1 X119.957 Y71.693 E30.74268
G1 X119.257 Y71.777 E30.80992
G1 X118.735 Y71.947 E30.86233
G1 X118.245 Y72.197 E30.91486
G1 X117.659 Y72.659 E30.98614
G1 X117.197 Y73.245 E31.05742
G1 X116.932 Y73.763 E31.11296
G1 X116.738 Y74.452 E31.18123
G1 X116.695 Y75.000 E31.23375
G1 X116.738 Y75.548 E31.28627
G1 X116.932 Y76.237 E31.35454
G1 X117.197 Y76.755 E31.41008
G1 X117.659 Y77.341 E31.48136
G1 X118.245 Y77.803 E31.55264
G1 X118.763 Y78.068 E31.60818
G1 X119.452 Y78.262 E31.67645
G1 X120.000 Y78.305 E31.72897
G1 X120.548 Y78.262 E31.78149
G1 X121.237 Y78.068 E31.84976
G1 X121.755 Y77.803 E31.90530
G1 X122.341 Y77.341 E31.97658
G1 X122.803 Y76.755 E32.04786
G1 X123.113 Y76.148 E32.11293
G1 X123.400 Y76.217 E32.14115
G1 X123.400 Y82.400 E32.73153
G1 X113.460 Y82.400 E33.68056
G1 X114.025 Y83.025 F7800.000
G1 F1800
G1 X114.025 Y116.975 E36.92195
G1 X124.025 Y116.975 E37.87671
G1 X124.025 Y133.025 E39.40912
G1 X114.025 Y133.025 E40.36388
G1 X114.025 Y149.525 E41.93924
G1 X75.975 Y149.525 E45.57212
G1 X75.975 Y50.475 E55.02905
G1 X114.025 Y50.475 E58.66193
G1 X114.025 Y66.975 E60.23729
G1 X124.025 Y66.975 E61.19205
G1 X124.025 Y83.025 E62.72446
G1 X114.085 Y83.025 E63.67349
G1 X114.650 Y83.650 F7800.000
G1 F1800
G1 X114.650 Y116.350 E66.79556
G1 X124.650 Y116.350 E67.75032
G1 X124.650 Y133.650 E69.40206
G1 X114.650 Y133.650 E70.35682
G1 X114.650 Y150.150 E71.93217
G1 X75.350 Y150.150 E75.68438
G1 X75.350 Y49.850 E85.26063
G1 X114.650 Y49.850 E89.01284
G1 X114.650 Y66.350 E90.58820
G1 X124.650 Y66.350 E91.54296
G1 X124.650 Y83.650 E93.19469
G1 X114.710 Y83.650 E94.14372
G1 X114.274 Y83.787 F7800.000
G1 E93.14372 F1800.00000
G92 E0
G1 X122.786 Y77.341 F7800.000
G1 E1.00000 F1800.00000
G1 F1800
G1 X123.088 Y77.040 E1.00484
G1 X122.902 Y75.776 F7800.000
G1 F1800
G1 X123.032 Y75.690 E1.01715
G1 F1800
G1 X123.291 Y75.520 E1.04580
G1 F1800
G1 X123.333 Y75.489 E1.05125
G1 X123.351 Y75.028 E1.09942
G1 X123.333 Y74.511 E1.15350
G1 X123.312 Y74.495 E1.15622
G1 F1800
G1 X123.161 Y74.395 E1.17296
G1 F1800
G1 X122.902 Y74.224 E1.19756
G1 X123.088 Y72.960 F7800.000
G1 F1800
G1 X122.786 Y72.659 E1.20241
G1 E0.20241 F1800.00000
G92 E0
G1 X122.786 Y122.659 F7800.000
G1 E1.00000 F1800.00000
G1 F1800
G1 X123.088 Y122.960 E1.00485
G1 X122.902 Y124.224 F7800.000
G1 F1800
G1 X123.032 Y124.310 E1.01715
G1 F1800
G1 X123.291 Y124.480 E1.04581
G1 F1800
G1 X123.333 Y124.511 E1.05126
G1 X123.351 Y124.972 E1.09943
G1 X123.333 Y125.489 E1.15350
G1 X123.312 Y125.505 E1.15623
G1 F1800
G1 X123.161 Y125.605 E1.17296
G1 F1800
G1 X122.902 Y125.776 E1.19757
G1 X123.088 Y127.040 F7800.000
G1 F1800
G1 X122.786 Y127.341 E1.20242
G1 E0.20242 F1800.00000
G92 E0
G1 X122.116 Y131.842 F7800.000
G1 E1.00000 F1800.00000
G1 F1800
G1 X122.842 Y131.116 E1.09826
G1 X122.842 Y130.230 E1.18318
G1 X121.230 Y131.842 E1.40154
G1 X120.343 Y131.842 E1.48646
G1 X122.842 Y129.343 E1.82491
G1 X122.842 Y128.457 E1.90983
G1 X119.457 Y131.842 E2.36838
G1 X118.570 Y131.842 E2.45330
G1 X122.131 Y128.280 E2.93570
G1 X121.532 Y128.586 E3.00014
G1 X120.710 Y128.815 E3.08181
G1 X117.683 Y131.842 E3.49185
G1 X116.797 Y131.842 E3.57677
G1 X119.795 Y128.844 E3.98285
G1 X119.408 Y128.813 E4.02003
G1 X119.042 Y128.710 E4.05645
G1 X115.910 Y131.842 E4.48063
G1 X115.024 Y131.842 E4.56555
G1 X118.388 Y128.477 E5.02127
G1 X117.973 Y128.266 E5.06588
G1 X117.827 Y128.151 E5.08363
G1 X114.137 Y131.842 E5.58353
G1 X113.250 Y131.842 E5.66845
G1 X117.332 Y127.760 E6.22129
G1 X117.280 Y127.720 E6.22757
G1 X116.930 Y127.276 E6.28176
G1 X95.864 Y148.342 E9.13537
G1 X94.977 Y148.342 E9.22029
G1 X116.585 Y126.734 E12.14725
G1 X116.414 Y126.399 E12.18326
G1 X116.330 Y126.102 E12.21283
G1 X94.091 Y148.342 E15.22541
G1 X93.204 Y148.342 E15.31033
G1 X116.170 Y125.376 E18.42124
G1 X116.135 Y124.934 E18.46375
G1 X116.170 Y124.489 E18.50643
G1 X92.317 Y148.342 E21.73746
G1 X91.431 Y148.342 E21.82238
G1 X116.528 Y123.244 E25.22206
G1 X116.396 Y123.377 F7800.000
G1 F1800
G1 X116.602 Y122.973 E25.26550
G1 X117.148 Y122.280 E25.34998
G1 X117.840 Y121.734 E25.43448
G1 X118.244 Y121.528 E25.47791
G1 X121.614 Y118.158 E25.93439
G1 X122.501 Y118.158 E26.01931
G1 X119.480 Y121.180 E26.42856
G1 X119.876 Y121.132 E26.46684
G1 X120.376 Y121.170 E26.51485
G1 X122.842 Y118.704 E26.84882
G1 X122.842 Y119.591 E26.93374
G1 X121.102 Y121.330 E27.16938
G1 X121.399 Y121.414 E27.19896
G1 X121.734 Y121.585 E27.23496
G1 X122.842 Y120.477 E27.38499
G1 X122.842 Y121.364 E27.46991
G1 X122.276 Y121.930 E27.54659
G1 E26.54659 F1800.00000
G92 E0
G1 X112.842 Y132.250 F7800.000
G1 E1.00000 F1800.00000
G1 F1800
G1 X96.750 Y148.342 E3.17972
G1 X97.637 Y148.342 E3.26464
G1 X112.842 Y133.137 E5.32426
G1 X112.842 Y134.024 E5.40918
G1 X98.524 Y148.342 E7.34871
G1 X99.410 Y148.342 E7.43363
G1 X112.842 Y134.910 E9.25306
G1 X112.842 Y135.797 E9.33798
G1 X100.297 Y148.342 E11.03731
G1 X101.183 Y148.342 E11.12223
G1 X112.842 Y136.683 E12.70147
G1 X112.842 Y137.570 E12.78639
G1 X102.070 Y148.342 E14.24553
G1 X102.957 Y148.342 E14.33045
G1 X112.842 Y138.457 E15.66949
G1 X112.842 Y139.343 E15.75441
G1 X103.843 Y148.342 E16.97336
G1 X104.730 Y148.342 E17.05828
G1 X112.842 Y140.230 E18.15712
G1 X112.842 Y141.116 E18.24205
G1 X105.616 Y148.342 E19.22080
G1 X106.503 Y148.342 E19.30572
G1 X112.842 Y142.003 E20.16437
G1 X112.842 Y142.889 E20.24929
G1 X107.389 Y148.342 E20.98785
G1 X108.276 Y148.342 E21.07277
G1 X112.842 Y143.776 E21.69123
G1 X112.842 Y144.663 E21.77615
G1 X109.163 Y148.342 E22.27451
G1 X110.049 Y148.342 E22.35944
G1 X112.842 Y145.549 E22.73770
G1 X112.842 Y146.436 E22.82262
G1 X110.936 Y148.342 E23.08079
G1 X111.822 Y148.342 E23.16571
G1 X112.842 Y147.322 E23.30378
G1 X112.842 Y148.209 E23.38871
G1 X112.709 Y148.342 E23.40668
G1 E22.40668 F1800.00000
G92 E0
G1 X90.544 Y148.342 F7800.000
G1 E1.00000 F1800.00000
G1 F1800
G1 X120.728 Y118.158 E5.08863
G1 X119.841 Y118.158 E5.17355
G1 X89.658 Y148.342 E9.26218
G1 X88.771 Y148.342 E9.34710
G1 X118.954 Y118.158 E13.43573
G1 X118.068 Y118.158 E13.52065
G1 X87.885 Y148.342 E17.60929
G1 X86.998 Y148.342 E17.69421
G1 X117.181 Y118.158 E21.78284
G1 X116.295 Y118.158 E21.86776
G1 X86.111 Y148.342 E25.95639
G1 X85.225 Y148.342 E26.04131
G1 X115.408 Y118.158 E30.12994
G1 X114.522 Y118.158 E30.21486
G1 X84.338 Y148.342 E34.30349
G1 X83.452 Y148.342 E34.38841
G1 X113.635 Y118.158 E38.47704
G1 X112.842 Y118.158 E38.55303
G1 X112.842 Y118.065 E38.56196
G1 X82.565 Y148.342 E42.66323
G1 X81.678 Y148.342 E42.74816
G1 X112.842 Y117.178 E46.96952
G1 X112.842 Y116.292 E47.05444
G1 X80.792 Y148.342 E51.39591
G1 X79.905 Y148.342 E51.48083
G1 X112.842 Y115.405 E55.94239
G1 X112.842 Y114.519 E56.02731
G1 X79.019 Y148.342 E60.60897
G1 X78.132 Y148.342 E60.69389
G1 X112.842 Y113.632 E65.39564
G1 X112.842 Y112.746 E65.48056
G1 X77.246 Y148.342 E70.30241
G1 X77.158 Y148.342 E70.31076
G1 X77.158 Y147.542 E70.38733
G1 X112.842 Y111.859 E75.22099
G1 X112.842 Y110.972 E75.30592
G1 X77.158 Y146.656 E80.13958
G1 X77.158 Y145.769 E80.22450
G1 X112.842 Y110.086 E85.05816
G1 X112.842 Y109.199 E85.14308
G1 X77.158 Y144.882 E89.97674
G1 X77.158 Y143.996 E90.06166
G1 X112.842 Y108.313 E94.89532
G1 X112.842 Y107.426 E94.98024
G1 X77.158 Y143.109 E99.81390
G1 X77.158 Y142.223 E99.89882
G1 X112.842 Y106.539 E104.73248
G1 X112.842 Y105.653 E104.81740
G1 X77.158 Y141.336 E109.65106
G1 X77.158 Y140.450 E109.73598
G1 X112.842 Y104.766 E114.56964
G1 X112.842 Y103.880 E114.65456
G1 X77.158 Y139.563 E119.48822
G1 X77.158 Y138.676 E119.57315
G1 X112.842 Y102.993 E124.40680
G1 X112.842 Y102.107 E124.49173
G1 X77.158 Y137.790 E129.32539
G1 X77.158 Y136.903 E129.41031
G1 X112.842 Y101.220 E134.24397
G1 X112.842 Y100.333 E134.32889
G1 X77.158 Y136.017 E139.16255
G1 X77.158 Y135.130 E139.24747
G1 X112.842 Y99.447 E144.08113
G1 X112.842 Y98.560 E144.16605
G1 X77.158 Y134.243 E148.99971
G1 X77.158 Y133.357 E149.08463
G1 X112.842 Y97.674 E153.91829
G1 X112.842 Y96.787 E154.00321
G1 X77.158 Y132.470 E158.83687
G1 X77.158 Y131.584 E158.92179
G1 X112.842 Y95.900 E163.75545
G1 X112.842 Y95.014 E163.84037
G1 X77.158 Y130.697 E168.67403
G1 X77.158 Y129.811 E168.75895
G1 X112.842 Y94.127 E173.59261
G1 X112.842 Y93.241 E173.67754
G1 X77.158 Y128.924 E178.51120
G1 X77.158 Y128.037 E178.59612
G1 X112.842 Y92.354 E183.42978
G1 X112.842 Y91.468 E183.51470
G1 X77.158 Y127.151 E188.34836
G1 X77.158 Y126.264 E188.43328
G1 X112.842 Y90.581 E193.26694
G1 X112.842 Y89.694 E193.35186
G1 X77.158 Y125.378 E198.18552
G1 X77.158 Y124.491 E198.27044
G1 X112.842 Y88.808 E203.10410
G1 X112.842 Y87.921 E203.18902
G1 X77.158 Y123.604 E208.02268
G1 X77.158 Y122.718 E208.10760
