; generated by Slic3r 1.3.0 on 2020-08-18 at 10:06:21

; external perimeters extrusion width = 0.44mm (3.38mm^3/s)
; perimeters extrusion width = 0.48mm (7.54mm^3/s)
; infill extrusion width = 0.48mm (10.05mm^3/s)
; solid infill extrusion width = 0.48mm (2.51mm^3/s)
; top infill extrusion width = 0.48mm (1.88mm^3/s)

M107
M104 S200 ; set temperature
G28 ; home all axes
G1 Z5 F5000 ; lift nozzle

; Filament gcode

M109 S200 ; set temperature and wait for it to be reached
G21 ; set units to millimeters
G90 ; use absolute coordinates
M82 ; use absolute distances for extrusion
G92 E0
G1 E-1.00000 F1800.00000
G92 E0
G1 Z0.350 F7800.000
G1 X82.121 Y84.267 F7800.000
G1 E1.00000 F1800.00000
G1 F1800
G1 X83.500 Y83.875 E1.13691
G1 X116.500 Y83.875 E4.28762
G1 X117.881 Y84.267 E4.42465
G1 X118.848 Y85.326 E4.56155
G1 X127.348 Y102.326 E6.37623
G1 X127.625 Y103.500 E6.49139
G1 X127.625 Y113.500 E7.44615
G1 X127.233 Y114.881 E7.58318
G1 X126.173 Y115.848 E7.72021
G1 X125.000 Y116.125 E7.83524
G1 X75.000 Y116.125 E12.60904
G1 X73.619 Y115.733 E12.74608
G1 X72.652 Y114.673 E12.88311
G1 X72.375 Y113.500 E12.99814
G1 X72.375 Y103.500 E13.95290
G1 X72.652 Y102.326 E14.06806
G1 X81.152 Y85.326 E15.88273
G1 X82.080 Y84.311 E16.01403
G1 E15.01403 F1800.00000
G92 E0
G1 X114.900 Y105.100 F7800.000
G1 E1.00000 F1800.00000
G1 F1800
G1 X123.400 Y105.100 E1.81155
G1 X123.400 Y111.900 E2.46083
G1 X113.600 Y111.900 E3.39653
G1 X113.600 Y88.100 E5.66891
G1 X114.900 Y88.100 E5.79307
G1 X114.900 Y105.040 E7.41043
G1 E6.41043 F1800.00000
G92 E0
G1 X85.100 Y105.100 F7800.000
G1 E1.00000 F1800.00000
G1 F1800
G1 X85.100 Y88.100 E2.62309
G1 X86.400 Y88.100 E2.74725
G1 X86.400 Y111.900 E5.01963
G1 X76.600 Y111.900 E5.95534
G1 X76.600 Y105.100 E6.60461
G1 X85.040 Y105.100 E7.41043
G1 X84.475 Y104.475 F7800.000
G1 F1800
G1 X84.475 Y87.475 E9.03353
G1 X115.525 Y87.475 E11.99808
G1 X115.525 Y104.475 E13.62117
G1 X124.025 Y104.475 E14.43272
G1 X124.025 Y112.525 E15.20132
G1 X112.975 Y112.525 E16.25635
G1 X112.975 Y88.525 E18.54778
G1 X87.025 Y88.525 E21.02536
G1 X87.025 Y112.525 E23.31679
G1 X75.975 Y112.525 E24.37182
G1 X75.975 Y104.475 E25.14042
G1 X84.415 Y104.475 E25.94624
G1 X83.850 Y103.850 F7800.000
G1 F1800
G1 X83.850 Y86.850 E27.56933
G1 X116.150 Y86.850 E30.65321
G1 X116.150 Y103.850 E32.27630
G1 X124.650 Y103.850 E33.08785
G1 X124.650 Y113.150 E33.97578
G1 X112.350 Y113.150 E35.15013
G1 X112.350 Y89.150 E37.44156
G1 X87.650 Y89.150 E39.79982
G1 X87.650 Y113.150 E42.09124
G1 X75.350 Y113.150 E43.26560
G1 X75.350 Y103.850 E44.15352
G1 X83.790 Y103.850 E44.95934
G1 X84.235 Y103.741 F7800.000
G1 E43.95934 F1800.00000
G92 E0
G1 X85.750 Y105.412 F7800.000
G1 E1.00000 F1800.00000
G1 F1800
G1 X85.750 Y88.412 E2.55961
G1 X86.713 Y88.000 F7800.000
G1 F1800
G1 X113.287 Y88.000 E3.98163
G1 X114.250 Y88.412 F7800.000
G1 F1800
G1 X114.250 Y105.412 E5.54123
G1 X114.159 Y106.103 F7800.000
G1 F1800
G1 X114.291 Y105.971 E5.55985
G1 X115.210 Y105.971 E5.65115
G1 X114.158 Y107.023 E5.79889
G1 X114.158 Y107.942 E5.89019
G1 X116.442 Y105.658 E6.21093
G1 X117.361 Y105.658 E6.30222
G1 X114.158 Y108.861 E6.75207
G1 X114.158 Y109.780 E6.84336
G1 X118.280 Y105.658 E7.42231
G1 X119.200 Y105.658 E7.51361
G1 X114.158 Y110.700 E8.22167
G1 X114.158 Y111.342 E8.28542
G1 X114.436 Y111.342 E8.31297
G1 X120.119 Y105.658 E9.11118
G1 X121.038 Y105.658 E9.20248
G1 X115.355 Y111.342 E10.00069
G1 X116.274 Y111.342 E10.09199
G1 X121.957 Y105.658 E10.89021
G1 X122.842 Y105.658 E10.97801
G1 X122.842 Y105.693 E10.98150
G1 X117.193 Y111.342 E11.77479
G1 X118.113 Y111.342 E11.86608
G1 X122.842 Y106.613 E12.53026
G1 X122.842 Y107.532 E12.62155
G1 X119.032 Y111.342 E13.15663
G1 X119.951 Y111.342 E13.24792
G1 X122.842 Y108.451 E13.65388
G1 X122.842 Y109.370 E13.74518
G1 X120.870 Y111.342 E14.02203
G1 X121.790 Y111.342 E14.11332
G1 X122.842 Y110.290 E14.26107
G1 X122.842 Y111.209 E14.35236
G1 X122.709 Y111.342 E14.37100
G1 E13.37100 F1800.00000
G92 E0
G1 X115.523 Y105.658 F7800.000
G1 E1.00000 F1800.00000
G1 F1800
G1 X115.146 Y106.035 E1.05286
G1 E0.05286 F1800.00000
G92 E0
G1 X85.709 Y111.342 F7800.000
G1 E1.00000 F1800.00000
G1 F1800
G1 X85.842 Y111.209 E1.01906
G1 X85.842 Y110.269 E1.11454
G1 X84.769 Y111.342 E1.26862
G1 X83.829 Y111.342 E1.36410
G1 X85.842 Y109.329 E1.65321
G1 X85.842 Y108.389 E1.74869
G1 X82.889 Y111.342 E2.17283
G1 X81.949 Y111.342 E2.26831
G1 X85.842 Y107.449 E2.82747
G1 X85.842 Y106.509 E2.92295
G1 X81.009 Y111.342 E3.61714
G1 X80.068 Y111.342 E3.71262
G1 X85.439 Y105.971 E4.48405
G1 X84.854 Y105.971 E4.54353
G1 X84.854 Y105.658 E4.57526
G1 X84.812 Y105.658 E4.57952
G1 X79.128 Y111.342 E5.39583
G1 X78.188 Y111.342 E5.49131
G1 X83.872 Y105.658 E6.30761
G1 X82.932 Y105.658 E6.40309
G1 X77.248 Y111.342 E7.21939
G1 X77.158 Y111.342 E7.22852
G1 X77.158 Y110.491 E7.31487
G1 X81.991 Y105.658 E8.00906
G1 X81.051 Y105.658 E8.10454
G1 X77.158 Y109.551 E8.66370
G1 X77.158 Y108.611 E8.75918
G1 X80.111 Y105.658 E9.18332
G1 X79.171 Y105.658 E9.27880
G1 X77.158 Y107.671 E9.56791
G1 X77.158 Y106.731 E9.66338
G1 X78.231 Y105.658 E9.81747
G1 X77.291 Y105.658 E9.91295
G1 X77.159 Y105.791 E9.93199
G1 E8.93199 F1800.00000
G92 E0
G1 Z0.650 F7800.000
G1 X84.536 Y104.536 F7800.000
G1 E1.00000 F1800.00000
G1 F3600
G1 X84.536 Y87.536 E1.93257
G1 X115.464 Y87.536 E3.62918
G1 X115.464 Y104.536 E4.56175
G1 X123.964 Y104.536 E5.02804
G1 X123.964 Y112.464 E5.46293
G1 X113.036 Y112.464 E6.06240
G1 X113.036 Y88.464 E7.37897
G1 X86.964 Y88.464 E8.80922
G1 X86.964 Y112.464 E10.12579
G1 X76.036 Y112.464 E10.72525
G1 X76.036 Y104.536 E11.16015
G1 X84.476 Y104.536 E11.62314
G1 X84.117 Y104.117 F7800.000
G1 F3600
G1 X84.117 Y87.117 E12.55571
G1 X115.883 Y87.117 E14.29828
G1 X115.883 Y104.117 E15.23085
G1 X124.383 Y104.117 E15.69713
G1 X124.383 Y112.883 E16.17798
G1 X112.617 Y112.883 E16.82341
G1 X112.617 Y88.883 E18.13998
G1 X87.383 Y88.883 E19.52427
G1 X87.383 Y112.883 E20.84084
G1 X75.617 Y112.883 E21.48626
G1 X75.617 Y104.117 E21.96711
G1 X84.057 Y104.117 E22.43011
G1 X83.720 Y103.720 F7800.000
G1 F1800
G1 X83.720 Y86.720 E23.26637
G1 X116.280 Y86.720 E24.86805
G1 X116.280 Y103.720 E25.70431
G1 X124.780 Y103.720 E26.12245
G1 X124.780 Y113.280 E26.59272
G1 X112.220 Y113.280 E27.21057
G1 X112.220 Y89.280 E28.39117
G1 X87.780 Y89.280 E29.59342
G1 X87.780 Y113.280 E30.77402
G1 X75.220 Y113.280 E31.39187
G1 X75.220 Y103.720 E31.86214
G1 X83.660 Y103.720 E32.27732
G1 X84.104 Y103.609 F7800.000
G1 X76.499 Y112.089 F7800.000
G1 F1200
G1 X76.411 Y112.000 E32.28426
G1 X76.411 Y111.404 E32.31715
G1 X77.096 Y112.089 E32.37061
G1 X77.692 Y112.089 E32.40350
G1 X76.411 Y110.808 E32.50348
G1 X76.411 Y110.213 E32.53637
G1 X78.287 Y112.089 E32.68286
G1 X78.883 Y112.089 E32.71575
G1 X76.411 Y109.617 E32.90876
G1 X76.411 Y109.021 E32.94165
G1 X79.479 Y112.089 E33.18118
G1 X80.075 Y112.089 E33.21407
G1 X76.411 Y108.425 E33.50011
G1 X76.411 Y107.829 E33.53300
G1 X80.671 Y112.089 E33.86555
G1 X81.267 Y112.089 E33.89844
G1 X76.411 Y107.233 E34.27751
G1 X76.411 Y106.637 E34.31040
G1 X81.863 Y112.089 E34.73598
G1 X82.459 Y112.089 E34.76888
G1 X76.411 Y106.041 E35.24097
G1 X76.411 Y105.445 E35.27387
G1 X83.055 Y112.089 E35.79248
G1 X83.651 Y112.089 E35.82537
G1 X76.472 Y104.911 E36.38568
G1 X77.068 Y104.911 E36.41857
G1 X84.247 Y112.089 E36.97888
G1 X84.843 Y112.089 E37.01177
G1 X77.664 Y104.911 E37.57208
G1 X78.260 Y104.911 E37.60497
G1 X85.439 Y112.089 E38.16528
G1 X86.035 Y112.089 E38.19817
G1 X78.856 Y104.911 E38.75848
G1 X79.452 Y104.911 E38.79137
G1 X86.589 Y112.048 E39.34843
G1 X86.589 Y111.452 E39.38132
G1 X80.048 Y104.911 E39.89186
G1 X80.644 Y104.911 E39.92475
G1 X86.589 Y110.856 E40.38878
G1 X86.589 Y110.260 E40.42167
G1 X81.240 Y104.911 E40.83919
G1 X81.836 Y104.911 E40.87208
G1 X86.589 Y109.664 E41.24308
G1 X86.589 Y109.068 E41.27597
G1 X82.432 Y104.911 E41.60045
G1 X83.028 Y104.911 E41.63334
G1 X86.589 Y108.472 E41.91131
G1 X86.589 Y107.876 E41.94420
G1 X83.624 Y104.911 E42.17565
G1 X84.220 Y104.911 E42.20854
G1 X86.589 Y107.280 E42.39348
G1 X86.589 Y106.684 E42.42637
G1 X84.816 Y104.911 E42.56480
G1 X84.911 Y104.911 E42.57002
G1 X84.911 Y104.409 E42.59769
G1 X86.589 Y106.088 E42.72872
G1 X86.589 Y105.492 E42.76161
G1 X84.911 Y103.813 E42.89265
G1 X84.911 Y103.217 E42.92554
G1 X86.589 Y104.896 E43.05658
G1 X86.589 Y104.300 E43.08947
G1 X84.911 Y102.621 E43.22051
G1 X84.911 Y102.025 E43.25340
G1 X86.589 Y103.704 E43.38443
G1 X86.589 Y103.108 E43.41732
G1 X84.911 Y101.429 E43.54836
G1 X84.911 Y100.833 E43.58125
G1 X86.589 Y102.512 E43.71229
G1 X86.589 Y101.916 E43.74518
G1 X84.911 Y100.237 E43.87622
G1 X84.911 Y99.641 E43.90911
G1 X86.589 Y101.320 E44.04014
G1 X86.589 Y100.724 E44.07303
G1 X84.911 Y99.045 E44.20407
G1 X84.911 Y98.450 E44.23696
G1 X86.589 Y100.128 E44.36800
G1 X86.589 Y99.532 E44.40089
G1 X84.911 Y97.854 E44.53193
G1 X84.911 Y97.258 E44.56482
G1 X86.589 Y98.936 E44.69585
G1 X86.589 Y98.340 E44.72874
G1 X84.911 Y96.662 E44.85978
G1 X84.911 Y96.066 E44.89267
G1 X86.589 Y97.745 E45.02371
G1 X86.589 Y97.149 E45.05660
G1 X84.911 Y95.470 E45.18764
G1 X84.911 Y94.874 E45.22053
G1 X86.589 Y96.553 E45.35156
G1 X86.589 Y95.957 E45.38445
G1 X84.911 Y94.278 E45.51549
G1 X84.911 Y93.682 E45.54838
G1 X86.589 Y95.361 E45.67942
G1 X86.589 Y94.765 E45.71231
G1 X84.911 Y93.086 E45.84334
G1 X84.911 Y92.490 E45.87624
G1 X86.589 Y94.169 E46.00727
G1 X86.589 Y93.573 E46.04016
G1 X84.911 Y91.894 E46.17120
G1 X84.911 Y91.298 E46.20409
G1 X86.589 Y92.977 E46.33513
G1 X86.589 Y92.381 E46.36802
G1 X84.911 Y90.702 E46.49905
G1 X84.911 Y90.106 E46.53195
G1 X86.589 Y91.785 E46.66298
G1 X86.589 Y91.189 E46.69587
G1 X84.911 Y89.510 E46.82691
G1 X84.911 Y88.914 E46.85980
G1 X86.589 Y90.593 E46.99084
G1 X86.589 Y89.997 E47.02373
G1 X84.911 Y88.318 E47.15476
G1 X84.911 Y87.911 E47.17725
G1 X85.099 Y87.911 E47.18766
G1 X86.589 Y89.401 E47.30398
G1 X86.589 Y88.805 E47.33687
G1 X86.502 Y88.718 E47.34368
G1 X86.380 Y88.718 E47.35042
G1 X86.380 Y88.596 E47.35717
G1 X85.695 Y87.911 E47.41063
G1 X86.291 Y87.911 E47.44352
G1 X86.380 Y88.000 E47.45046
G1 X86.754 Y88.000 F7800.000
G1 F1200
G1 X113.246 Y88.000 E48.99254
G1 X115.089 Y88.000 F7800.000
G1 F1200
G1 X115.000 Y87.911 E48.99950
G1 X114.403 Y87.911 E49.03252
G1 X115.089 Y88.597 E49.08619
G1 X115.089 Y89.194 E49.11922
G1 X113.806 Y87.911 E49.21960
G1 X113.620 Y87.911 E49.22989
G1 X113.620 Y88.322 E49.25262
G1 X115.089 Y89.791 E49.36755
G1 X115.089 Y90.388 E49.40058
G1 X113.411 Y88.709 E49.53189
G1 X113.411 Y89.307 E49.56491
G1 X115.089 Y90.986 E49.69622
G1 X115.089 Y91.583 E49.72925
G1 X113.411 Y89.904 E49.86056
G1 X113.411 Y90.501 E49.89358
G1 X115.089 Y92.180 E50.02489
G1 X115.089 Y92.777 E50.05792
G1 X113.411 Y91.098 E50.18923
G1 X113.411 Y91.696 E50.22225
G1 X115.089 Y93.374 E50.35356
G1 X115.089 Y93.972 E50.38659
G1 X113.411 Y92.293 E50.51789
G1 X113.411 Y92.890 E50.55092
G1 X115.089 Y94.569 E50.68223
G1 X115.089 Y95.166 E50.71526
G1 X113.411 Y93.487 E50.84656
G1 X113.411 Y94.084 E50.87959
G1 X115.089 Y95.763 E51.01090
G1 X115.089 Y96.360 E51.04393
G1 X113.411 Y94.682 E51.17523
G1 X113.411 Y95.279 E51.20826
G1 X115.089 Y96.958 E51.33957
G1 X115.089 Y97.555 E51.37260
G1 X113.411 Y95.876 E51.50390
G1 X113.411 Y96.473 E51.53693
G1 X115.089 Y98.152 E51.66824
G1 X115.089 Y98.749 E51.70127
G1 X113.411 Y97.070 E51.83257
G1 X113.411 Y97.668 E51.86560
G1 X115.089 Y99.346 E51.99691
G1 X115.089 Y99.944 E52.02994
G1 X113.411 Y98.265 E52.16124
G1 X113.411 Y98.862 E52.19427
G1 X115.089 Y100.541 E52.32558
G1 X115.089 Y101.138 E52.35860
G1 X113.411 Y99.459 E52.48991
G1 X113.411 Y100.056 E52.52294
G1 X115.089 Y101.735 E52.65425
G1 X115.089 Y102.332 E52.68727
G1 X113.411 Y100.654 E52.81858
G1 X113.411 Y101.251 E52.85161
G1 X115.089 Y102.930 E52.98292
G1 X115.089 Y103.527 E53.01594
G1 X113.411 Y101.848 E53.14725
G1 X113.411 Y102.445 E53.18028
G1 X115.089 Y104.124 E53.31159
G1 X115.089 Y104.721 E53.34461
G1 X113.411 Y103.042 E53.47592
G1 X113.411 Y103.640 E53.50895
G1 X121.860 Y112.089 E54.16982
G1 X121.263 Y112.089 E54.20285
G1 X113.411 Y104.237 E54.81701
G1 X113.411 Y104.834 E54.85004
G1 X120.666 Y112.089 E55.41749
G1 X120.069 Y112.089 E55.45052
G1 X113.411 Y105.431 E55.97127
G1 X113.411 Y106.028 E56.00430
G1 X119.472 Y112.089 E56.47834
G1 X118.874 Y112.089 E56.51136
G1 X113.411 Y106.626 E56.93869
G1 X113.411 Y107.223 E56.97172
G1 X118.277 Y112.089 E57.35235
G1 X117.680 Y112.089 E57.38537
G1 X113.411 Y107.820 E57.71929
G1 X113.411 Y108.417 E57.75232
G1 X117.083 Y112.089 E58.03953
G1 X116.486 Y112.089 E58.07255
G1 X113.411 Y109.014 E58.31305
G1 X113.411 Y109.612 E58.34608
G1 X115.888 Y112.089 E58.53987
G1 X115.291 Y112.089 E58.57290
G1 X113.411 Y110.209 E58.71999
G1 X113.411 Y110.806 E58.75301
G1 X114.694 Y112.089 E58.85339
G1 X114.097 Y112.089 E58.88642
G1 X113.411 Y111.403 E58.94009
G1 X113.411 Y112.000 E58.97311
G1 X113.499 Y112.089 E58.98006
G1 X121.860 Y112.089 F7800.000
G1 F1200
G1 X122.458 Y112.089 E59.01309
G1 X115.279 Y104.911 E59.57456
G1 X115.876 Y104.911 E59.60759
G1 X123.055 Y112.089 E60.16905
G1 X123.589 Y112.089 E60.19862
G1 X123.589 Y112.027 E60.20208
G1 X116.473 Y104.911 E60.75865
G1 X117.070 Y104.911 E60.79168
G1 X123.589 Y111.430 E61.30154
G1 X123.589 Y110.832 E61.33457
G1 X117.668 Y104.911 E61.79773
G1 X118.265 Y104.911 E61.83076
G1 X123.589 Y110.235 E62.24721
G1 X123.589 Y109.638 E62.28023
G1 X118.862 Y104.911 E62.64997
G1 X119.459 Y104.911 E62.68300
G1 X123.589 Y109.041 E63.00603
G1 X123.589 Y108.444 E63.03906
G1 X120.056 Y104.911 E63.31539
G1 X120.654 Y104.911 E63.34842
G1 X123.589 Y107.846 E63.57803
G1 X123.589 Y107.249 E63.61106
G1 X121.251 Y104.911 E63.79397
G1 X121.848 Y104.911 E63.82700
G1 X123.589 Y106.652 E63.96320
G1 X123.589 Y106.055 E63.99623
G1 X122.445 Y104.911 E64.08572
G1 X123.042 Y104.911 E64.11875
G1 X123.589 Y105.458 E64.16153
G1 E63.16153 F1800.00000
G92 E0
G1 Z0.950 F7800.000
G1 X84.536 Y104.536 F7800.000
G1 E1.00000 F1800.00000
G1 F3600
G1 X84.536 Y87.536 E1.93257
G1 X115.464 Y87.536 E3.62918
G1 X115.464 Y104.536 E4.56175
G1 X123.964 Y104.536 E5.02804
G1 X123.964 Y112.464 E5.46293
G1 X113.036 Y112.464 E6.06240
G1 X113.036 Y88.464 E7.37897
G1 X86.964 Y88.464 E8.80922
G1 X86.964 Y112.464 E10.12579
G1 X76.036 Y112.464 E10.72525
G1 X76.036 Y104.536 E11.16015
G1 X84.476 Y104.536 E11.62314
G1 X84.117 Y104.117 F7800.000
G1 F3600
G1 X84.117 Y87.117 E12.55571
G1 X115.883 Y87.117 E14.29828
G1 X115.883 Y104.117 E15.23085
G1 X124.383 Y104.117 E15.69713
G1 X124.383 Y112.883 E16.17798
G1 X112.617 Y112.883 E16.82341
G1 X112.617 Y88.883 E18.13998
G1 X87.383 Y88.883 E19.52427
G1 X87.383 Y112.883 E20.84084
G1 X75.617 Y112.883 E21.48626
G1 X75.617 Y104.117 E21.96711
G1 X84.057 Y104.117 E22.43011
G1 X83.720 Y103.720 F7800.000
G1 F1800
G1 X83.720 Y86.720 E23.26637
G1 X116.280 Y86.720 E24.86805
G1 X116.280 Y103.720 E25.70431
G1 X124.780 Y103.720 E26.12245
G1 X124.780 Y113.280 E26.59272
G1 X112.220 Y113.280 E27.21057
G1 X112.220 Y89.280 E28.39117
G1 X87.780 Y89.280 E29.59342
G1 X87.780 Y113.280 E30.77402
G1 X75.220 Y113.280 E31.39187
G1 X75.220 Y103.720 E31.86214
G1 X83.660 Y103.720 E32.27732
G1 X84.104 Y103.609 F7800.000
G1 X76.869 Y104.999 F7800.000
G1 F1200
G1 X76.411 Y104.999 E32.30266
G1 X76.411 Y105.458 E32.32800
G1 X76.958 Y104.911 E32.37079
G1 X77.555 Y104.911 E32.40382
G1 X76.411 Y106.055 E32.49331
G1 X76.411 Y106.652 E32.52634
G1 X78.152 Y104.911 E32.66254
G1 X78.749 Y104.911 E32.69557
G1 X76.411 Y107.249 E32.87848
G1 X76.411 Y107.846 E32.91151
G1 X79.346 Y104.911 E33.14112
G1 X79.944 Y104.911 E33.17415
