; generated by Slic3r 1.3.0 on 2020-08-16 at 10:41:29

; external perimeters extrusion width = 0.44mm (3.38mm^3/s)
; perimeters extrusion width = 0.48mm (7.54mm^3/s)
; infill extrusion width = 0.48mm (10.05mm^3/s)
; solid infill extrusion width = 0.48mm (2.51mm^3/s)
; top infill extrusion width = 0.48mm (1.88mm^3/s)

M107
M104 S200 ; set temperature
G28 ; home all axes
G1 Z5 F5000 ; lift nozzle

; Filament gcode

M109 S200 ; set temperature and wait for it to be reached
G21 ; set units to millimeters
G90 ; use absolute coordinates
M82 ; use absolute distances for extrusion
G92 E0
G1 E-1.00000 F1800.00000
G92 E0
G1 Z0.350 F7800.000
G1 X21.327 Y52.652 F7800.000
G1 E1.00000 F1800.00000
G1 F1800
G1 X22.236 Y52.388 E1.09028
G1 X61.736 Y48.388 E4.88087
G1 X62.000 Y48.375 E4.90615
G1 X138.000 Y48.375 E12.16233
G1 X138.264 Y48.388 E12.18762
G1 X177.764 Y52.388 E15.97821
G1 X179.098 Y52.918 E16.11524
G1 X179.955 Y54.070 E16.25227
G1 X180.125 Y55.000 E16.34255
G1 X180.125 Y149.000 E25.31730
G1 X179.733 Y150.381 E25.45433
G1 X178.673 Y151.348 E25.59136
G1 X177.500 Y151.625 E25.70639
G1 X22.500 Y151.625 E40.50518
G1 X21.119 Y151.233 E40.64221
G1 X20.152 Y150.173 E40.77924
G1 X19.875 Y149.000 E40.89428
G1 X19.875 Y55.000 E49.86903
G1 X20.267 Y53.619 E50.00606
G1 X21.283 Y52.692 E50.13736
G1 E49.13736 F1800.00000
G92 E0
G1 X63.600 Y56.600 F7800.000
G1 E1.00000 F1800.00000
G1 F1800
G1 X63.600 Y52.600 E1.38190
G1 X136.400 Y52.600 E8.33260
G1 X136.400 Y56.600 E8.71451
G1 X175.900 Y56.600 E12.48581
G1 X175.900 Y147.400 E21.15508
G1 X24.100 Y147.400 E35.64839
G1 X24.100 Y56.600 E44.31766
G1 X63.540 Y56.600 E48.08323
G1 X62.975 Y55.975 F7800.000
G1 F1800
G1 X62.975 Y51.975 E48.46514
G1 X137.025 Y51.975 E55.53516
G1 X137.025 Y55.975 E55.91706
G1 X176.525 Y55.975 E59.68837
G1 X176.525 Y148.025 E68.47696
G1 X23.475 Y148.025 E83.08959
G1 X23.475 Y55.975 E91.87819
G1 X62.915 Y55.975 E95.64376
G1 X62.350 Y55.350 F7800.000
G1 F1800
G1 X62.350 Y51.350 E96.02567
G1 X137.650 Y51.350 E103.21501
G1 X137.650 Y55.350 E103.59692
G1 X177.150 Y55.350 E107.36822
G1 X177.150 Y148.650 E116.27614
G1 X22.850 Y148.650 E131.00809
G1 X22.850 Y55.350 E139.91601
G1 X62.290 Y55.350 E143.68159
G1 X62.720 Y55.198 F7800.000
G1 E142.68159 F1800.00000
G92 E0
G1 X65.117 Y53.158 F7800.000
G1 E1.00000 F1800.00000
G1 F1800
G1 X64.158 Y54.117 E1.12972
G1 X64.158 Y55.003 E1.21452
G1 X66.003 Y53.158 E1.46418
G1 X66.889 Y53.158 E1.54898
G1 X64.158 Y55.889 E1.91857
G1 X64.158 Y56.775 E2.00337
G1 X67.775 Y53.158 E2.49289
G1 X68.661 Y53.158 E2.57769
G1 X24.658 Y97.161 E8.53418
G1 X24.658 Y98.047 E8.61898
G1 X69.547 Y53.158 E14.69540
G1 X70.433 Y53.158 E14.78020
G1 X24.658 Y98.932 E20.97655
G1 X24.658 Y99.818 E21.06136
G1 X71.318 Y53.158 E27.37764
G1 X72.204 Y53.158 E27.46244
G1 X24.658 Y100.704 E33.89866
G1 X24.658 Y101.590 E33.98347
G1 X73.090 Y53.158 E40.53961
G1 X73.976 Y53.158 E40.62442
G1 X24.658 Y102.476 E47.30050
G1 X24.658 Y103.362 E47.38531
G1 X74.862 Y53.158 E54.18132
G1 X75.748 Y53.158 E54.26613
G1 X24.658 Y104.248 E61.18207
G1 X24.658 Y105.134 E61.26688
G1 X76.634 Y53.158 E68.30276
G1 X77.520 Y53.158 E68.38757
G1 X24.658 Y106.020 E75.54338
G1 X24.658 Y106.906 E75.62819
G1 X78.406 Y53.158 E82.90394
G1 X79.292 Y53.158 E82.98874
G1 X24.658 Y107.792 E90.38442
G1 X24.658 Y108.678 E90.46923
G1 X80.178 Y53.158 E97.98484
G1 X81.064 Y53.158 E98.06965
G1 X24.658 Y109.564 E105.70520
G1 X24.658 Y110.450 E105.79000
G1 X81.950 Y53.158 E113.54548
G1 X82.836 Y53.158 E113.63029
G1 X24.658 Y111.336 E121.50571
G1 X24.658 Y112.222 E121.59051
G1 X83.722 Y53.158 E129.58586
G1 X84.608 Y53.158 E129.67066
G1 X24.658 Y113.108 E137.78595
G1 X24.658 Y113.994 E137.87075
G1 X85.494 Y53.158 E146.10597
G1 X86.380 Y53.158 E146.19077
G1 X24.658 Y114.880 E154.54592
G1 X24.658 Y115.766 E154.63073
G1 X87.266 Y53.158 E163.10581
G1 X88.152 Y53.158 E163.19061
G1 X24.658 Y116.652 E171.78563
G1 X24.658 Y117.538 E171.87043
G1 X89.038 Y53.158 E180.58538
G1 X89.924 Y53.158 E180.67019
G1 X24.658 Y118.424 E189.50507
G1 X24.658 Y119.310 E189.58987
G1 X90.810 Y53.158 E198.54469
G1 X91.696 Y53.158 E198.62950
G1 X24.658 Y120.196 E207.70424
G1 X24.658 Y121.082 E207.78905
G1 X92.582 Y53.158 E216.98373
G1 X93.468 Y53.158 E217.06854
G1 X24.658 Y121.968 E226.38315
G1 X24.658 Y122.854 E226.46796
G1 X94.354 Y53.158 E235.90251
G1 X95.240 Y53.158 E235.98731
G1 X24.658 Y123.740 E245.54179
G1 X24.658 Y124.626 E245.62660
G1 X96.126 Y53.158 E255.30101
G1 X97.012 Y53.158 E255.38582
G1 X24.658 Y125.512 E265.18017
G1 X24.658 Y126.398 E265.26497
G1 X97.898 Y53.158 E275.17925
G1 X98.784 Y53.158 E275.26406
G1 X24.658 Y127.284 E285.29828
G1 X24.658 Y128.170 E285.38308
G1 X99.670 Y53.158 E295.53723
G1 X100.556 Y53.158 E295.62204
G1 X24.658 Y129.056 E305.89612
G1 X24.658 Y129.942 E305.98092
G1 X101.442 Y53.158 E316.37494
G1 X102.328 Y53.158 E316.45974
G1 X24.658 Y130.828 E326.97369
G1 X24.658 Y131.714 E327.05850
G1 X103.214 Y53.158 E337.69238
G1 X104.100 Y53.158 E337.77718
G1 X24.658 Y132.600 E348.53100
G1 X24.658 Y133.486 E348.61581
G1 X104.986 Y53.158 E359.48955
G1 X105.872 Y53.158 E359.57436
G1 X24.658 Y134.372 E370.56804
G1 X24.658 Y135.258 E370.65285
G1 X106.758 Y53.158 E381.76646
G1 X107.644 Y53.158 E381.85127
G1 X24.658 Y136.144 E393.08482
G1 X24.658 Y137.030 E393.16962
G1 X108.530 Y53.158 E404.52310
G1 X109.416 Y53.158 E404.60791
G1 X24.658 Y137.916 E416.08133
G1 X24.658 Y138.802 E416.16613
G1 X110.302 Y53.158 E427.75948
G1 X111.188 Y53.158 E427.84428
G1 X24.658 Y139.688 E439.55757
G1 X24.658 Y140.574 E439.64237
G1 X112.074 Y53.158 E451.47559
G1 X112.960 Y53.158 E451.56039
G1 X24.658 Y141.460 E463.51354
G1 X24.658 Y142.346 E463.59835
G1 X113.846 Y53.158 E475.67143
G1 X114.732 Y53.158 E475.75624
G1 X24.658 Y143.232 E487.94925
G1 X24.658 Y144.118 E488.03406
G1 X115.618 Y53.158 E500.34700
G1 X116.504 Y53.158 E500.43181
G1 X24.658 Y145.003 E512.86469
G1 X24.658 Y145.889 E512.94950
G1 X117.389 Y53.158 E525.50231
G1 X118.275 Y53.158 E525.58712
G1 X24.658 Y146.775 E538.25987
G1 X24.658 Y146.842 E538.26620
G1 X25.478 Y146.842 E538.34467
G1 X119.161 Y53.158 E551.02638
G1 X120.047 Y53.158 E551.11119
G1 X26.364 Y146.842 E563.79290
G1 X27.250 Y146.842 E563.87770
G1 X120.933 Y53.158 E576.55941
G1 X121.819 Y53.158 E576.64422
G1 X28.136 Y146.842 E589.32592
G1 X29.022 Y146.842 E589.41073
G1 X122.705 Y53.158 E602.09244
G1 X123.591 Y53.158 E602.17724
G1 X29.908 Y146.842 E614.85895
G1 X30.794 Y146.842 E614.94376
G1 X124.477 Y53.158 E627.62546
G1 X125.363 Y53.158 E627.71027
G1 X31.680 Y146.842 E640.39198
G1 X32.566 Y146.842 E640.47678
G1 X126.249 Y53.158 E653.15849
G1 X127.135 Y53.158 E653.24330
G1 X33.452 Y146.842 E665.92501
G1 X34.338 Y146.842 E666.00981
G1 X128.021 Y53.158 E678.69152
G1 X128.907 Y53.158 E678.77633
G1 X35.224 Y146.842 E691.45803
G1 X36.110 Y146.842 E691.54284
G1 X129.793 Y53.158 E704.22455
G1 X130.679 Y53.158 E704.30935
G1 X36.996 Y146.842 E716.99106
G1 X37.882 Y146.842 E717.07587
G1 X131.565 Y53.158 E729.75758
G1 X132.451 Y53.158 E729.84238
G1 X38.768 Y146.842 E742.52409
G1 X39.654 Y146.842 E742.60889
G1 X133.337 Y53.158 E755.29060
G1 X134.223 Y53.158 E755.37541
G1 X40.540 Y146.842 E768.05712
G1 X41.426 Y146.842 E768.14192
G1 X135.109 Y53.158 E780.82363
G1 X135.842 Y53.158 E780.89375
G1 X135.842 Y53.312 E780.90844
G1 X42.312 Y146.842 E793.56937
G1 X43.198 Y146.842 E793.65418
G1 X135.842 Y54.198 E806.19518
G1 X135.842 Y55.084 E806.27998
G1 X44.084 Y146.842 E818.70105
G1 X44.970 Y146.842 E818.78586
G1 X135.842 Y55.970 E831.08699
G1 X135.842 Y56.856 E831.17180
G1 X45.856 Y146.842 E843.35300
G1 X46.742 Y146.842 E843.43780
G1 X136.425 Y57.158 E855.57804
G1 X137.311 Y57.158 E855.66284
G1 X47.628 Y146.842 E867.80308
G1 X48.514 Y146.842 E867.88789
G1 X138.197 Y57.158 E880.02812
G1 X139.083 Y57.158 E880.11293
G1 X49.400 Y146.842 E892.25316
G1 X50.286 Y146.842 E892.33797
G1 X139.969 Y57.158 E904.47821
G1 X140.855 Y57.158 E904.56301
G1 X51.172 Y146.842 E916.70325
G1 X52.058 Y146.842 E916.78805
G1 X141.741 Y57.158 E928.92829
G1 X142.627 Y57.158 E929.01310
G1 X52.944 Y146.842 E941.15333
G1 X53.830 Y146.842 E941.23814
G1 X143.513 Y57.158 E953.37838
G1 X144.399 Y57.158 E953.46318
G1 X54.716 Y146.842 E965.60342
G1 X55.602 Y146.842 E965.68822
G1 X145.285 Y57.158 E977.82846
G1 X146.171 Y57.158 E977.91327
G1 X56.487 Y146.842 E990.05350
G1 X57.373 Y146.842 E990.13831
G1 X147.057 Y57.158 E1002.27855
G1 X147.943 Y57.158 E1002.36335
G1 X58.259 Y146.842 E1014.50359
G1 X59.145 Y146.842 E1014.58839
G1 X148.829 Y57.158 E1026.72863
G1 X149.715 Y57.158 E1026.81343
G1 X60.031 Y146.842 E1038.95367
G1 X60.917 Y146.842 E1039.03848
G1 X150.601 Y57.158 E1051.17871
G1 X151.487 Y57.158 E1051.26352
G1 X61.803 Y146.842 E1063.40376
G1 X62.689 Y146.842 E1063.48856
G1 X152.373 Y57.158 E1075.62880
G1 X153.259 Y57.158 E1075.71360
G1 X63.575 Y146.842 E1087.85384
G1 X64.461 Y146.842 E1087.93865
G1 X154.145 Y57.158 E1100.07888
G1 X155.031 Y57.158 E1100.16369
G1 X65.347 Y146.842 E1112.30393
G1 X66.233 Y146.842 E1112.38873
G1 X155.917 Y57.158 E1124.52897
G1 X156.803 Y57.158 E1124.61377
G1 X67.119 Y146.842 E1136.75401
G1 X68.005 Y146.842 E1136.83882
G1 X157.689 Y57.158 E1148.97905
G1 X158.575 Y57.158 E1149.06386
G1 X68.891 Y146.842 E1161.20409
G1 X69.777 Y146.842 E1161.28890
G1 X159.461 Y57.158 E1173.42914
G1 X160.346 Y57.158 E1173.51394
G1 X70.663 Y146.842 E1185.65418
G1 X71.549 Y146.842 E1185.73898
G1 X161.232 Y57.158 E1197.87922
G1 X162.118 Y57.158 E1197.96403
G1 X72.435 Y146.842 E1210.10426
G1 X73.321 Y146.842 E1210.18907
G1 X163.004 Y57.158 E1222.32931
G1 X163.890 Y57.158 E1222.41411
G1 X74.207 Y146.842 E1234.55435
G1 X75.093 Y146.842 E1234.63915
G1 X164.776 Y57.158 E1246.77939
G1 X165.662 Y57.158 E1246.86420
G1 X75.979 Y146.842 E1259.00443
G1 X76.865 Y146.842 E1259.08924
G1 X166.548 Y57.158 E1271.22948
G1 X167.434 Y57.158 E1271.31428
G1 X77.751 Y146.842 E1283.45452
G1 X78.637 Y146.842 E1283.53932
G1 X168.320 Y57.158 E1295.67956
G1 X169.206 Y57.158 E1295.76437
G1 X79.523 Y146.842 E1307.90460
G1 X80.409 Y146.842 E1307.98941
G1 X170.092 Y57.158 E1320.12964
G1 X170.978 Y57.158 E1320.21445
G1 X81.295 Y146.842 E1332.35469
G1 X82.181 Y146.842 E1332.43949
G1 X171.864 Y57.158 E1344.57973
G1 X172.750 Y57.158 E1344.66454
G1 X83.067 Y146.842 E1356.80477
G1 X83.953 Y146.842 E1356.88958
G1 X173.636 Y57.158 E1369.02981
G1 X174.522 Y57.158 E1369.11462
G1 X84.839 Y146.842 E1381.25486
G1 X85.725 Y146.842 E1381.33966
G1 X175.342 Y57.225 E1393.47089
G1 X175.342 Y58.111 E1393.55570
G1 X86.611 Y146.842 E1405.56700
G1 X87.497 Y146.842 E1405.65180
G1 X175.342 Y58.997 E1417.54317
G1 X175.342 Y59.883 E1417.62797
G1 X88.383 Y146.842 E1429.39940
G1 X89.269 Y146.842 E1429.48421
G1 X175.342 Y60.769 E1441.13571
G1 X175.342 Y61.655 E1441.22051
G1 X90.155 Y146.842 E1452.75208
G1 X91.041 Y146.842 E1452.83688
G1 X175.342 Y62.541 E1464.24851
G1 X175.342 Y63.427 E1464.33332
G1 X91.927 Y146.842 E1475.62502
G1 X92.813 Y146.842 E1475.70982
G1 X175.342 Y64.313 E1486.88159
G1 X175.342 Y65.199 E1486.96639
G1 X93.699 Y146.842 E1498.01822
G1 X94.585 Y146.842 E1498.10303
G1 X175.342 Y66.085 E1509.03493
G1 X175.342 Y66.971 E1509.11973
G1 X95.471 Y146.842 E1519.93170
G1 X96.357 Y146.842 E1520.01650
G1 X175.342 Y67.857 E1530.70853
G1 X175.342 Y68.743 E1530.79334
G1 X97.243 Y146.842 E1541.36544
G1 X98.129 Y146.842 E1541.45024
G1 X175.342 Y69.629 E1551.90241
G1 X175.342 Y70.515 E1551.98721
G1 X99.015 Y146.842 E1562.31944
G1 X99.901 Y146.842 E1562.40425
G1 X175.342 Y71.401 E1572.61655
G1 X175.342 Y72.287 E1572.70135
G1 X100.787 Y146.842 E1582.79372
G1 X101.673 Y146.842 E1582.87852
G1 X175.342 Y73.173 E1592.85095
G1 X175.342 Y74.059 E1592.93576
G1 X102.558 Y146.842 E1602.78826
G1 X103.444 Y146.842 E1602.87306
G1 X175.342 Y74.945 E1612.60563
G1 X175.342 Y75.830 E1612.69043
G1 X104.330 Y146.842 E1622.30306
G1 X105.216 Y146.842 E1622.38787
G1 X175.342 Y76.716 E1631.88057
G1 X175.342 Y77.602 E1631.96537
G1 X106.102 Y146.842 E1641.33814
G1 X106.988 Y146.842 E1641.42294
G1 X175.342 Y78.488 E1650.67577
G1 X175.342 Y79.374 E1650.76058
G1 X107.874 Y146.842 E1659.89348
G1 X108.760 Y146.842 E1659.97828
G1 X175.342 Y80.260 E1668.99125
G1 X175.342 Y81.146 E1669.07605
G1 X109.646 Y146.842 E1677.96908
G1 X110.532 Y146.842 E1678.05389
G1 X175.342 Y82.032 E1686.82698
G1 X175.342 Y82.918 E1686.91179
G1 X111.418 Y146.842 E1695.56495
G1 X112.304 Y146.842 E1695.64976
G1 X175.342 Y83.804 E1704.18299
G1 X175.342 Y84.690 E1704.26780
G1 X113.190 Y146.842 E1712.68109
G1 X114.076 Y146.842 E1712.76590
G1 X175.342 Y85.576 E1721.05926
G1 X175.342 Y86.462 E1721.14407
G1 X114.962 Y146.842 E1729.31750
G1 X115.848 Y146.842 E1729.40231
G1 X175.342 Y87.348 E1737.45580
G1 X175.342 Y88.234 E1737.54061
G1 X116.734 Y146.842 E1745.47417
G1 X117.620 Y146.842 E1745.55898
G1 X175.342 Y89.120 E1753.37261
G1 X175.342 Y90.006 E1753.45742
G1 X118.506 Y146.842 E1761.15111
G1 X119.392 Y146.842 E1761.23592
G1 X175.342 Y90.892 E1768.80968
G1 X175.342 Y91.778 E1768.89449
G1 X120.278 Y146.842 E1776.34832
G1 X121.164 Y146.842 E1776.43313
G1 X175.342 Y92.664 E1783.76702
G1 X175.342 Y93.550 E1783.85183
G1 X122.050 Y146.842 E1791.06579
G1 X122.936 Y146.842 E1791.15060
G1 X175.342 Y94.436 E1798.24463
G1 X175.342 Y95.322 E1798.32943
G1 X123.822 Y146.842 E1805.30353
G1 X124.708 Y146.842 E1805.38834
G1 X175.342 Y96.208 E1812.24250
G1 X175.342 Y97.094 E1812.32731
G1 X125.594 Y146.842 E1819.06154
G1 X126.480 Y146.842 E1819.14634
G1 X175.342 Y97.980 E1825.76064
G1 X175.342 Y98.866 E1825.84545
G1 X127.366 Y146.842 E1832.33981
G1 X128.252 Y146.842 E1832.42462
G1 X175.342 Y99.752 E1838.79905
G1 X175.342 Y100.638 E1838.88385
G1 X129.138 Y146.842 E1845.13835
G1 X130.024 Y146.842 E1845.22316
G1 X175.342 Y101.524 E1851.35772
G1 X175.342 Y102.410 E1851.44253
G1 X130.910 Y146.842 E1857.45716
G1 X131.796 Y146.842 E1857.54196
G1 X175.342 Y103.296 E1863.43666
G1 X175.342 Y104.182 E1863.52147
G1 X132.682 Y146.842 E1869.29623
G1 X133.568 Y146.842 E1869.38104
G1 X175.342 Y105.068 E1875.03587
G1 X175.342 Y105.954 E1875.12067
G1 X134.454 Y146.842 E1880.65557
G1 X135.340 Y146.842 E1880.74037
G1 X175.342 Y106.840 E1886.15534
G1 X175.342 Y107.726 E1886.24014
G1 X136.226 Y146.842 E1891.53517
G1 X137.112 Y146.842 E1891.61998
G1 X175.342 Y108.612 E1896.79508
G1 X175.342 Y109.498 E1896.87988
G1 X137.998 Y146.842 E1901.93505
G1 X138.884 Y146.842 E1902.01985
G1 X175.342 Y110.384 E1906.95508
G1 X175.342 Y111.270 E1907.03989
G1 X139.770 Y146.842 E1911.85519
G1 X140.656 Y146.842 E1911.93999
G1 X175.342 Y112.156 E1916.63536
G1 X175.342 Y113.042 E1916.72016
G1 X141.542 Y146.842 E1921.29559
G1 X142.428 Y146.842 E1921.38040
G1 X175.342 Y113.928 E1925.83589
G1 X175.342 Y114.814 E1925.92070
G1 X143.314 Y146.842 E1930.25626
G1 X144.200 Y146.842 E1930.34107
G1 X175.342 Y115.700 E1934.55670
G1 X175.342 Y116.586 E1934.64150
G1 X145.086 Y146.842 E1938.73720
G1 X145.972 Y146.842 E1938.82201
G1 X175.342 Y117.472 E1942.79777
G1 X175.342 Y118.358 E1942.88258
G1 X146.858 Y146.842 E1946.73841
G1 X147.744 Y146.842 E1946.82321
G1 X175.342 Y119.244 E1950.55911
G1 X175.342 Y120.130 E1950.64392
G1 X148.630 Y146.842 E1954.25988
G1 X149.515 Y146.842 E1954.34468
G1 X175.342 Y121.015 E1957.84071
G1 X175.342 Y121.901 E1957.92552
G1 X150.401 Y146.842 E1961.30162
G1 X151.287 Y146.842 E1961.38642
G1 X175.342 Y122.787 E1964.64259
G1 X175.342 Y123.673 E1964.72739
G1 X152.173 Y146.842 E1967.86362
G1 X153.059 Y146.842 E1967.94843
G1 X175.342 Y124.559 E1970.96473
G1 X175.342 Y125.445 E1971.04953
G1 X153.945 Y146.842 E1973.94589
G1 X154.831 Y146.842 E1974.03070
G1 X175.342 Y126.331 E1976.80713
G1 X175.342 Y127.217 E1976.89194
